;FLAVOR:Marlin
;TIME:3038
;Filament used: 1.60885m
;Layer height: 0.12
;MINX:134.017
;MINY:141.5
;MINZ:0.12
;MAXX:215.982
;MAXY:208.5
;MAXZ:3.2
;TARGET_MACHINE.NAME:Creality Ender-5 Plus
;Generated with Cura_SteamEngine 5.6.0
M140 S60
M105
M190 S60
M104 S210
M105
M109 S210
M82 ;absolute extrusion mode
M201 X500.00 Y500.00 Z100.00 E5000.00 ;Setup machine max acceleration
M203 X500.00 Y500.00 Z10.00 E50.00 ;Setup machine max feedrate
M204 P500.00 R1000.00 T500.00 ;Setup Print/Retract/Travel acceleration
M205 X8.00 Y8.00 Z0.40 E5.00 ;Setup Jerk
M220 S100 ;Reset Feedrate
M221 S100 ;Reset Flowrate

G28 ;Home
M420 S1 Z2 ;Enable ABL using saved Mesh and Fade Height

G92 E0 ;Reset Extruder
G1 Z2.0 F3000 ;Move Z Axis up
G1 X10.1 Y20 Z0.28 F5000.0 ;Move to start position
G1 X10.1 Y200.0 Z0.28 F1500.0 E15 ;Draw the first line
G1 X10.4 Y200.0 Z0.28 F5000.0 ;Move to side a little
G1 X10.4 Y20 Z0.28 F1500.0 E30 ;Draw the second line
G92 E0 ;Reset Extruder
G1 Z2.0 F3000 ;Move Z Axis up

G92 E0
G92 E0
G1 F1500 E-6.5
;LAYER_COUNT:25
;LAYER:0
M107
G1 F300 Z0.32
G0 F6000 X146.888 Y145.073 Z0.32
;TYPE:SKIRT
G1 F300 Z0.12
G1 F1500 E0
G1 F1200 X147.401 Y144.578 E0.01423
G1 X148.132 Y143.936 E0.03364
G1 X148.918 Y143.359 E0.0531
G1 X149.72 Y142.872 E0.07182
G1 X150.627 Y142.427 E0.09199
G1 X151.535 Y142.079 E0.11139
G1 X152.471 Y141.81 E0.13083
G1 X153.445 Y141.625 E0.15061
G1 X154.773 Y141.514 E0.1772
G1 X155.579 Y141.5 E0.19329
G1 X170.483 Y141.501 E0.49072
G1 X171.221 Y141.514 E0.50545
G1 X172.193 Y141.575 E0.52488
G1 X173.156 Y141.722 E0.54432
G1 X174.101 Y141.954 E0.56374
G1 X174.996 Y142.258 E0.5826
G1 X176.19 Y142.805 E0.60881
G1 X176.899 Y143.186 E0.62488
G1 X177.88 Y143.734 E0.6473
G1 X180.094 Y144.891 E0.69715
G1 X182.401 Y146.016 E0.74837
G1 X184.685 Y147.05 E0.79841
G1 X187.02 Y148.028 E0.84893
G1 X189.372 Y148.937 E0.89925
G1 X191.7 Y149.762 E0.94853
G1 X194.112 Y150.539 E0.9991
G1 X196.543 Y151.249 E1.04964
G1 X200.459 Y152.252 E1.13031
G1 X201.151 Y152.439 E1.14462
G1 X202.063 Y152.73 E1.16372
G1 X202.563 Y152.927 E1.17445
G1 X203.69 Y153.41 E1.19892
G1 X204.383 Y153.728 E1.21413
G1 X205.211 Y154.153 E1.23271
G1 X205.657 Y154.421 E1.24309
G1 X206.474 Y154.942 E1.26243
G1 X207.315 Y155.507 E1.28265
G1 X208.064 Y156.06 E1.30123
G1 X208.477 Y156.41 E1.31203
G1 X209.146 Y157.011 E1.32998
G1 X209.925 Y157.743 E1.35131
G1 X210.555 Y158.39 E1.36933
G1 X210.941 Y158.844 E1.38122
G1 X211.526 Y159.579 E1.39997
G1 X212.159 Y160.41 E1.42081
G1 X212.674 Y161.152 E1.43884
G1 X213.006 Y161.713 E1.45185
G1 X213.605 Y162.8 E1.47662
G1 X213.919 Y163.4 E1.49013
G1 X214.313 Y164.243 E1.5087
G1 X214.516 Y164.766 E1.5199
G1 X214.932 Y165.944 E1.54483
G1 X215.173 Y166.684 E1.56036
G1 X215.421 Y167.581 E1.57893
G1 X215.531 Y168.122 E1.58995
G1 X215.732 Y169.266 E1.61313
G1 X215.851 Y170.037 E1.62869
G1 X215.95 Y170.963 E1.64728
G1 X215.972 Y171.559 E1.65918
G1 X215.982 Y172.788 E1.68371
G1 X215.969 Y173.541 E1.69874
G1 X215.911 Y174.499 E1.71789
G1 X215.839 Y175.044 E1.72886
G1 X215.651 Y176.218 E1.75259
G1 X215.514 Y176.964 E1.76772
G1 X215.306 Y177.871 E1.78629
G1 X215.143 Y178.408 E1.79749
G1 X214.768 Y179.536 E1.82121
G1 X214.528 Y180.207 E1.83544
G1 X214.151 Y181.127 E1.85528
G1 X213.906 Y181.621 E1.86628
G1 X213.325 Y182.718 E1.89105
G1 X212.961 Y183.368 E1.90592
G1 X212.485 Y184.136 E1.92395
G1 X212.163 Y184.587 E1.93501
G1 X211.592 Y185.338 E1.95384
G1 X210.948 Y186.147 E1.97447
G1 X210.335 Y186.851 E1.9931
G1 X209.89 Y187.292 E2.0056
G1 X208.986 Y188.137 E2.0303
G1 X208.438 Y188.624 E2.04493
G1 X207.715 Y189.212 E2.06353
G1 X207.258 Y189.534 E2.07468
G1 X206.258 Y190.199 E2.09865
G1 X205.636 Y190.592 E2.11333
G1 X204.829 Y191.054 E2.13189
G1 X204.315 Y191.303 E2.14329
G1 X203.211 Y191.798 E2.16743
G1 X202.242 Y192.203 E2.18839
G1 X201.438 Y192.515 E2.2056
G1 X199.032 Y193.488 E2.25739
G1 X196.758 Y194.485 E2.30694
G1 X194.425 Y195.585 E2.35841
G1 X192.215 Y196.706 E2.40787
G1 X189.994 Y197.912 E2.4583
G1 X187.828 Y199.169 E2.50828
G1 X185.688 Y200.492 E2.55849
G1 X183.569 Y201.886 E2.6091
G1 X181.508 Y203.33 E2.65932
G1 X179.514 Y204.811 E2.70889
G1 X178.796 Y205.381 E2.72719
G1 X177.741 Y206.196 E2.75379
G1 X176.912 Y206.774 E2.77396
G1 X176.069 Y207.26 E2.79338
G1 X175.25 Y207.642 E2.81141
G1 X174.267 Y207.998 E2.83227
G1 X173.36 Y208.236 E2.85099
G1 X172.357 Y208.407 E2.87129
G1 X171.209 Y208.488 E2.89426
G1 X170.455 Y208.5 E2.90931
G1 X155.567 Y208.499 E3.20641
G1 X154.831 Y208.487 E3.2211
G1 X153.859 Y208.428 E3.24054
G1 X152.896 Y208.282 E3.25997
G1 X151.948 Y208.051 E3.27945
G1 X151.092 Y207.763 E3.29747
G1 X150.136 Y207.344 E3.3183
G1 X149.283 Y206.873 E3.33774
G1 X148.476 Y206.328 E3.35718
G1 X147.721 Y205.715 E3.37658
G1 X147.022 Y205.037 E3.39602
G1 X146.41 Y204.332 E3.41465
G1 X145.991 Y203.769 E3.42865
G1 X145.557 Y203.142 E3.44387
G1 X136.236 Y189.159 E3.77923
G1 X135.768 Y188.433 E3.79647
G1 X135.278 Y187.591 E3.81591
G1 X134.865 Y186.709 E3.83535
G1 X134.554 Y185.861 E3.85337
G1 X134.283 Y184.853 E3.8742
G1 X134.121 Y183.924 E3.89302
G1 X134.029 Y182.684 E3.91783
G1 X134.017 Y181.914 E3.9332
G1 X134.018 Y163.05 E4.30965
G1 X134.03 Y162.313 E4.32436
G1 X134.089 Y161.341 E4.34379
G1 X134.235 Y160.378 E4.36323
G1 X134.466 Y159.431 E4.38268
G1 X134.779 Y158.51 E4.4021
G1 X135.173 Y157.618 E4.42156
G1 X135.644 Y156.765 E4.441
G1 X136.17 Y155.984 E4.45979
G1 X136.969 Y155.016 E4.48484
G1 X137.388 Y154.576 E4.49697
G1 X146.888 Y145.073 E4.76512
G0 F6000 X147.166 Y145.361
G1 F1200 X147.666 Y144.878 E4.77899
G1 X148.369 Y144.258 E4.7977
G1 X149.126 Y143.701 E4.81645
G1 X149.928 Y143.214 E4.83518
G1 X150.771 Y142.8 E4.85392
G1 X151.646 Y142.463 E4.87263
G1 X152.547 Y142.203 E4.89135
G1 X153.478 Y142.024 E4.91027
G1 X154.806 Y141.913 E4.93686
G1 X155.579 Y141.9 E4.95229
G1 X170.476 Y141.901 E5.24957
G1 X171.197 Y141.913 E5.26396
G1 X172.133 Y141.97 E5.28268
G1 X173.061 Y142.111 E5.30141
G1 X173.973 Y142.333 E5.32014
G1 X174.829 Y142.622 E5.33817
G1 X176.023 Y143.169 E5.36438
G1 X176.704 Y143.535 E5.37981
G1 X177.695 Y144.089 E5.40246
G1 X179.919 Y145.251 E5.45254
G1 X182.226 Y146.376 E5.50376
G1 X184.53 Y147.419 E5.55423
G1 X186.865 Y148.397 E5.60475
G1 X189.238 Y149.314 E5.65552
G1 X191.577 Y150.143 E5.70504
G1 X193.989 Y150.92 E5.75561
G1 X196.431 Y151.633 E5.80638
G1 X200.355 Y152.638 E5.88721
G1 X201.03 Y152.82 E5.90117
G1 X201.916 Y153.102 E5.91972
G1 X202.405 Y153.295 E5.93021
G1 X203.523 Y153.774 E5.95448
G1 X204.2 Y154.084 E5.96934
G1 X205.028 Y154.509 E5.98792
G1 X205.442 Y154.758 E5.99756
G1 X206.251 Y155.274 E6.01671
G1 X207.077 Y155.829 E6.03657
G1 X207.826 Y156.382 E6.05515
G1 X208.21 Y156.708 E6.0652
G1 X208.872 Y157.302 E6.08295
G1 X209.638 Y158.022 E6.10393
G1 X210.268 Y158.669 E6.12195
G1 X210.628 Y159.093 E6.13305
G1 X211.208 Y159.821 E6.15162
G1 X211.83 Y160.638 E6.17211
G1 X212.345 Y161.38 E6.19014
G1 X212.656 Y161.906 E6.20233
G1 X213.251 Y162.985 E6.22692
G1 X213.557 Y163.57 E6.2401
G1 X213.94 Y164.388 E6.25812
G1 X214.139 Y164.899 E6.26907
G1 X214.552 Y166.067 E6.29379
G1 X214.787 Y166.791 E6.30898
G1 X215.035 Y167.688 E6.32755
G1 X215.137 Y168.191 E6.33779
G1 X215.337 Y169.327 E6.36081
G1 X215.453 Y170.08 E6.37602
G1 X215.552 Y171.006 E6.3946
G1 X215.572 Y171.562 E6.4057
G1 X215.582 Y172.781 E6.43003
G1 X215.57 Y173.517 E6.44472
G1 X215.514 Y174.447 E6.46331
G1 X215.444 Y174.981 E6.47406
G1 X215.257 Y176.146 E6.49761
G1 X215.124 Y176.875 E6.5124
G1 X214.916 Y177.782 E6.53097
G1 X214.763 Y178.282 E6.5414
G1 X214.391 Y179.401 E6.56493
G1 X214.151 Y180.072 E6.57915
G1 X213.792 Y180.95 E6.59808
G1 X213.553 Y181.434 E6.60886
G1 X212.976 Y182.523 E6.63345
G1 X212.621 Y183.157 E6.64795
G1 X212.145 Y183.925 E6.66598
G1 X211.844 Y184.345 E6.67629
G1 X211.279 Y185.089 E6.69494
G1 X210.646 Y185.884 E6.71522
G1 X210.033 Y186.588 E6.73385
G1 X209.617 Y187 E6.74553
G1 X208.72 Y187.838 E6.77003
G1 X208.185 Y188.314 E6.78432
G1 X207.484 Y188.885 E6.80236
G1 X207.036 Y189.201 E6.8133
G1 X206.044 Y189.861 E6.83708
G1 X205.437 Y190.245 E6.85141
G1 X204.654 Y190.694 E6.86942
G1 X204.151 Y190.938 E6.88058
G1 X203.057 Y191.429 E6.90451
G1 X202.097 Y191.83 E6.92527
G1 X201.293 Y192.142 E6.94248
G1 X198.882 Y193.117 E6.99438
G1 X196.587 Y194.123 E7.04439
G1 X194.254 Y195.223 E7.09586
G1 X192.024 Y196.354 E7.14576
G1 X189.803 Y197.56 E7.1962
G1 X187.627 Y198.823 E7.2464
G1 X185.468 Y200.158 E7.29706
G1 X183.349 Y201.552 E7.34768
G1 X181.269 Y203.009 E7.39836
G1 X179.275 Y204.49 E7.44792
G1 X178.551 Y205.064 E7.46636
G1 X177.496 Y205.879 E7.49297
G1 X176.712 Y206.428 E7.51207
G1 X175.9 Y206.897 E7.53078
G1 X175.081 Y207.279 E7.54881
G1 X174.165 Y207.611 E7.56826
G1 X173.258 Y207.849 E7.58697
G1 X172.329 Y208.008 E7.60578
G1 X171.203 Y208.088 E7.62831
G1 X170.455 Y208.1 E7.64324
G1 X155.573 Y208.099 E7.94022
G1 X154.855 Y208.088 E7.95455
G1 X153.918 Y208.032 E7.97328
G1 X152.99 Y207.893 E7.99201
G1 X152.076 Y207.672 E8.01078
G1 X151.22 Y207.384 E8.0288
G1 X150.329 Y206.994 E8.04821
G1 X149.506 Y206.541 E8.06696
G1 X148.728 Y206.017 E8.08568
G1 X147.999 Y205.427 E8.10439
G1 X147.324 Y204.775 E8.12312
G1 X146.712 Y204.07 E8.14175
G1 X146.32 Y203.542 E8.15487
G1 X145.89 Y202.92 E8.16996
G1 X136.572 Y188.942 E8.50521
G1 X136.113 Y188.231 E8.5221
G1 X135.64 Y187.421 E8.54081
G1 X135.241 Y186.571 E8.55955
G1 X134.93 Y185.723 E8.57758
G1 X134.677 Y184.783 E8.597
G1 X134.52 Y183.894 E8.61502
G1 X134.429 Y182.678 E8.63935
G1 X134.417 Y181.914 E8.6546
G1 X134.418 Y163.056 E9.03093
G1 X134.429 Y162.337 E9.04528
G1 X134.485 Y161.4 E9.06402
G1 X134.624 Y160.472 E9.08274
G1 X134.845 Y159.559 E9.10149
G1 X135.145 Y158.671 E9.12019
G1 X135.523 Y157.811 E9.13894
G1 X135.976 Y156.988 E9.15769
G1 X136.479 Y156.238 E9.17571
G1 X137.259 Y155.292 E9.20018
G1 X137.671 Y154.859 E9.2121
G1 X147.166 Y145.361 E9.48012
G0 F6000 X147.444 Y145.649
G1 F1200 X147.931 Y145.178 E9.49364
G1 X148.607 Y144.58 E9.51165
G1 X149.334 Y144.043 E9.52968
G1 X150.105 Y143.573 E9.5477
G1 X150.915 Y143.173 E9.56573
G1 X151.757 Y142.847 E9.58375
G1 X152.624 Y142.596 E9.60176
G1 X153.511 Y142.423 E9.6198
G1 X154.839 Y142.312 E9.64639
G1 X155.579 Y142.3 E9.66116
G1 X170.47 Y142.301 E9.95833
G1 X171.173 Y142.312 E9.97236
G1 X172.074 Y142.366 E9.99037
G1 X172.967 Y142.5 E10.00839
G1 X173.845 Y142.712 E10.02642
G1 X174.701 Y143.001 E10.04445
G1 X175.834 Y143.522 E10.06933
G1 X176.509 Y143.884 E10.08462
G1 X177.5 Y144.438 E10.10727
G1 X179.744 Y145.611 E10.1578
G1 X182.051 Y146.736 E10.20903
G1 X184.375 Y147.788 E10.25993
G1 X186.71 Y148.766 E10.31045
G1 X189.104 Y149.691 E10.36167
G1 X191.454 Y150.524 E10.41143
G1 X193.866 Y151.301 E10.462
G1 X196.319 Y152.017 E10.51299
G1 X200.251 Y153.024 E10.59399
G1 X200.909 Y153.201 E10.60759
G1 X201.769 Y153.474 E10.6256
G1 X202.248 Y153.663 E10.63587
G1 X203.357 Y154.138 E10.65995
G1 X204.018 Y154.44 E10.67445
G1 X204.822 Y154.852 E10.69248
G1 X205.227 Y155.095 E10.7019
G1 X206.028 Y155.606 E10.72086
G1 X206.84 Y156.151 E10.74038
G1 X207.567 Y156.687 E10.75841
G1 X207.943 Y157.006 E10.76825
G1 X208.598 Y157.594 E10.78581
G1 X209.351 Y158.301 E10.80642
G1 X209.981 Y158.948 E10.82444
G1 X210.315 Y159.342 E10.83475
G1 X210.89 Y160.063 E10.85316
G1 X211.501 Y160.866 E10.87329
G1 X212.016 Y161.608 E10.89132
G1 X212.306 Y162.099 E10.9027
G1 X212.897 Y163.171 E10.92713
G1 X213.195 Y163.74 E10.93994
G1 X213.578 Y164.558 E10.95797
G1 X213.762 Y165.033 E10.96813
G1 X214.172 Y166.191 E10.99265
G1 X214.402 Y166.898 E11.00749
G1 X214.643 Y167.768 E11.0255
G1 X214.743 Y168.26 E11.03552
G1 X214.942 Y169.388 E11.05838
G1 X215.055 Y170.123 E11.07322
G1 X215.152 Y171.021 E11.09124
G1 X215.172 Y171.565 E11.10211
G1 X215.182 Y172.775 E11.12625
G1 X215.171 Y173.493 E11.14058
G1 X215.117 Y174.395 E11.15862
G1 X215.049 Y174.918 E11.16914
G1 X214.864 Y176.074 E11.1925
G1 X214.734 Y176.786 E11.20695
G1 X214.533 Y177.666 E11.22496
G1 X214.384 Y178.156 E11.23518
G1 X214.014 Y179.266 E11.25853
G1 X213.774 Y179.937 E11.27275
G1 X213.433 Y180.773 E11.29077
G1 X213.199 Y181.247 E11.30132
G1 X212.627 Y182.328 E11.32573
G1 X212.281 Y182.946 E11.33986
G1 X211.805 Y183.714 E11.35789
G1 X211.526 Y184.103 E11.36744
G1 X210.966 Y184.84 E11.38592
G1 X210.344 Y185.622 E11.40586
G1 X209.751 Y186.304 E11.42389
G1 X209.344 Y186.708 E11.43534
G1 X208.454 Y187.539 E11.45964
G1 X207.932 Y188.004 E11.47359
G1 X207.231 Y188.575 E11.49163
G1 X206.815 Y188.868 E11.50178
G1 X205.83 Y189.523 E11.52539
G1 X205.238 Y189.898 E11.53937
G1 X204.455 Y190.347 E11.55739
G1 X203.987 Y190.573 E11.56776
G1 X202.903 Y191.06 E11.59147
G1 X201.952 Y191.457 E11.61204
G1 X201.148 Y191.769 E11.62925
G1 X198.732 Y192.747 E11.68126
G1 X196.416 Y193.761 E11.73172
G1 X194.083 Y194.861 E11.78319
G1 X191.833 Y196.002 E11.83354
G1 X189.612 Y197.208 E11.88397
G1 X187.426 Y198.477 E11.93441
G1 X185.248 Y199.824 E11.98552
G1 X183.129 Y201.218 E12.03613
G1 X181.04 Y202.681 E12.08703
G1 X179.027 Y204.176 E12.13707
G1 X178.306 Y204.747 E12.15542
G1 X177.251 Y205.562 E12.18203
G1 X176.512 Y206.082 E12.20006
G1 X175.731 Y206.534 E12.21807
G1 X174.912 Y206.916 E12.2361
G1 X174.063 Y207.224 E12.25412
G1 X173.19 Y207.455 E12.27215
G1 X172.3 Y207.609 E12.29017
G1 X171.197 Y207.688 E12.31224
G1 X170.455 Y207.7 E12.32705
G1 X155.579 Y207.699 E12.62391
G1 X154.878 Y207.689 E12.6379
G1 X153.976 Y207.636 E12.65594
G1 X153.083 Y207.504 E12.67395
G1 X152.204 Y207.293 E12.69199
G1 X151.348 Y207.005 E12.71001
G1 X150.521 Y206.643 E12.72803
G1 X149.729 Y206.209 E12.74605
G1 X148.979 Y205.706 E12.76407
G1 X148.276 Y205.139 E12.7821
G1 X147.626 Y204.513 E12.80011
G1 X147.033 Y203.831 E12.81814
G1 X146.649 Y203.314 E12.83099
G1 X146.223 Y202.698 E12.84594
G1 X136.908 Y188.725 E13.18107
G1 X136.458 Y188.029 E13.19761
G1 X136.002 Y187.25 E13.21562
G1 X135.617 Y186.433 E13.23364
G1 X135.306 Y185.585 E13.25167
G1 X135.071 Y184.713 E13.26969
G1 X134.914 Y183.824 E13.28771
G1 X134.829 Y182.672 E13.31076
G1 X134.817 Y181.914 E13.32589
G1 X134.818 Y163.062 E13.7021
G1 X134.828 Y162.36 E13.71611
G1 X134.881 Y161.458 E13.73414
G1 X135.013 Y160.565 E13.75216
G1 X135.224 Y159.687 E13.77018
G1 X135.512 Y158.831 E13.7882
G1 X135.874 Y158.003 E13.80623
G1 X136.308 Y157.211 E13.82426
G1 X136.811 Y156.461 E13.84228
G1 X137.549 Y155.568 E13.8654
G1 X137.954 Y155.142 E13.87713
G1 X147.444 Y145.649 E14.145
G1 F1500 E7.645
G1 F300 Z0.32
;MESH:sap2(1 tane).STL
G0 F6000 X150.246 Y174.994 Z0.32
;TYPE:WALL-INNER
G1 F300 Z0.12
G1 F1500 E14.145
G1 F1200 X149.808 Y174.995 E14.15374
G1 X149.392 Y174.926 E14.16215
G1 X148.951 Y174.77 E14.17149
G1 X148.66 Y174.608 E14.17813
G1 X148.292 Y174.314 E14.18753
G1 X148.011 Y174.001 E14.19593
G1 X147.783 Y173.632 E14.20458
G1 X147.543 Y173.042 E14.21729
G1 X147.513 Y172.307 E14.23197
G1 X147.556 Y172.014 E14.23788
G1 X147.704 Y171.529 E14.248
G1 X147.853 Y171.232 E14.25464
G1 X148.135 Y170.846 E14.26417
G1 X148.451 Y170.548 E14.27284
G1 X148.821 Y170.296 E14.28178
G1 X149.129 Y170.155 E14.28854
G1 X149.581 Y170.036 E14.29786
G1 X150.012 Y169.995 E14.3065
G1 X150.408 Y170.031 E14.31444
G1 X151.037 Y170.184 E14.32736
G1 X151.585 Y170.552 E14.34053
G1 X151.892 Y170.838 E14.3489
G1 X152.136 Y171.172 E14.35716
G1 X152.318 Y171.525 E14.36508
G1 X152.527 Y172.157 E14.37837
G1 X152.49 Y173.018 E14.39557
G1 X152.254 Y173.623 E14.40853
G1 X152.025 Y173.989 E14.41714
G1 X151.667 Y174.398 E14.42799
G1 X151.463 Y174.551 E14.43308
G1 X151.061 Y174.773 E14.44224
G1 X150.661 Y174.92 E14.45075
G1 X150.246 Y174.994 E14.45916
G0 F6000 X150.254 Y174.586
G1 F1200 X149.849 Y174.596 E14.46724
G1 X149.494 Y174.537 E14.47442
G1 X148.986 Y174.357 E14.48518
G1 X148.607 Y174.055 E14.49485
G1 X148.334 Y173.763 E14.50283
G1 X148.14 Y173.449 E14.51019
G1 X147.946 Y172.969 E14.52052
G1 X147.909 Y172.226 E14.53537
G1 X148.117 Y171.549 E14.5495
G1 X148.438 Y171.11 E14.56036
G1 X148.737 Y170.837 E14.56844
G1 X149.132 Y170.567 E14.57799
G1 X149.602 Y170.443 E14.58769
G1 X150.004 Y170.396 E14.59576
G1 X150.355 Y170.428 E14.6028
G1 X150.904 Y170.57 E14.61411
G1 X151.334 Y170.863 E14.6245
G1 X151.592 Y171.109 E14.63161
