;FLAVOR:Marlin
;TIME:2170
;Filament used: 0.871497m
;Layer height: 0.12
;MINX:147.5
;MINY:154
;MINZ:0.12
;MAXX:200.202
;MAXY:196
;MAXZ:13.16
;TARGET_MACHINE.NAME:Creality Ender-5 Plus
;Generated with Cura_SteamEngine 5.6.0
M140 S60
M105
M190 S60
M104 S210
M105
M109 S210
M82 ;absolute extrusion mode
M201 X500.00 Y500.00 Z100.00 E5000.00 ;Setup machine max acceleration
M203 X500.00 Y500.00 Z10.00 E50.00 ;Setup machine max feedrate
M204 P500.00 R1000.00 T500.00 ;Setup Print/Retract/Travel acceleration
M205 X8.00 Y8.00 Z0.40 E5.00 ;Setup Jerk
M220 S100 ;Reset Feedrate
M221 S100 ;Reset Flowrate

G28 ;Home
M420 S1 Z2 ;Enable ABL using saved Mesh and Fade Height

G92 E0 ;Reset Extruder
G1 Z2.0 F3000 ;Move Z Axis up
G1 X10.1 Y20 Z0.28 F5000.0 ;Move to start position
G1 X10.1 Y200.0 Z0.28 F1500.0 E15 ;Draw the first line
G1 X10.4 Y200.0 Z0.28 F5000.0 ;Move to side a little
G1 X10.4 Y20 Z0.28 F1500.0 E30 ;Draw the second line
G92 E0 ;Reset Extruder
G1 Z2.0 F3000 ;Move Z Axis up

G92 E0
G92 E0
G1 F1500 E-6.5
;LAYER_COUNT:108
;LAYER:0
M107
G1 F300 Z0.32
G0 F6000 X151.659 Y158.058 Z0.32
;TYPE:SKIRT
G1 F300 Z0.12
G1 F1500 E0
G1 F1200 X152.257 Y157.509 E0.0162
G1 X152.654 Y157.173 E0.02658
G1 X153.417 Y156.583 E0.04583
G1 X154.025 Y156.183 E0.06035
G1 X154.445 Y155.928 E0.07016
G1 X155.293 Y155.462 E0.08947
G1 X155.95 Y155.166 E0.10385
G1 X156.417 Y154.975 E0.11391
G1 X157.325 Y154.647 E0.13318
G1 X157.998 Y154.462 E0.14711
G1 X158.49 Y154.344 E0.15721
G1 X159.443 Y154.162 E0.17657
G1 X160.291 Y154.071 E0.19359
G1 X160.925 Y154.028 E0.20627
G1 X161.638 Y154.005 E0.22051
G1 X188.503 Y154 E0.75663
G1 X189.385 Y154.013 E0.77423
G1 X190.357 Y154.072 E0.79366
G1 X191.32 Y154.218 E0.8131
G1 X192.267 Y154.449 E0.83255
G1 X193.155 Y154.749 E0.85126
G1 X194.047 Y155.139 E0.87068
G1 X194.93 Y155.626 E0.89081
G1 X195.681 Y156.128 E0.90884
G1 X196.496 Y156.786 E0.92974
G1 X197.194 Y157.464 E0.94916
G1 X197.83 Y158.201 E0.96858
G1 X198.4 Y158.991 E0.98802
G1 X198.862 Y159.767 E1.00605
G1 X199.316 Y160.709 E1.02692
G1 X199.645 Y161.587 E1.04563
G1 X199.914 Y162.559 E1.06575
G1 X200.091 Y163.525 E1.08535
G1 X200.186 Y164.64 E1.10768
G1 X200.201 Y165.313 E1.12112
G1 X200.202 Y184.276 E1.49954
G1 X200.19 Y185.163 E1.51725
G1 X200.133 Y186.136 E1.5367
G1 X199.988 Y187.098 E1.55611
G1 X199.759 Y188.045 E1.57556
G1 X199.448 Y188.968 E1.59499
G1 X199.056 Y189.859 E1.61442
G1 X198.586 Y190.713 E1.63387
G1 X198.044 Y191.52 E1.65327
G1 X197.456 Y192.251 E1.67199
G1 X196.755 Y192.979 E1.69216
G1 X196.046 Y193.594 E1.71089
G1 X195.258 Y194.166 E1.73032
G1 X194.391 Y194.683 E1.75047
G1 X193.513 Y195.105 E1.76991
G1 X192.603 Y195.447 E1.78931
G1 X191.664 Y195.708 E1.80876
G1 X190.695 Y195.886 E1.82842
G1 X189.514 Y195.985 E1.85207
G1 X188.793 Y196 E1.86646
G1 X161.996 Y195.998 E2.40122
G1 X161.132 Y195.98 E2.41847
G1 X160.365 Y195.937 E2.4338
G1 X159.992 Y195.902 E2.44127
G1 X159.069 Y195.775 E2.45987
G1 X158.47 Y195.65 E2.47208
G1 X157.998 Y195.536 E2.48177
G1 X157.054 Y195.264 E2.50137
G1 X156.37 Y195.007 E2.51596
G1 X155.874 Y194.8 E2.52668
G1 X155.028 Y194.403 E2.54533
G1 X154.347 Y194.015 E2.56097
G1 X153.934 Y193.76 E2.57066
G1 X153.162 Y193.233 E2.58931
G1 X152.606 Y192.789 E2.60351
G1 X152.219 Y192.459 E2.61366
G1 X151.558 Y191.843 E2.63169
G1 X151.004 Y191.238 E2.64806
G1 X150.67 Y190.843 E2.65838
G1 X150.08 Y190.079 E2.67765
G1 X149.674 Y189.462 E2.69239
G1 X149.417 Y189.039 E2.70227
G1 X148.982 Y188.247 E2.7203
G1 X148.666 Y187.552 E2.73553
G1 X148.476 Y187.088 E2.74554
G1 X148.16 Y186.21 E2.76416
G1 X147.962 Y185.502 E2.77883
G1 X147.844 Y185.01 E2.78893
G1 X147.662 Y184.057 E2.80829
G1 X147.571 Y183.209 E2.82531
G1 X147.528 Y182.575 E2.83799
G1 X147.505 Y181.864 E2.85219
G1 X147.5 Y168.697 E3.11495
G1 X147.52 Y167.633 E3.13619
G1 X147.562 Y166.873 E3.15138
G1 X147.597 Y166.498 E3.15889
G1 X147.723 Y165.575 E3.17748
G1 X147.849 Y164.971 E3.1898
G1 X147.965 Y164.486 E3.19975
G1 X148.214 Y163.617 E3.21779
G1 X148.495 Y162.868 E3.23375
G1 X148.696 Y162.384 E3.24421
G1 X149.093 Y161.537 E3.26288
G1 X149.487 Y160.845 E3.27877
G1 X149.74 Y160.435 E3.28838
G1 X150.248 Y159.689 E3.30639
G1 X150.689 Y159.133 E3.32056
G1 X151.021 Y158.743 E3.33078
G1 X151.659 Y158.058 E3.34946
G0 F6000 X151.952 Y158.331
G1 F1200 X152.516 Y157.814 E3.36473
G1 X152.899 Y157.489 E3.37475
G1 X153.637 Y156.917 E3.39338
G1 X154.233 Y156.525 E3.40762
G1 X154.638 Y156.278 E3.41709
G1 X155.457 Y155.827 E3.43574
G1 X156.102 Y155.536 E3.44987
G1 X156.553 Y155.351 E3.45959
G1 X157.431 Y155.033 E3.47823
G1 X158.092 Y154.851 E3.49191
G1 X158.566 Y154.737 E3.50164
G1 X159.486 Y154.56 E3.52034
G1 X160.318 Y154.47 E3.53704
G1 X160.938 Y154.428 E3.54944
G1 X161.638 Y154.405 E3.56341
G1 X188.497 Y154.4 E4.09941
G1 X189.361 Y154.412 E4.11666
G1 X190.298 Y154.468 E4.13539
G1 X191.226 Y154.607 E4.15412
G1 X192.139 Y154.828 E4.17286
G1 X192.995 Y155.116 E4.19089
G1 X193.887 Y155.506 E4.21031
G1 X194.708 Y155.959 E4.22903
G1 X195.459 Y156.461 E4.24705
G1 X196.218 Y157.073 E4.26651
G1 X196.892 Y157.726 E4.28524
G1 X197.506 Y158.435 E4.30396
G1 X198.056 Y159.196 E4.32269
G1 X198.518 Y159.972 E4.34072
G1 X198.941 Y160.849 E4.36015
G1 X199.27 Y161.727 E4.37886
G1 X199.521 Y162.632 E4.3976
G1 X199.692 Y163.559 E4.41641
G1 X199.787 Y164.674 E4.43874
G1 X199.801 Y165.313 E4.4515
G1 X199.802 Y184.271 E4.82982
G1 X199.791 Y185.14 E4.84717
G1 X199.737 Y186.077 E4.8659
G1 X199.599 Y187.005 E4.88462
G1 X199.38 Y187.918 E4.90336
G1 X199.082 Y188.807 E4.92207
G1 X198.705 Y189.667 E4.94081
G1 X198.254 Y190.49 E4.95954
G1 X197.732 Y191.269 E4.97825
G1 X197.144 Y192 E4.99697
G1 X196.492 Y192.677 E5.01573
G1 X195.811 Y193.27 E5.03375
G1 X195.023 Y193.842 E5.05318
G1 X194.217 Y194.323 E5.07191
G1 X193.372 Y194.731 E5.09064
G1 X192.495 Y195.062 E5.10934
G1 X191.591 Y195.315 E5.12808
G1 X190.662 Y195.487 E5.14693
G1 X189.481 Y195.586 E5.17058
G1 X188.793 Y195.6 E5.18431
G1 X162.004 Y195.598 E5.71892
G1 X161.154 Y195.581 E5.73588
G1 X160.402 Y195.539 E5.75091
G1 X160.047 Y195.506 E5.75803
G1 X159.124 Y195.379 E5.77662
G1 X158.564 Y195.261 E5.78804
G1 X158.092 Y195.147 E5.79773
G1 X157.194 Y194.889 E5.81638
G1 X156.524 Y194.638 E5.83066
G1 X156.044 Y194.438 E5.84103
G1 X155.198 Y194.041 E5.85968
G1 X154.557 Y193.675 E5.87441
G1 X154.16 Y193.43 E5.88372
G1 X153.388 Y192.903 E5.90238
G1 X152.866 Y192.485 E5.91572
G1 X152.492 Y192.166 E5.92553
G1 X151.831 Y191.55 E5.94356
G1 X151.309 Y190.979 E5.959
G1 X150.986 Y190.598 E5.96897
G1 X150.414 Y189.859 E5.98762
G1 X150.016 Y189.254 E6.00207
G1 X149.768 Y188.846 E6.0116
G1 X149.333 Y188.054 E6.02963
G1 X149.036 Y187.4 E6.04396
G1 X148.852 Y186.952 E6.05363
G1 X148.545 Y186.102 E6.07166
G1 X148.351 Y185.408 E6.08605
G1 X148.237 Y184.934 E6.09577
G1 X148.06 Y184.014 E6.11447
G1 X147.97 Y183.182 E6.13117
G1 X147.928 Y182.562 E6.14357
G1 X147.905 Y181.864 E6.15751
G1 X147.9 Y168.704 E6.42013
G1 X147.919 Y167.655 E6.44107
G1 X147.96 Y166.91 E6.45596
G1 X147.993 Y166.552 E6.46313
G1 X148.119 Y165.629 E6.48172
G1 X148.238 Y165.064 E6.49325
G1 X148.35 Y164.596 E6.50285
G1 X148.599 Y163.727 E6.52089
G1 X148.864 Y163.021 E6.53594
G1 X149.058 Y162.554 E6.54603
G1 X149.455 Y161.707 E6.5647
G1 X149.827 Y161.055 E6.57968
G1 X150.071 Y160.66 E6.58894
G1 X150.579 Y159.914 E6.60695
G1 X150.994 Y159.392 E6.62026
G1 X151.314 Y159.016 E6.63011
G1 X151.952 Y158.331 E6.64879
G0 F6000 X152.222 Y158.626
G1 F1200 X152.775 Y158.119 E6.66377
G1 X153.144 Y157.805 E6.67344
G1 X153.857 Y157.251 E6.69145
G1 X154.441 Y156.866 E6.70541
G1 X154.831 Y156.628 E6.71453
G1 X155.622 Y156.192 E6.73256
G1 X156.255 Y155.906 E6.74642
G1 X156.689 Y155.727 E6.75579
G1 X157.538 Y155.419 E6.77381
G1 X158.186 Y155.24 E6.78722
G1 X158.642 Y155.13 E6.79659
G1 X159.529 Y154.958 E6.81462
G1 X160.345 Y154.869 E6.831
G1 X160.951 Y154.828 E6.84312
G1 X161.638 Y154.805 E6.85684
G1 X188.492 Y154.8 E7.39274
G1 X189.338 Y154.811 E7.40962
G1 X190.24 Y154.864 E7.42765
G1 X191.133 Y154.996 E7.44567
G1 X192.011 Y155.207 E7.46369
G1 X192.867 Y155.495 E7.48171
G1 X193.694 Y155.857 E7.49973
G1 X194.486 Y156.292 E7.51776
G1 X195.237 Y156.794 E7.53578
G1 X195.94 Y157.361 E7.55381
G1 X196.59 Y157.988 E7.57183
G1 X197.182 Y158.67 E7.58985
G1 X197.712 Y159.401 E7.60787
G1 X198.174 Y160.177 E7.62589
G1 X198.567 Y160.99 E7.64392
G1 X198.885 Y161.835 E7.66193
G1 X199.128 Y162.705 E7.67996
G1 X199.293 Y163.593 E7.69798
G1 X199.388 Y164.708 E7.72032
G1 X199.401 Y165.313 E7.73239
G1 X199.402 Y184.266 E8.11062
G1 X199.392 Y185.117 E8.1276
G1 X199.341 Y186.019 E8.14563
G1 X199.21 Y186.912 E8.16364
G1 X199.001 Y187.791 E8.18167
G1 X198.715 Y188.647 E8.19968
G1 X198.354 Y189.475 E8.21771
G1 X197.921 Y190.268 E8.23574
G1 X197.42 Y191.019 E8.25376
G1 X196.855 Y191.723 E8.27177
G1 X196.229 Y192.375 E8.28981
G1 X195.548 Y192.968 E8.30783
G1 X194.818 Y193.499 E8.32584
G1 X194.043 Y193.963 E8.34387
G1 X193.23 Y194.357 E8.3619
G1 X192.386 Y194.677 E8.37991
G1 X191.517 Y194.922 E8.39793
G1 X190.629 Y195.088 E8.41596
G1 X189.448 Y195.187 E8.43961
G1 X188.793 Y195.2 E8.45268
G1 X162.012 Y195.198 E8.98713
G1 X161.176 Y195.182 E9.00381
G1 X160.439 Y195.141 E9.01854
G1 X160.101 Y195.11 E9.02532
G1 X159.207 Y194.988 E9.04332
G1 X158.657 Y194.872 E9.05454
G1 X158.202 Y194.763 E9.06388
G1 X157.334 Y194.514 E9.0819
G1 X156.664 Y194.263 E9.09617
G1 X156.214 Y194.076 E9.1059
G1 X155.396 Y193.693 E9.12392
G1 X154.767 Y193.335 E9.13837
G1 X154.385 Y193.099 E9.14733
G1 X153.638 Y192.59 E9.16537
G1 X153.126 Y192.181 E9.17844
G1 X152.765 Y191.873 E9.18791
G1 X152.104 Y191.257 E9.20594
G1 X151.614 Y190.72 E9.22045
G1 X151.302 Y190.353 E9.23007
G1 X150.748 Y189.639 E9.2481
G1 X150.358 Y189.046 E9.26226
G1 X150.119 Y188.653 E9.27144
G1 X149.684 Y187.861 E9.28948
G1 X149.406 Y187.247 E9.30293
G1 X149.228 Y186.816 E9.31223
G1 X148.921 Y185.966 E9.33027
G1 X148.74 Y185.314 E9.34377
G1 X148.63 Y184.858 E9.35313
G1 X148.458 Y183.971 E9.37116
G1 X148.369 Y183.155 E9.38754
G1 X148.328 Y182.549 E9.39966
G1 X148.305 Y181.864 E9.41334
G1 X148.3 Y168.711 E9.67582
G1 X148.318 Y167.677 E9.69646
G1 X148.358 Y166.946 E9.71107
G1 X148.389 Y166.606 E9.71788
G1 X148.511 Y165.711 E9.73591
G1 X148.627 Y165.157 E9.74721
G1 X148.735 Y164.706 E9.75646
G1 X148.984 Y163.837 E9.7745
G1 X149.233 Y163.174 E9.78863
G1 X149.42 Y162.723 E9.79838
G1 X149.802 Y161.905 E9.81639
G1 X150.167 Y161.265 E9.8311
G1 X150.402 Y160.885 E9.84001
G1 X150.91 Y160.139 E9.85802
G1 X151.299 Y159.651 E9.87048
G1 X151.607 Y159.288 E9.87998
G1 X152.222 Y158.626 E9.89801
G1 F1500 E3.39801
G1 F300 Z0.32
;MESH:sap4(2 tane).STL
G0 F6000 X187.407 Y184 Z0.32
;TYPE:WALL-INNER
G1 F300 Z0.12
G1 F1500 E9.89801
G1 F1200 X187.406 Y166 E10.25722
G1 X161.527 Y166 E10.77366
G1 X161.189 Y166.027 E10.78043
G1 X160.884 Y166.1 E10.78669
G1 X160.601 Y166.218 E10.79281
G1 X160.321 Y166.389 E10.79935
G1 X160.089 Y166.589 E10.80547
G1 X159.889 Y166.821 E10.81158
G1 X159.718 Y167.101 E10.81813
G1 X159.601 Y167.384 E10.82424
G1 X159.527 Y167.689 E10.8305
G1 X159.5 Y168.027 E10.83727
G1 X159.5 Y181.973 E11.11557
G1 X159.527 Y182.311 E11.12234
G1 X159.6 Y182.616 E11.1286
G1 X159.718 Y182.899 E11.13472
G1 X159.889 Y183.179 E11.14127
G1 X160.089 Y183.411 E11.14738
G1 X160.321 Y183.611 E11.15349
G1 X160.601 Y183.782 E11.16004
G1 X160.884 Y183.899 E11.16615
G1 X161.189 Y183.973 E11.17241
G1 X161.527 Y184 E11.17918
G1 X187.407 Y184 E11.69564
G0 F6000 X187.807 Y184.4
G1 F1200 X187.806 Y165.6 E12.07082
G1 X161.511 Y165.6 E12.59556
G1 X161.126 Y165.631 E12.60327
G1 X160.76 Y165.719 E12.61078
G1 X160.419 Y165.86 E12.61815
G1 X160.085 Y166.064 E12.62596
G1 X159.805 Y166.305 E12.63333
G1 X159.564 Y166.585 E12.6407
G1 X159.36 Y166.919 E12.64851
G1 X159.219 Y167.26 E12.65588
G1 X159.131 Y167.626 E12.66339
G1 X159.1 Y168.011 E12.6711
G1 X159.1 Y181.989 E12.95004
G1 X159.131 Y182.374 E12.95775
G1 X159.219 Y182.74 E12.96526
G1 X159.36 Y183.081 E12.97263
G1 X159.564 Y183.415 E12.98044
G1 X159.805 Y183.695 E12.98781
G1 X160.085 Y183.936 E12.99518
G1 X160.419 Y184.14 E13.00299
G1 X160.76 Y184.281 E13.01035
G1 X161.126 Y184.369 E13.01787
G1 X161.511 Y184.4 E13.02557
G1 X187.807 Y184.4 E13.55034
G0 F6000 X188.207 Y184.8
;TYPE:WALL-OUTER
G1 F1200 X188.206 Y165.2 E13.94148
G1 X161.495 Y165.2 E14.47453
G1 X161.063 Y165.235 E14.48318
G1 X160.636 Y165.337 E14.49194
G1 X160.237 Y165.502 E14.50055
G1 X159.849 Y165.74 E14.50964
G1 X159.521 Y166.021 E14.51826
G1 X159.24 Y166.349 E14.52687
G1 X159.002 Y166.737 E14.53596
G1 X158.837 Y167.136 E14.54457
G1 X158.735 Y167.563 E14.55334
G1 X158.7 Y167.995 E14.56198
G1 X158.7 Y182.005 E14.84157
G1 X158.735 Y182.437 E14.85022
G1 X158.837 Y182.864 E14.85898
G1 X159.002 Y183.263 E14.8676
G1 X159.24 Y183.651 E14.87668
G1 X159.521 Y183.979 E14.8853
G1 X159.849 Y184.26 E14.89392
G1 X160.237 Y184.498 E14.903
G1 X160.636 Y184.663 E14.91162
G1 X161.063 Y184.765 E14.92038
G1 X161.495 Y184.8 E14.92903
G1 X188.207 Y184.8 E15.4621
G1 F1500 E8.9621
G1 F300 Z0.32
G0 F6000 X187.047 Y183.64 Z0.32
;TYPE:SKIN
G1 F300 Z0.12
G1 F1500 E15.4621
G1 F1200 X161.531 Y183.64 E15.97129
G1 X161.122 Y183.605 E15.97949
G1 X160.762 Y183.457 E15.98725
G1 X160.535 Y183.317 E15.99258
G1 X160.247 Y183.07 E16.00015
G1 X160.042 Y182.737 E16.00795
G1 X159.893 Y182.377 E16.01573
G1 X159.861 Y181.972 E16.02383
G1 X159.86 Y168.028 E16.3021
G1 X159.895 Y167.621 E16.31025
G1 X160.043 Y167.262 E16.318
G1 X160.183 Y167.035 E16.32333
G1 X160.43 Y166.747 E16.3309
G1 X160.763 Y166.542 E16.3387
G1 X161.122 Y166.393 E16.34646
G1 X161.529 Y166.36 E16.35461
G1 X187.046 Y166.36 E16.86383
G1 X187.047 Y183.64 E17.20867
G1 F1500 E10.70867
G1 F300 Z0.32
G0 F6000 X186.845 Y167.046 Z0.32
G1 F300 Z0.12
G1 F1500 E17.20867
G1 F1200 X186.358 Y166.559 E17.22241
G0 F6000 X185.793 Y166.559
G1 F1200 X186.845 Y167.612 E17.25211
G0 F6000 X186.845 Y168.178
G1 F1200 X185.227 Y166.559 E17.29779
G0 F6000 X184.661 Y166.559
G1 F1200 X186.845 Y168.743 E17.35943
G0 F6000 X186.845 Y169.309
G1 F1200 X184.095 Y166.559 E17.43704
G0 F6000 X183.53 Y166.559
G1 F1200 X186.845 Y169.875 E17.53061
G0 F6000 X186.845 Y170.441
G1 F1200 X182.964 Y166.559 E17.64016
G0 F6000 X182.398 Y166.559
G1 F1200 X186.845 Y171.006 E17.76566
G0 F6000 X186.845 Y171.572
G1 F1200 X181.833 Y166.559 E17.90712
G0 F6000 X181.267 Y166.559
G1 F1200 X186.845 Y172.138 E18.06456
G0 F6000 X186.845 Y172.703
G1 F1200 X180.701 Y166.559 E18.23796
G0 F6000 X180.136 Y166.559
G1 F1200 X186.845 Y173.269 E18.42731
G0 F6000 X186.845 Y173.835
G1 F1200 X179.57 Y166.559 E18.63264
G0 F6000 X179.004 Y166.559
G1 F1200 X186.845 Y174.4 E18.85393
G0 F6000 X186.845 Y174.966
G1 F1200 X178.439 Y166.559 E19.09118
G0 F6000 X177.873 Y166.559
G1 F1200 X186.846 Y175.532 E19.34442
G0 F6000 X186.846 Y176.098
G1 F1200 X177.307 Y166.559 E19.61363
G0 F6000 X176.742 Y166.559
G1 F1200 X186.846 Y176.664 E19.8988
G0 F6000 X186.846 Y177.229
G1 F1200 X176.176 Y166.559 E20.19993
G0 F6000 X175.61 Y166.559
G1 F1200 X186.846 Y177.795 E20.51704
G0 F6000 X186.846 Y178.361
G1 F1200 X175.044 Y166.559 E20.85012
G0 F6000 X174.479 Y166.559
G1 F1200 X186.846 Y178.927 E21.19915
G0 F6000 X186.846 Y179.492
G1 F1200 X173.913 Y166.559 E21.56415
G0 F6000 X173.347 Y166.559
G1 F1200 X186.846 Y180.058 E21.94512
G0 F6000 X186.846 Y180.624
G1 F1200 X172.782 Y166.559 E22.34205
G0 F6000 X172.216 Y166.559
G1 F1200 X186.846 Y181.189 E22.75494
G0 F6000 X186.846 Y181.755
G1 F1200 X171.65 Y166.559 E23.18381
G0 F6000 X171.085 Y166.559
G1 F1200 X186.846 Y182.321 E23.62863
G0 F6000 X186.846 Y182.886
G1 F1200 X170.519 Y166.559 E24.08941
G0 F6000 X169.953 Y166.559
G1 F1200 X186.833 Y183.439 E24.5658
G0 F6000 X186.267 Y183.439
G1 F1200 X169.388 Y166.559 E25.04218
G0 F6000 X168.822 Y166.559
G1 F1200 X185.701 Y183.439 E25.51856
G0 F6000 X185.136 Y183.439
G1 F1200 X168.256 Y166.559 E25.99495
G0 F6000 X167.691 Y166.559
G1 F1200 X184.57 Y183.439 E26.47132
G0 F6000 X184.004 Y183.439
G1 F1200 X167.125 Y166.559 E26.9477
G0 F6000 X166.559 Y166.559
G1 F1200 X183.439 Y183.439 E27.42409
G0 F6000 X182.873 Y183.439
G1 F1200 X165.994 Y166.559 E27.90046
G0 F6000 X165.428 Y166.559
G1 F1200 X182.307 Y183.439 E28.37684
