;FLAVOR:Marlin
;TIME:1345
;Filament used: 0.475911m
;Layer height: 0.12
;MINX:147.839
;MINY:147.839
;MINZ:0.12
;MAXX:202.161
;MAXY:202.161
;MAXZ:2.24
;TARGET_MACHINE.NAME:Creality Ender-5 Plus
;Generated with Cura_SteamEngine 5.6.0
M140 S60
M105
M190 S60
M104 S210
M105
M109 S210
M82 ;absolute extrusion mode
M201 X500.00 Y500.00 Z100.00 E5000.00 ;Setup machine max acceleration
M203 X500.00 Y500.00 Z10.00 E50.00 ;Setup machine max feedrate
M204 P500.00 R1000.00 T500.00 ;Setup Print/Retract/Travel acceleration
M205 X8.00 Y8.00 Z0.40 E5.00 ;Setup Jerk
M220 S100 ;Reset Feedrate
M221 S100 ;Reset Flowrate

G28 ;Home
M420 S1 Z2 ;Enable ABL using saved Mesh and Fade Height

G92 E0 ;Reset Extruder
G1 Z2.0 F3000 ;Move Z Axis up
G1 X10.1 Y20 Z0.28 F5000.0 ;Move to start position
G1 X10.1 Y200.0 Z0.28 F1500.0 E15 ;Draw the first line
G1 X10.4 Y200.0 Z0.28 F5000.0 ;Move to side a little
G1 X10.4 Y20 Z0.28 F1500.0 E30 ;Draw the second line
G92 E0 ;Reset Extruder
G1 Z2.0 F3000 ;Move Z Axis up

G92 E0
G92 E0
G1 F1500 E-6.5
;LAYER_COUNT:17
;LAYER:0
M107
G1 F300 Z0.32
G0 F6000 X155.659 Y155.929 Z0.32
;TYPE:SKIRT
G1 F300 Z0.12
G1 F1500 E0
G1 F1200 X157.025 Y154.574 E0.0384
G1 X157.788 Y153.888 E0.05887
G1 X158.398 Y153.403 E0.07442
G1 X158.926 Y153.01 E0.08756
G1 X159.908 Y152.36 E0.11106
G1 X161.229 Y151.587 E0.1416
G1 X162.927 Y150.614 E0.18066
G1 X163.904 Y150.12 E0.20251
G1 X164.604 Y149.82 E0.2177
G1 X165.243 Y149.57 E0.2314
G1 X166.319 Y149.213 E0.25402
G1 X167.756 Y148.82 E0.28375
G1 X169.663 Y148.319 E0.3231
G1 X170.702 Y148.1 E0.34429
G1 X171.423 Y147.995 E0.35883
G1 X172.095 Y147.917 E0.37233
G1 X173.291 Y147.845 E0.39624
G1 X174.775 Y147.839 E0.42586
G1 X176.741 Y147.847 E0.46509
G1 X177.861 Y147.911 E0.48748
G1 X178.595 Y147.997 E0.50222
G1 X179.207 Y148.088 E0.51457
G1 X180.367 Y148.326 E0.5382
G1 X181.801 Y148.703 E0.56779
G1 X183.716 Y149.226 E0.60741
G1 X184.684 Y149.542 E0.62773
G1 X185.421 Y149.832 E0.64353
G1 X186.028 Y150.093 E0.65672
G1 X187.102 Y150.632 E0.6807
G1 X190.048 Y152.334 E0.7486
G1 X190.849 Y152.848 E0.76759
G1 X191.561 Y153.371 E0.78522
G1 X192.09 Y153.79 E0.79869
G1 X192.938 Y154.539 E0.82127
G1 X194.074 Y155.661 E0.85313
G1 X195.429 Y157.028 E0.89154
G1 X196.139 Y157.822 E0.9128
G1 X196.623 Y158.431 E0.92832
G1 X197.001 Y158.939 E0.94096
G1 X197.631 Y159.891 E0.96374
G1 X198.413 Y161.229 E0.99467
G1 X199.386 Y162.927 E1.03372
G1 X199.858 Y163.858 E1.05455
G1 X200.181 Y164.607 E1.07083
G1 X200.418 Y165.208 E1.08372
G1 X200.78 Y166.299 E1.10666
G1 X201.181 Y167.76 E1.13689
G1 X201.681 Y169.666 E1.17622
G1 X201.894 Y170.67 E1.1967
G1 X202.004 Y171.415 E1.21173
G1 X202.082 Y172.084 E1.22517
G1 X202.155 Y173.287 E1.24922
G1 X202.161 Y174.775 E1.27891
G1 X202.153 Y176.738 E1.31809
G1 X202.09 Y177.853 E1.34038
G1 X202.002 Y178.597 E1.35533
G1 X201.911 Y179.208 E1.36765
G1 X201.675 Y180.365 E1.39122
G1 X201.297 Y181.801 E1.42085
G1 X200.776 Y183.714 E1.46042
G1 X200.477 Y184.639 E1.47982
G1 X200.188 Y185.379 E1.49567
G1 X199.912 Y186.018 E1.50956
G1 X199.37 Y187.099 E1.53369
G1 X197.666 Y190.046 E1.60163
G1 X197.118 Y190.897 E1.62183
G1 X196.625 Y191.566 E1.63841
G1 X196.214 Y192.085 E1.65162
G1 X195.416 Y192.986 E1.67564
G1 X194.341 Y194.071 E1.70612
G1 X192.973 Y195.428 E1.74457
G1 X192.167 Y196.149 E1.76616
G1 X191.571 Y196.621 E1.78133
G1 X191.066 Y196.997 E1.79389
G1 X190.113 Y197.628 E1.8167
G1 X188.771 Y198.413 E1.84773
G1 X187.073 Y199.386 E1.88678
G1 X186.096 Y199.88 E1.90863
G1 X185.396 Y200.18 E1.92383
G1 X184.757 Y200.43 E1.93752
G1 X183.681 Y200.787 E1.96014
G1 X182.244 Y201.18 E1.98987
G1 X180.337 Y201.681 E2.02922
G1 X179.298 Y201.9 E2.05041
G1 X178.598 Y202.002 E2.06453
G1 X177.936 Y202.08 E2.07783
G1 X176.718 Y202.155 E2.10218
G1 X175.225 Y202.161 E2.13198
G1 X173.257 Y202.153 E2.17125
G1 X172.133 Y202.089 E2.19372
G1 X171.398 Y202.002 E2.20849
G1 X170.789 Y201.911 E2.22078
G1 X169.635 Y201.675 E2.24428
G1 X168.199 Y201.297 E2.27392
G1 X166.284 Y200.774 E2.31353
G1 X165.316 Y200.458 E2.33385
G1 X164.577 Y200.167 E2.3497
G1 X163.968 Y199.905 E2.36293
G1 X162.895 Y199.367 E2.38689
G1 X159.949 Y197.664 E2.45479
G1 X159.095 Y197.113 E2.47508
G1 X158.387 Y196.589 E2.49265
G1 X157.885 Y196.189 E2.50546
G1 X157.035 Y195.434 E2.52815
G1 X155.927 Y194.339 E2.55924
G1 X154.569 Y192.969 E2.59773
G1 X153.847 Y192.163 E2.61933
G1 X153.385 Y191.577 E2.63422
G1 X153.017 Y191.084 E2.6465
G1 X152.338 Y190.059 E2.67103
G1 X151.585 Y188.767 E2.70087
G1 X150.61 Y187.063 E2.74005
G1 X150.11 Y186.073 E2.76219
G1 X149.825 Y185.407 E2.77664
G1 X149.608 Y184.862 E2.78835
G1 X149.218 Y183.697 E2.81287
G1 X148.822 Y182.248 E2.84284
G1 X148.323 Y180.352 E2.88197
G1 X148.104 Y179.318 E2.90306
G1 X147.996 Y178.583 E2.91789
G1 X147.918 Y177.914 E2.93133
G1 X147.845 Y176.712 E2.95536
G1 X147.839 Y175.225 E2.98503
G1 X147.847 Y173.258 E3.02429
G1 X147.911 Y172.131 E3.04681
G1 X147.998 Y171.402 E3.06146
G1 X148.089 Y170.791 E3.07379
G1 X148.326 Y169.633 E3.09738
G1 X148.703 Y168.199 E3.12697
G1 X149.226 Y166.284 E3.16659
G1 X149.542 Y165.315 E3.18693
G1 X149.834 Y164.575 E3.2028
G1 X150.094 Y163.971 E3.21592
G1 X150.629 Y162.903 E3.23976
G1 X152.333 Y159.954 E3.30773
G1 X152.882 Y159.103 E3.32794
G1 X153.375 Y158.434 E3.34452
G1 X153.786 Y157.915 E3.35774
G1 X154.584 Y157.014 E3.38175
G1 X155.659 Y155.929 E3.41223
G0 F6000 X155.941 Y156.213
G1 F1200 X157.293 Y154.871 E3.45025
G1 X158.037 Y154.201 E3.47023
G1 X158.637 Y153.724 E3.48553
G1 X159.147 Y153.344 E3.49822
G1 X160.129 Y152.694 E3.52172
G1 X161.428 Y151.934 E3.55175
G1 X163.108 Y150.971 E3.5904
G1 X164.062 Y150.488 E3.61174
G1 X164.762 Y150.188 E3.62693
G1 X165.369 Y149.95 E3.63995
G1 X166.425 Y149.599 E3.66215
G1 X167.858 Y149.207 E3.6918
G1 X169.746 Y148.71 E3.73076
G1 X170.76 Y148.496 E3.75144
G1 X171.469 Y148.392 E3.76574
G1 X172.119 Y148.316 E3.7788
G1 X173.293 Y148.245 E3.80227
G1 X174.774 Y148.239 E3.83183
G1 X176.718 Y148.246 E3.87062
G1 X177.814 Y148.308 E3.89253
G1 X178.537 Y148.393 E3.90706
G1 X179.127 Y148.48 E3.91896
G1 X180.265 Y148.713 E3.94214
G1 X181.696 Y149.089 E3.97167
G1 X183.592 Y149.606 E4.01089
G1 X184.538 Y149.914 E4.03074
G1 X185.263 Y150.199 E4.04629
G1 X185.849 Y150.451 E4.05901
G1 X186.923 Y150.99 E4.083
G1 X189.832 Y152.671 E4.15004
G1 X190.633 Y153.185 E4.16904
G1 X191.313 Y153.685 E4.18588
G1 X191.825 Y154.09 E4.19891
G1 X192.673 Y154.839 E4.22149
G1 X193.79 Y155.943 E4.25283
G1 X195.131 Y157.295 E4.29083
G1 X195.826 Y158.071 E4.31162
G1 X196.302 Y158.67 E4.32689
G1 X196.667 Y159.16 E4.33908
G1 X197.297 Y160.112 E4.36186
G1 X198.066 Y161.428 E4.39228
G1 X199.029 Y163.108 E4.43092
G1 X199.501 Y164.039 E4.45175
G1 X199.809 Y164.754 E4.46729
G1 X200.038 Y165.334 E4.47973
G1 X200.394 Y166.405 E4.50225
G1 X200.794 Y167.862 E4.53241
G1 X201.29 Y169.749 E4.57134
G1 X201.498 Y170.729 E4.59134
G1 X201.607 Y171.462 E4.60612
G1 X201.683 Y172.108 E4.6191
G1 X201.755 Y173.289 E4.64272
G1 X201.761 Y174.774 E4.67235
G1 X201.754 Y176.716 E4.71111
G1 X201.693 Y177.806 E4.73289
G1 X201.606 Y178.539 E4.74762
G1 X201.519 Y179.128 E4.75951
G1 X201.288 Y180.263 E4.78262
G1 X200.911 Y181.696 E4.81219
G1 X200.395 Y183.591 E4.85138
G1 X200.104 Y184.493 E4.8703
G1 X199.815 Y185.233 E4.88615
G1 X199.554 Y185.839 E4.89932
G1 X199.012 Y186.92 E4.92345
G1 X197.33 Y189.83 E4.99053
G1 X196.796 Y190.66 E5.01022
G1 X196.311 Y191.318 E5.02653
G1 X195.9 Y191.837 E5.03975
G1 X195.132 Y192.704 E5.06286
G1 X194.059 Y193.787 E5.09328
G1 X192.706 Y195.13 E5.13133
G1 X191.919 Y195.835 E5.15241
G1 X191.332 Y196.3 E5.16736
G1 X190.845 Y196.663 E5.17948
G1 X189.892 Y197.294 E5.20229
G1 X188.572 Y198.066 E5.2328
G1 X186.892 Y199.029 E5.27145
G1 X185.938 Y199.512 E5.29279
G1 X185.238 Y199.812 E5.30798
G1 X184.631 Y200.05 E5.321
G1 X183.575 Y200.401 E5.3432
G1 X182.142 Y200.793 E5.37285
G1 X180.254 Y201.29 E5.41181
G1 X179.24 Y201.504 E5.43249
G1 X178.551 Y201.605 E5.44639
G1 X177.911 Y201.681 E5.45925
G1 X176.716 Y201.755 E5.48314
G1 X175.226 Y201.761 E5.51288
G1 X173.28 Y201.754 E5.55171
G1 X172.18 Y201.692 E5.5737
G1 X171.457 Y201.606 E5.58823
G1 X170.869 Y201.519 E5.60009
G1 X169.737 Y201.288 E5.62315
G1 X168.304 Y200.911 E5.65272
G1 X166.408 Y200.394 E5.69194
G1 X165.462 Y200.086 E5.71179
G1 X164.735 Y199.8 E5.72738
G1 X164.147 Y199.547 E5.74015
G1 X163.074 Y199.009 E5.76411
G1 X160.166 Y197.328 E5.83114
G1 X159.312 Y196.777 E5.85142
G1 X158.636 Y196.276 E5.86821
G1 X158.151 Y195.89 E5.88058
G1 X157.301 Y195.135 E5.90327
G1 X156.211 Y194.057 E5.93386
G1 X154.867 Y192.702 E5.97195
G1 X154.161 Y191.915 E5.99305
G1 X153.706 Y191.338 E6.00771
G1 X153.338 Y190.845 E6.01999
G1 X152.684 Y189.858 E6.04362
G1 X151.932 Y188.568 E6.07342
G1 X150.967 Y186.883 E6.11217
G1 X150.478 Y185.915 E6.13381
G1 X150.197 Y185.259 E6.14805
G1 X149.98 Y184.714 E6.15976
G1 X149.604 Y183.592 E6.18337
G1 X149.209 Y182.146 E6.21328
G1 X148.714 Y180.269 E6.25202
G1 X148.5 Y179.26 E6.27261
G1 X148.393 Y178.536 E6.28721
G1 X148.317 Y177.89 E6.30019
G1 X148.245 Y176.71 E6.32378
G1 X148.239 Y175.226 E6.3534
G1 X148.246 Y173.28 E6.39223
G1 X148.308 Y172.179 E6.41424
G1 X148.394 Y171.46 E6.42869
G1 X148.481 Y170.871 E6.44057
G1 X148.713 Y169.735 E6.46371
G1 X149.089 Y168.304 E6.49324
G1 X149.606 Y166.408 E6.53246
G1 X149.914 Y165.462 E6.55231
G1 X150.201 Y164.733 E6.56794
G1 X150.452 Y164.15 E6.58061
G1 X150.987 Y163.082 E6.60445
G1 X152.669 Y160.171 E6.67154
G1 X153.204 Y159.34 E6.69126
G1 X153.689 Y158.682 E6.70758
G1 X154.1 Y158.163 E6.72079
G1 X154.868 Y157.296 E6.7439
G1 X155.941 Y156.213 E6.77433
G0 F6000 X156.223 Y156.497
G1 F1200 X157.561 Y155.168 E6.81196
G1 X158.286 Y154.514 E6.83144
G1 X158.876 Y154.045 E6.84649
G1 X159.386 Y153.665 E6.85918
G1 X160.331 Y153.039 E6.8818
G1 X161.627 Y152.281 E6.91176
G1 X163.289 Y151.328 E6.94999
G1 X164.22 Y150.856 E6.97082
G1 X164.92 Y150.556 E6.98602
G1 X165.495 Y150.33 E6.99835
G1 X166.531 Y149.985 E7.02014
G1 X167.96 Y149.594 E7.04971
G1 X169.829 Y149.101 E7.08828
G1 X170.818 Y148.892 E7.10845
G1 X171.516 Y148.789 E7.12253
G1 X172.143 Y148.715 E7.13513
G1 X173.295 Y148.645 E7.15816
G1 X174.773 Y148.639 E7.18766
G1 X176.696 Y148.645 E7.22604
G1 X177.767 Y148.705 E7.24744
G1 X178.479 Y148.789 E7.26175
G1 X179.047 Y148.872 E7.27321
G1 X180.163 Y149.1 E7.29594
G1 X181.591 Y149.475 E7.3254
G1 X183.468 Y149.986 E7.36422
G1 X184.392 Y150.286 E7.38361
G1 X185.105 Y150.566 E7.39889
G1 X185.67 Y150.809 E7.41117
G1 X186.744 Y151.348 E7.43515
G1 X189.616 Y153.008 E7.50135
G1 X190.417 Y153.522 E7.52034
G1 X191.065 Y153.999 E7.5364
G1 X191.56 Y154.39 E7.54899
G1 X192.408 Y155.139 E7.57156
G1 X193.506 Y156.225 E7.60238
G1 X194.833 Y157.562 E7.63998
G1 X195.513 Y158.32 E7.6603
G1 X195.981 Y158.909 E7.67531
G1 X196.333 Y159.381 E7.68706
G1 X196.963 Y160.333 E7.70984
G1 X197.719 Y161.627 E7.73975
G1 X198.672 Y163.289 E7.77798
G1 X199.144 Y164.22 E7.79881
G1 X199.437 Y164.901 E7.81361
G1 X199.658 Y165.46 E7.8256
G1 X200.008 Y166.511 E7.84771
G1 X200.407 Y167.964 E7.87778
G1 X200.899 Y169.832 E7.91633
G1 X201.102 Y170.788 E7.93583
G1 X201.21 Y171.509 E7.95038
G1 X201.284 Y172.132 E7.9629
G1 X201.355 Y173.291 E7.98607
G1 X201.361 Y174.773 E8.01565
G1 X201.355 Y176.694 E8.05398
G1 X201.296 Y177.759 E8.07527
G1 X201.21 Y178.481 E8.08978
G1 X201.127 Y179.048 E8.10121
G1 X200.901 Y180.161 E8.12388
G1 X200.525 Y181.591 E8.15339
G1 X200.014 Y183.468 E8.19221
G1 X199.723 Y184.37 E8.21112
G1 X199.447 Y185.075 E8.22623
G1 X199.196 Y185.66 E8.23893
G1 X198.654 Y186.741 E8.26307
G1 X196.994 Y189.614 E8.32928
G1 X196.474 Y190.423 E8.34847
G1 X195.997 Y191.07 E8.36451
G1 X195.6 Y191.572 E8.37729
G1 X194.848 Y192.422 E8.39994
G1 X193.777 Y193.503 E8.4303
G1 X192.439 Y194.832 E8.46794
G1 X191.671 Y195.521 E8.48853
G1 X191.093 Y195.979 E8.50324
G1 X190.624 Y196.329 E8.51492
G1 X189.671 Y196.96 E8.53773
G1 X188.373 Y197.719 E8.56774
G1 X186.711 Y198.672 E8.60597
G1 X185.78 Y199.144 E8.6268
G1 X185.08 Y199.444 E8.642
G1 X184.505 Y199.67 E8.65433
G1 X183.469 Y200.015 E8.67612
G1 X182.04 Y200.406 E8.70568
G1 X180.171 Y200.899 E8.74426
G1 X179.182 Y201.108 E8.76443
G1 X178.503 Y201.208 E8.77813
G1 X177.886 Y201.282 E8.79053
G1 X176.714 Y201.355 E8.81396
G1 X175.227 Y201.361 E8.84364
G1 X173.302 Y201.355 E8.88205
G1 X172.227 Y201.295 E8.90354
G1 X171.515 Y201.21 E8.91785
G1 X170.949 Y201.127 E8.92926
G1 X169.839 Y200.901 E8.95187
G1 X168.409 Y200.525 E8.98138
G1 X166.532 Y200.014 E9.0202
G1 X165.608 Y199.714 E9.03958
G1 X164.893 Y199.433 E9.05492
G1 X164.326 Y199.189 E9.06723
G1 X163.253 Y198.651 E9.09119
G1 X160.383 Y196.992 E9.15734
G1 X159.55 Y196.455 E9.17712
G1 X158.885 Y195.963 E9.19363
G1 X158.416 Y195.591 E9.20557
G1 X157.582 Y194.851 E9.22782
G1 X156.495 Y193.775 E9.25835
G1 X155.165 Y192.435 E9.29602
G1 X154.475 Y191.667 E9.31663
G1 X154.026 Y191.099 E9.33108
G1 X153.671 Y190.624 E9.34291
G1 X153.03 Y189.657 E9.36606
G1 X152.279 Y188.369 E9.39582
G1 X151.324 Y186.702 E9.43416
G1 X150.846 Y185.757 E9.45529
G1 X150.569 Y185.111 E9.46932
G1 X150.352 Y184.566 E9.48102
G1 X149.99 Y183.487 E9.50373
G1 X149.596 Y182.044 E9.53359
G1 X149.105 Y180.186 E9.57194
G1 X148.896 Y179.201 E9.59203
G1 X148.79 Y178.489 E9.6064
G1 X148.716 Y177.865 E9.61894
G1 X148.645 Y176.708 E9.64207
G1 X148.639 Y175.227 E9.67162
G1 X148.645 Y173.302 E9.71004
G1 X148.705 Y172.227 E9.73153
G1 X148.79 Y171.518 E9.74578
G1 X148.873 Y170.951 E9.75721
G1 X149.1 Y169.837 E9.7799
G1 X149.475 Y168.409 E9.80936
G1 X149.986 Y166.532 E9.84818
G1 X150.286 Y165.608 E9.86757
G1 X150.568 Y164.891 E9.88295
G1 X150.81 Y164.329 E9.89516
G1 X151.345 Y163.261 E9.919
G1 X153.005 Y160.387 E9.98523
G1 X153.526 Y159.577 E10.00445
G1 X154.003 Y158.93 E10.02049
G1 X154.4 Y158.428 E10.03326
G1 X155.152 Y157.578 E10.05591
G1 X156.223 Y156.497 E10.08628
G1 F1500 E3.58628
G1 F300 Z0.32
;MESH:spur gear_am(2 tane).STL
G0 F6000 X163.698 Y166.328 Z0.32
;TYPE:WALL-INNER
G1 F300 Z0.12
G1 F1500 E10.08628
G1 F1050.3 X164.445 Y166.9 E10.10773
G1 F1500 E3.60773
G1 F300 Z0.32
G0 F6000 X176.994 Y190.514 Z0.32
G1 F300 Z0.12
G1 F1500 E10.10773
G1 F1200 X177.089 Y190.502 E10.10964
G1 X177.206 Y190.006 E10.11981
G1 X177.269 Y189.115 E10.13763
G1 X177.186 Y188.201 E10.15595
G1 X177.289 Y187.806 E10.1641
G1 X177.544 Y187.595 E10.1707
G1 X179.07 Y187.18 E10.20226
G1 X179.422 Y187.235 E10.20937
G1 X179.709 Y187.525 E10.21751
G1 X180.099 Y188.37 E10.23608
G1 X180.59 Y189.097 E10.25359
G1 X180.943 Y189.471 E10.26385
G1 X181.03 Y189.435 E10.26573
G1 X181.016 Y188.92 E10.27601
G1 X180.851 Y188.059 E10.29351
G1 X180.527 Y187.187 E10.31207
G1 X180.525 Y186.777 E10.32025
G1 X180.617 Y186.609 E10.32408
G1 X180.772 Y186.469 E10.32825
G1 X182.072 Y185.718 E10.35821
G1 X182.245 Y185.667 E10.36181
G1 X182.437 Y185.672 E10.36564
G1 X182.79 Y185.879 E10.3738
G1 X183.379 Y186.589 E10.39221
G1 X184.047 Y187.168 E10.40986
G1 X184.485 Y187.438 E10.42012
G1 X184.56 Y187.38 E10.42202
G1 X184.413 Y186.886 E10.4323
G1 X184.032 Y186.102 E10.4497
G1 X183.493 Y185.34 E10.46832
G1 X183.384 Y184.945 E10.4765
G1 X183.429 Y184.758 E10.48034
G1 X183.558 Y184.567 E10.48494
G1 X184.567 Y183.558 E10.51341
G1 X184.758 Y183.43 E10.518
G1 X184.944 Y183.384 E10.52183
G1 X185.34 Y183.493 E10.53002
G1 X186.102 Y184.032 E10.54865
G1 X186.886 Y184.413 E10.56604
G1 X187.38 Y184.56 E10.57633
G1 X187.438 Y184.485 E10.57822
G1 X187.168 Y184.047 E10.58849
G1 X186.589 Y183.379 E10.60613
G1 X185.879 Y182.79 E10.62454
G1 X185.671 Y182.437 E10.63272
G1 X185.667 Y182.244 E10.63657
G1 X185.72 Y182.067 E10.64026
G1 X186.482 Y180.752 E10.67059
G1 X186.609 Y180.617 E10.67428
G1 X186.777 Y180.524 E10.67812
G1 X187.187 Y180.528 E10.6863
G1 X188.059 Y180.851 E10.70486
G1 X188.917 Y181.014 E10.72228
G1 X189.434 Y181.029 E10.73261
G1 X189.47 Y180.943 E10.73447
G1 X189.094 Y180.59 E10.74476
G1 X188.37 Y180.099 E10.76222
G1 X187.525 Y179.709 E10.78079
G1 X187.235 Y179.422 E10.78893
G1 X187.181 Y179.238 E10.79276
G1 X187.185 Y179.063 E10.79625
G1 X187.566 Y177.628 E10.82588
G1 X187.667 Y177.422 E10.83046
G1 X187.806 Y177.289 E10.8343
G1 X188.201 Y177.186 E10.84244
G1 X189.115 Y177.27 E10.86076
