;FLAVOR:Marlin
;TIME:14352
;Filament used: 11.1343m
;Layer height: 0.12
;MINX:115.027
;MINY:115.01
;MINZ:0.12
;MAXX:234.973
;MAXY:234.988
;MAXZ:6.2
;TARGET_MACHINE.NAME:Creality Ender-5 Plus
;Generated with Cura_SteamEngine 5.6.0
M140 S60
M105
M190 S60
M104 S210
M105
M109 S210
M82 ;absolute extrusion mode
M201 X500.00 Y500.00 Z100.00 E5000.00 ;Setup machine max acceleration
M203 X500.00 Y500.00 Z10.00 E50.00 ;Setup machine max feedrate
M204 P500.00 R1000.00 T500.00 ;Setup Print/Retract/Travel acceleration
M205 X8.00 Y8.00 Z0.40 E5.00 ;Setup Jerk
M220 S100 ;Reset Feedrate
M221 S100 ;Reset Flowrate

G28 ;Home
M420 S1 Z2 ;Enable ABL using saved Mesh and Fade Height

G92 E0 ;Reset Extruder
G1 Z2.0 F3000 ;Move Z Axis up
G1 X10.1 Y20 Z0.28 F5000.0 ;Move to start position
G1 X10.1 Y200.0 Z0.28 F1500.0 E15 ;Draw the first line
G1 X10.4 Y200.0 Z0.28 F5000.0 ;Move to side a little
G1 X10.4 Y20 Z0.28 F1500.0 E30 ;Draw the second line
G92 E0 ;Reset Extruder
G1 Z2.0 F3000 ;Move Z Axis up

G92 E0
G92 E0
G1 F1500 E-6.5
;LAYER_COUNT:50
;LAYER:0
M107
G1 F300 Z0.32
G0 F6000 X132.873 Y132.299 Z0.32
;TYPE:SKIRT
G1 F300 Z0.12
G1 F1500 E0
G1 F1200 X133.261 Y131.915 E0.01089
G1 X133.717 Y131.493 E0.02329
G1 X136.806 Y128.775 E0.1054
G1 X137.478 Y128.2 E0.12305
G1 X137.944 Y127.826 E0.13498
G1 X138.441 Y127.454 E0.14737
G1 X141.786 Y125.077 E0.22926
G1 X142.496 Y124.586 E0.24648
G1 X143.076 Y124.213 E0.26024
G1 X143.616 Y123.894 E0.27276
G1 X147.215 Y121.858 E0.35528
G1 X147.854 Y121.51 E0.3698
G1 X148.367 Y121.247 E0.3813
G1 X148.895 Y121.001 E0.39293
G1 X152.639 Y119.363 E0.47448
G1 X153.486 Y119.007 E0.49282
G1 X154.026 Y118.798 E0.50437
G1 X154.59 Y118.603 E0.51628
G1 X158.49 Y117.355 E0.598
G1 X159.379 Y117.085 E0.61654
G1 X160.101 Y116.895 E0.63144
G1 X160.75 Y116.748 E0.64472
G1 X164.686 Y115.928 E0.72495
G1 X165.42 Y115.786 E0.73987
G1 X166.126 Y115.673 E0.75414
G1 X166.828 Y115.587 E0.76825
G1 X170.752 Y115.186 E0.84697
G1 X171.555 Y115.114 E0.86306
G1 X172.022 Y115.082 E0.8724
G1 X172.698 Y115.055 E0.8859
G1 X174.789 Y115.01 E0.92764
G1 X175.265 Y115.01 E0.93714
G1 X177.347 Y115.058 E0.9787
G1 X178.277 Y115.103 E0.99728
G1 X178.86 Y115.147 E1.00894
G1 X182.985 Y115.572 E1.0917
G1 X183.844 Y115.671 E1.10895
G1 X184.443 Y115.76 E1.12104
G1 X185.035 Y115.868 E1.13305
G1 X189.169 Y116.733 E1.21733
G1 X189.93 Y116.904 E1.2329
G1 X190.463 Y117.041 E1.24388
G1 X191.066 Y117.216 E1.25641
G1 X194.954 Y118.455 E1.33784
G1 X195.8 Y118.737 E1.35564
G1 X196.46 Y118.984 E1.3697
G1 X197.149 Y119.27 E1.38459
G1 X200.661 Y120.806 E1.46109
G1 X201.479 Y121.177 E1.47901
G1 X202.121 Y121.496 E1.49332
G1 X202.781 Y121.855 E1.50831
G1 X206.255 Y123.823 E1.58799
G1 X206.881 Y124.189 E1.60246
G1 X207.354 Y124.483 E1.61357
G1 X207.847 Y124.816 E1.62545
G1 X211.216 Y127.209 E1.70791
G1 X211.917 Y127.722 E1.72525
G1 X212.396 Y128.094 E1.73735
G1 X212.874 Y128.495 E1.7498
G1 X215.922 Y131.173 E1.83077
G1 X216.569 Y131.756 E1.84815
G1 X217.059 Y132.227 E1.86171
G1 X217.545 Y132.73 E1.87567
G1 X220.232 Y135.635 E1.95464
G1 X220.807 Y136.274 E1.9718
G1 X221.172 Y136.702 E1.98302
G1 X221.558 Y137.191 E1.99545
G1 X224.034 Y140.486 E2.0777
G1 X224.538 Y141.178 E2.09479
G1 X224.86 Y141.646 E2.10613
G1 X225.201 Y142.18 E2.11877
G1 X227.384 Y145.813 E2.20335
G1 X227.768 Y146.474 E2.21861
G1 X228.063 Y147.019 E2.23097
G1 X228.323 Y147.547 E2.24272
G1 X230.127 Y151.399 E2.3276
G1 X230.416 Y152.042 E2.34167
G1 X230.628 Y152.549 E2.35264
G1 X230.853 Y153.142 E2.36529
G1 X232.206 Y157.025 E2.44735
G1 X232.484 Y157.861 E2.46493
G1 X232.689 Y158.557 E2.47941
G1 X232.861 Y159.237 E2.49341
G1 X233.793 Y163.183 E2.57432
G1 X233.943 Y163.867 E2.5883
G1 X234.055 Y164.461 E2.60036
G1 X234.146 Y165.052 E2.6123
G1 X234.69 Y169.259 E2.69695
G1 X234.773 Y169.964 E2.71112
G1 X234.826 Y170.583 E2.72351
G1 X234.856 Y171.216 E2.73616
G1 X234.966 Y175.468 E2.82104
G1 X234.973 Y176.152 E2.83469
G1 X234.958 Y176.826 E2.84815
G1 X234.916 Y177.572 E2.86306
G1 X234.601 Y181.598 E2.94365
G1 X234.535 Y182.314 E2.95799
G1 X234.467 Y182.884 E2.96945
G1 X234.368 Y183.523 E2.98235
G1 X233.62 Y187.63 E3.06566
G1 X233.468 Y188.405 E3.08142
G1 X233.3 Y189.125 E3.09618
G1 X233.134 Y189.736 E3.10881
G1 X232.048 Y193.463 E3.18628
G1 X231.822 Y194.201 E3.20168
G1 X231.612 Y194.813 E3.2146
G1 X231.114 Y196.137 E3.24283
G1 X230.097 Y198.683 E3.29754
G1 X229.762 Y199.491 E3.31499
G1 X229.561 Y199.948 E3.32496
G1 X229.171 Y200.762 E3.34297
G1 X228.743 Y201.591 E3.36159
G1 X227.034 Y204.8 E3.43414
G1 X226.616 Y205.56 E3.45145
G1 X226.324 Y206.054 E3.4629
G1 X226.01 Y206.546 E3.47455
G1 X223.65 Y210.059 E3.55901
G1 X223.202 Y210.705 E3.57469
G1 X222.837 Y211.198 E3.58694
G1 X222.495 Y211.625 E3.59785
G1 X219.898 Y214.741 E3.6788
G1 X219.285 Y215.457 E3.69761
G1 X218.878 Y215.906 E3.70971
G1 X218.459 Y216.332 E3.72163
G1 X215.482 Y219.237 E3.80464
G1 X214.916 Y219.775 E3.82022
G1 X214.419 Y220.218 E3.83351
G1 X213.983 Y220.579 E3.8448
G1 X210.749 Y223.141 E3.92714
G1 X210.078 Y223.658 E3.94404
G1 X209.593 Y224.01 E3.956
G1 X209.101 Y224.338 E3.9678
G1 X205.664 Y226.527 E4.04912
G1 X204.893 Y227.004 E4.06721
G1 X204.389 Y227.296 E4.07884
G1 X203.82 Y227.599 E4.0917
G1 X200.014 Y229.501 E4.17661
G1 X199.38 Y229.806 E4.19065
G1 X198.709 Y230.101 E4.20528
G1 X198.034 Y230.368 E4.21976
G1 X194.331 Y231.764 E4.29874
G1 X193.618 Y232.022 E4.31387
G1 X193.051 Y232.208 E4.32578
G1 X192.495 Y232.369 E4.33733
G1 X188.395 Y233.449 E4.42194
G1 X187.632 Y233.639 E4.43763
G1 X187.07 Y233.762 E4.44911
G1 X186.466 Y233.87 E4.46136
G1 X182.464 Y234.495 E4.54219
G1 X181.53 Y234.626 E4.56101
G1 X180.941 Y234.693 E4.57284
G1 X180.378 Y234.734 E4.58411
G1 X176.146 Y234.955 E4.66868
G1 X175.388 Y234.983 E4.68381
G1 X174.797 Y234.988 E4.69561
G1 X174.197 Y234.971 E4.70759
G1 X170.068 Y234.76 E4.79009
G1 X168.96 Y234.682 E4.81226
G1 X168.39 Y234.625 E4.82369
G1 X166.594 Y234.396 E4.85982
G1 X165.43 Y234.222 E4.88331
G1 X163.706 Y233.914 E4.91826
G1 X162.868 Y233.752 E4.93529
G1 X162.336 Y233.634 E4.94616
G1 X161.612 Y233.454 E4.96105
G1 X157.959 Y232.491 E5.03644
G1 X157.122 Y232.257 E5.05379
G1 X156.581 Y232.091 E5.06508
G1 X155.969 Y231.876 E5.07802
G1 X152.154 Y230.44 E5.15937
G1 X151.348 Y230.124 E5.17665
G1 X150.766 Y229.876 E5.18927
G1 X150.223 Y229.619 E5.20126
G1 X146.543 Y227.781 E5.28335
G1 X145.785 Y227.389 E5.30038
G1 X145.111 Y227.01 E5.31581
G1 X144.51 Y226.639 E5.32991
G1 X141.304 Y224.6 E5.40573
G1 X140.565 Y224.115 E5.42337
G1 X140.043 Y223.75 E5.43608
G1 X139.577 Y223.398 E5.44773
G1 X136.357 Y220.851 E5.52967
G1 X135.725 Y220.337 E5.54592
G1 X135.216 Y219.894 E5.55939
G1 X134.635 Y219.351 E5.57526
G1 X131.881 Y216.666 E5.65201
G1 X131.218 Y216.002 E5.67074
G1 X130.801 Y215.559 E5.68288
G1 X130.446 Y215.15 E5.69369
G1 X127.767 Y211.94 E5.77713
G1 X127.259 Y211.315 E5.7932
G1 X126.823 Y210.738 E5.80763
G1 X126.42 Y210.162 E5.82166
G1 X124.182 Y206.835 E5.90168
G1 X123.77 Y206.202 E5.91675
G1 X123.384 Y205.564 E5.93163
G1 X123.137 Y205.118 E5.9418
G1 X121.189 Y201.463 E6.02446
G1 X120.85 Y200.803 E6.03926
G1 X120.643 Y200.378 E6.0487
G1 X120.295 Y199.618 E6.06538
G1 X120.092 Y199.142 E6.07571
G1 X118.781 Y195.871 E6.14603
G1 X118.506 Y195.158 E6.16128
G1 X118.286 Y194.524 E6.17467
G1 X117.931 Y193.387 E6.19844
G1 X116.897 Y189.839 E6.27219
G1 X116.707 Y189.143 E6.28659
G1 X116.546 Y188.468 E6.30044
G1 X116.401 Y187.755 E6.31496
G1 X115.71 Y183.954 E6.39205
G1 X115.565 Y183.086 E6.40962
G1 X115.472 Y182.393 E6.42357
G1 X115.404 Y181.704 E6.43739
G1 X115.089 Y177.609 E6.51935
G1 X115.047 Y176.956 E6.53241
G1 X115.027 Y176.355 E6.54441
G1 X115.028 Y175.731 E6.55686
G1 X115.137 Y171.434 E6.64264
G1 X115.168 Y170.73 E6.6567
G1 X115.206 Y170.172 E6.66786
G1 X115.273 Y169.533 E6.68068
G1 X115.823 Y165.284 E6.76618
G1 X115.922 Y164.61 E6.77978
G1 X116.026 Y164.017 E6.79179
G1 X116.147 Y163.448 E6.8034
G1 X117.078 Y159.49 E6.88454
G1 X117.307 Y158.585 E6.90317
G1 X117.453 Y158.065 E6.91395
G1 X117.657 Y157.423 E6.9274
G1 X118.994 Y153.578 E7.00863
G1 X119.289 Y152.765 E7.02589
G1 X119.522 Y152.178 E7.0385
G1 X119.754 Y151.657 E7.04988
G1 X121.553 Y147.808 E7.13466
G1 X121.869 Y147.157 E7.1491
G1 X122.156 Y146.607 E7.16149
G1 X122.443 Y146.104 E7.17304
G1 X124.558 Y142.58 E7.25506
G1 X125.021 Y141.83 E7.27265
G1 X125.371 Y141.302 E7.28529
G1 X125.689 Y140.859 E7.29617
G1 X128.123 Y137.612 E7.37716
G1 X128.691 Y136.875 E7.39572
G1 X129.122 Y136.352 E7.40925
G1 X129.574 Y135.845 E7.4228
G1 X132.375 Y132.821 E7.50506
G1 X132.873 Y132.299 E7.51946
G0 F6000 X133.155 Y132.583
G1 F1200 X133.533 Y132.208 E7.53008
G1 X133.981 Y131.793 E7.54227
G1 X137.066 Y129.079 E7.62427
G1 X137.729 Y128.512 E7.64168
G1 X138.184 Y128.146 E7.65333
G1 X138.673 Y127.78 E7.66552
G1 X142.013 Y125.406 E7.74729
G1 X142.713 Y124.922 E7.76428
G1 X143.28 Y124.557 E7.77773
G1 X143.813 Y124.242 E7.79009
G1 X147.407 Y122.209 E7.87249
G1 X148.036 Y121.866 E7.88679
G1 X148.536 Y121.61 E7.898
G1 X149.064 Y121.364 E7.90962
G1 X152.794 Y119.732 E7.99087
G1 X153.631 Y119.38 E8.00899
G1 X154.157 Y119.176 E8.02025
G1 X154.712 Y118.984 E8.03197
G1 X158.606 Y117.738 E8.11356
G1 X159.481 Y117.472 E8.13181
G1 X160.189 Y117.285 E8.14643
G1 X160.832 Y117.14 E8.15958
G1 X164.762 Y116.321 E8.23969
G1 X165.483 Y116.181 E8.25435
G1 X166.175 Y116.07 E8.26834
G1 X166.869 Y115.985 E8.28229
G1 X170.788 Y115.584 E8.3609
G1 X171.582 Y115.513 E8.37681
G1 X172.038 Y115.482 E8.38593
G1 X172.707 Y115.455 E8.3993
G1 X174.798 Y115.41 E8.44103
G1 X175.256 Y115.41 E8.45017
G1 X177.328 Y115.458 E8.49153
G1 X178.247 Y115.502 E8.50989
G1 X178.819 Y115.545 E8.52134
G1 X182.939 Y115.969 E8.60399
G1 X183.786 Y116.067 E8.62101
G1 X184.371 Y116.153 E8.63281
G1 X184.953 Y116.26 E8.64462
G1 X189.081 Y117.123 E8.72878
G1 X189.831 Y117.292 E8.74412
G1 X190.352 Y117.425 E8.75485
G1 X190.945 Y117.597 E8.76717
G1 X194.827 Y118.834 E8.84848
G1 X195.66 Y119.112 E8.866
G1 X196.32 Y119.359 E8.88007
G1 X196.989 Y119.637 E8.89453
G1 X200.496 Y121.17 E8.97091
G1 X201.301 Y121.535 E8.98854
G1 X201.93 Y121.848 E9.00257
G1 X202.584 Y122.203 E9.01742
G1 X206.053 Y124.168 E9.09698
G1 X206.67 Y124.529 E9.11124
G1 X207.13 Y124.814 E9.12204
G1 X207.615 Y125.142 E9.13373
G1 X210.98 Y127.532 E9.21609
G1 X211.672 Y128.038 E9.2332
G1 X212.139 Y128.4 E9.24499
G1 X212.61 Y128.796 E9.25727
G1 X215.654 Y131.47 E9.33813
G1 X216.292 Y132.045 E9.35527
G1 X216.771 Y132.505 E9.36852
G1 X217.251 Y133.002 E9.38231
G1 X219.935 Y135.903 E9.46118
G1 X220.503 Y136.534 E9.47812
G1 X220.858 Y136.95 E9.48904
G1 X221.238 Y137.431 E9.50127
G1 X223.711 Y140.722 E9.58342
G1 X224.209 Y141.405 E9.60029
G1 X224.523 Y141.861 E9.61134
G1 X224.858 Y142.386 E9.62377
G1 X227.038 Y146.014 E9.70823
G1 X227.416 Y146.664 E9.72324
G1 X227.704 Y147.196 E9.73531
G1 X227.961 Y147.717 E9.7469
G1 X229.762 Y151.563 E9.83165
G1 X230.047 Y152.196 E9.84551
G1 X230.254 Y152.691 E9.85621
G1 X230.475 Y153.274 E9.86865
G1 X231.826 Y157.151 E9.95059
G1 X232.1 Y157.974 E9.9679
G1 X232.301 Y158.656 E9.98209
G1 X232.472 Y159.329 E9.99594
G1 X233.402 Y163.269 E10.07673
G1 X233.55 Y163.942 E10.09048
G1 X233.66 Y164.522 E10.10226
G1 X233.749 Y165.103 E10.11399
G1 X234.293 Y169.305 E10.19855
G1 X234.374 Y169.998 E10.21247
G1 X234.426 Y170.602 E10.22457
G1 X234.456 Y171.226 E10.23704
G1 X234.566 Y175.472 E10.3218
G1 X234.573 Y176.144 E10.33521
G1 X234.559 Y176.803 E10.34836
G1 X234.517 Y177.541 E10.36312
G1 X234.203 Y181.561 E10.44358
G1 X234.138 Y182.267 E10.45773
G1 X234.072 Y182.822 E10.46889
G1 X233.974 Y183.451 E10.48159
G1 X233.227 Y187.553 E10.5648
G1 X233.078 Y188.314 E10.58027
G1 X232.914 Y189.02 E10.59473
G1 X232.75 Y189.624 E10.60722
G1 X231.666 Y193.346 E10.68459
G1 X231.444 Y194.071 E10.69972
G1 X231.238 Y194.672 E10.7124
G1 X230.742 Y195.989 E10.74048
G1 X229.728 Y198.53 E10.79508
G1 X229.396 Y199.33 E10.81236
G1 X229.2 Y199.775 E10.82207
G1 X228.81 Y200.589 E10.84008
G1 X228.39 Y201.403 E10.85836
G1 X226.684 Y204.607 E10.9308
G1 X226.271 Y205.357 E10.94788
G1 X225.987 Y205.839 E10.95905
G1 X225.678 Y206.323 E10.97051
G1 X223.321 Y209.831 E11.05485
G1 X222.88 Y210.467 E11.07029
G1 X222.524 Y210.948 E11.08223
G1 X222.188 Y211.369 E11.09298
G1 X219.594 Y214.481 E11.17383
G1 X218.989 Y215.188 E11.1924
G1 X218.592 Y215.626 E11.2042
G1 X218.18 Y216.046 E11.21594
G1 X215.206 Y218.947 E11.29885
G1 X214.64 Y219.485 E11.31443
G1 X214.164 Y219.91 E11.32717
G1 X213.735 Y220.265 E11.33828
G1 X210.505 Y222.824 E11.42051
G1 X209.843 Y223.334 E11.43719
G1 X209.371 Y223.677 E11.44883
G1 X208.886 Y224.001 E11.46047
G1 X205.453 Y226.187 E11.54169
G1 X204.692 Y226.658 E11.55955
G1 X204.201 Y226.943 E11.57088
G1 X203.641 Y227.241 E11.58354
G1 X199.84 Y229.141 E11.66834
G1 X199.219 Y229.44 E11.6821
G1 X198.562 Y229.729 E11.69642
G1 X197.893 Y229.994 E11.71078
G1 X194.195 Y231.388 E11.78965
G1 X193.493 Y231.642 E11.80455
G1 X192.94 Y231.824 E11.81616
G1 X192.393 Y231.982 E11.82753
G1 X188.299 Y233.061 E11.91202
G1 X187.546 Y233.248 E11.9275
G1 X186.999 Y233.368 E11.93868
G1 X186.404 Y233.475 E11.95074
G1 X182.408 Y234.099 E12.03145
G1 X181.485 Y234.229 E12.05005
G1 X180.911 Y234.294 E12.06158
G1 X180.357 Y234.335 E12.07267
G1 X176.131 Y234.555 E12.15711
G1 X175.385 Y234.583 E12.17201
G1 X174.808 Y234.588 E12.18353
G1 X174.217 Y234.572 E12.19533
G1 X170.096 Y234.361 E12.27767
G1 X169 Y234.284 E12.2996
G1 X168.441 Y234.228 E12.31081
G1 X166.653 Y234 E12.34678
G1 X165.5 Y233.828 E12.37004
G1 X163.782 Y233.521 E12.40487
G1 X162.954 Y233.361 E12.4217
G1 X162.433 Y233.246 E12.43235
G1 X161.714 Y233.067 E12.44714
G1 X158.067 Y232.106 E12.5224
G1 X157.24 Y231.875 E12.53953
G1 X156.713 Y231.713 E12.55054
G1 X156.11 Y231.502 E12.56329
G1 X152.3 Y230.067 E12.64453
G1 X151.505 Y229.756 E12.66157
G1 X150.937 Y229.514 E12.67389
G1 X150.402 Y229.261 E12.6857
G1 X146.727 Y227.426 E12.76767
G1 X145.981 Y227.04 E12.78443
G1 X145.321 Y226.669 E12.79954
G1 X144.725 Y226.302 E12.81351
G1 X141.523 Y224.265 E12.88925
G1 X140.794 Y223.787 E12.90664
G1 X140.284 Y223.431 E12.91905
G1 X139.825 Y223.084 E12.93054
G1 X136.609 Y220.541 E13.01236
G1 X135.987 Y220.035 E13.02836
G1 X135.489 Y219.602 E13.04153
G1 X134.914 Y219.065 E13.05723
G1 X132.164 Y216.384 E13.13387
G1 X131.509 Y215.727 E13.15238
G1 X131.103 Y215.297 E13.16419
G1 X130.753 Y214.894 E13.17484
G1 X128.077 Y211.688 E13.25818
G1 X127.578 Y211.074 E13.27396
G1 X127.151 Y210.509 E13.2881
G1 X126.752 Y209.939 E13.30198
G1 X124.517 Y206.617 E13.38188
G1 X124.112 Y205.995 E13.3967
G1 X123.734 Y205.37 E13.41127
G1 X123.49 Y204.93 E13.42131
G1 X121.545 Y201.28 E13.50385
G1 X121.21 Y200.628 E13.51848
G1 X121.007 Y200.211 E13.52773
G1 X120.663 Y199.461 E13.5442
G1 X120.463 Y198.993 E13.55436
G1 X119.154 Y195.727 E13.62457
G1 X118.884 Y195.027 E13.63954
G1 X118.668 Y194.405 E13.65268
G1 X118.315 Y193.275 E13.67631
G1 X117.283 Y189.733 E13.74993
G1 X117.096 Y189.05 E13.76406
G1 X116.938 Y188.388 E13.77765
G1 X116.795 Y187.683 E13.792
G1 X116.104 Y183.882 E13.8691
G1 X115.961 Y183.033 E13.88628
G1 X115.87 Y182.354 E13.89995
G1 X115.803 Y181.673 E13.91361
G1 X115.488 Y177.584 E13.99545
G1 X115.447 Y176.942 E14.00829
G1 X115.427 Y176.356 E14.01999
G1 X115.428 Y175.741 E14.03226
G1 X115.537 Y171.451 E14.1179
G1 X115.567 Y170.757 E14.13176
G1 X115.604 Y170.214 E14.14262
G1 X115.67 Y169.584 E14.15526
G1 X116.219 Y165.342 E14.24062
G1 X116.316 Y164.679 E14.254
G1 X116.417 Y164.1 E14.26573
G1 X116.536 Y163.54 E14.27715
G1 X117.466 Y159.588 E14.35817
G1 X117.692 Y158.693 E14.37659
G1 X117.834 Y158.186 E14.3871
G1 X118.035 Y157.554 E14.40033
G1 X119.37 Y153.714 E14.48146
G1 X119.661 Y152.912 E14.49849
G1 X119.887 Y152.341 E14.51075
G1 X120.116 Y151.826 E14.52199
G1 X121.913 Y147.983 E14.60665
G1 X122.224 Y147.342 E14.62087
G1 X122.511 Y146.792 E14.63325
G1 X122.786 Y146.31 E14.64433
G1 X124.898 Y142.79 E14.72625
G1 X125.354 Y142.051 E14.74358
G1 X125.696 Y141.535 E14.75593
G1 X126.009 Y141.099 E14.76664
G1 X128.44 Y137.856 E14.84752
G1 X129 Y137.129 E14.86584
G1 X129.421 Y136.618 E14.87905
G1 X129.867 Y136.117 E14.89243
G1 X132.665 Y133.097 E14.97459
