;FLAVOR:Marlin
;TIME:6239
;Filament used: 2.92566m
;Layer height: 0.12
;MINX:155.013
;MINY:155.022
;MINZ:0.12
;MAXX:194.983
;MAXY:194.978
;MAXZ:70.16
;TARGET_MACHINE.NAME:Creality Ender-5 Plus
;Generated with Cura_SteamEngine 5.6.0
M140 S60
M105
M190 S60
M104 S210
M105
M109 S210
M82 ;absolute extrusion mode
M201 X500.00 Y500.00 Z100.00 E5000.00 ;Setup machine max acceleration
M203 X500.00 Y500.00 Z10.00 E50.00 ;Setup machine max feedrate
M204 P500.00 R1000.00 T500.00 ;Setup Print/Retract/Travel acceleration
M205 X8.00 Y8.00 Z0.40 E5.00 ;Setup Jerk
M220 S100 ;Reset Feedrate
M221 S100 ;Reset Flowrate

G28 ;Home
M420 S1 Z2 ;Enable ABL using saved Mesh and Fade Height

G92 E0 ;Reset Extruder
G1 Z2.0 F3000 ;Move Z Axis up
G1 X10.1 Y20 Z0.28 F5000.0 ;Move to start position
G1 X10.1 Y200.0 Z0.28 F1500.0 E15 ;Draw the first line
G1 X10.4 Y200.0 Z0.28 F5000.0 ;Move to side a little
G1 X10.4 Y20 Z0.28 F1500.0 E30 ;Draw the second line
G92 E0 ;Reset Extruder
G1 Z2.0 F3000 ;Move Z Axis up

G92 E0
G92 E0
G1 F1500 E-6.5
;LAYER_COUNT:583
;LAYER:0
M107
G1 F300 Z0.32
G0 F6000 X161.293 Y160.468 Z0.32
;TYPE:SKIRT
G1 F300 Z0.12
G1 F1500 E0
G1 F1200 X161.999 Y159.82 E0.01912
G1 X162.427 Y159.478 E0.03006
G1 X163.32 Y158.805 E0.05237
G1 X163.921 Y158.376 E0.06711
G1 X164.701 Y157.87 E0.08566
G1 X165.19 Y157.598 E0.09683
G1 X165.855 Y157.25 E0.11181
G1 X166.873 Y156.751 E0.13443
G1 X167.756 Y156.37 E0.15362
G1 X168.31 Y156.178 E0.16532
G1 X169.358 Y155.847 E0.18726
G1 X170.089 Y155.635 E0.20244
G1 X171.023 Y155.41 E0.22162
G1 X171.592 Y155.317 E0.23312
G1 X172.674 Y155.169 E0.25492
G1 X173.419 Y155.085 E0.26988
G1 X174.376 Y155.022 E0.28902
G1 X174.936 Y155.023 E0.30019
G1 X175.75 Y155.048 E0.31644
G1 X176.796 Y155.103 E0.33735
G1 X177.753 Y155.201 E0.35655
G1 X178.343 Y155.304 E0.3685
G1 X179.449 Y155.532 E0.39103
G1 X180.141 Y155.694 E0.40522
G1 X181.063 Y155.953 E0.42433
G1 X181.588 Y156.14 E0.43545
G1 X182.626 Y156.545 E0.45768
G1 X183.336 Y156.843 E0.47305
G1 X184.153 Y157.228 E0.49107
G1 X184.718 Y157.547 E0.50402
G1 X185.665 Y158.119 E0.5261
G1 X186.261 Y158.498 E0.5402
G1 X187.048 Y159.049 E0.55937
G1 X187.503 Y159.418 E0.57106
G1 X188.131 Y159.958 E0.58759
G1 X188.923 Y160.673 E0.60888
G1 X189.564 Y161.309 E0.6269
G1 X189.97 Y161.772 E0.63919
G1 X190.611 Y162.55 E0.65931
G1 X191.126 Y163.208 E0.67598
G1 X191.668 Y163.966 E0.69458
G1 X191.996 Y164.502 E0.70712
G1 X192.517 Y165.414 E0.72808
G1 X192.886 Y166.099 E0.7436
G1 X193.304 Y166.965 E0.76279
G1 X193.52 Y167.51 E0.77449
G1 X193.906 Y168.573 E0.79706
G1 X194.136 Y169.259 E0.8115
G1 X194.392 Y170.153 E0.83006
G1 X194.513 Y170.72 E0.84163
G1 X194.658 Y171.496 E0.85738
G1 X194.812 Y172.455 E0.87677
G1 X194.918 Y173.438 E0.8965
G1 X194.972 Y174.363 E0.91499
G1 X194.983 Y175.389 E0.93546
G1 X194.958 Y176.047 E0.9486
G1 X194.842 Y177.263 E0.97298
G1 X194.622 Y178.694 E1.00187
G1 X194.511 Y179.298 E1.01413
G1 X194.308 Y180.178 E1.03215
G1 X194.116 Y180.802 E1.04518
G1 X193.758 Y181.847 E1.06722
G1 X193.494 Y182.558 E1.08236
G1 X193.131 Y183.416 E1.10095
G1 X192.856 Y183.959 E1.1131
G1 X192.302 Y184.969 E1.13609
G1 X191.951 Y185.576 E1.15008
G1 X191.464 Y186.336 E1.16809
G1 X191.099 Y186.829 E1.18033
G1 X190.396 Y187.716 E1.20292
G1 X189.923 Y188.284 E1.21767
G1 X189.295 Y188.973 E1.23627
G1 X188.849 Y189.398 E1.24857
G1 X188.044 Y190.118 E1.27012
G1 X187.453 Y190.621 E1.28561
G1 X186.695 Y191.211 E1.30478
G1 X186.208 Y191.537 E1.31647
G1 X185.27 Y192.125 E1.33857
G1 X184.638 Y192.5 E1.35323
G1 X183.817 Y192.94 E1.37182
G1 X183.309 Y193.169 E1.38294
G1 X182.662 Y193.441 E1.39695
G1 X181.568 Y193.867 E1.42037
G1 X180.712 Y194.156 E1.4384
G1 X180.089 Y194.319 E1.45125
G1 X179.304 Y194.499 E1.46733
G1 X178.265 Y194.709 E1.48848
G1 X177.316 Y194.855 E1.50764
G1 X176.742 Y194.9 E1.51913
G1 X175.661 Y194.957 E1.54073
G1 X174.909 Y194.978 E1.55575
G1 X173.948 Y194.962 E1.57493
G1 X173.406 Y194.915 E1.58578
G1 X172.347 Y194.791 E1.60706
G1 X171.55 Y194.678 E1.62313
G1 X170.608 Y194.5 E1.64226
G1 X170.036 Y194.351 E1.65405
G1 X168.974 Y194.037 E1.67615
G1 X168.239 Y193.799 E1.69157
G1 X167.393 Y193.484 E1.70959
G1 X166.841 Y193.234 E1.72168
G1 X165.911 Y192.779 E1.74234
G1 X165.199 Y192.408 E1.75836
G1 X164.378 Y191.932 E1.7773
G1 X163.858 Y191.581 E1.78982
G1 X162.93 Y190.907 E1.81271
G1 X162.365 Y190.474 E1.82691
G1 X161.651 Y189.877 E1.84549
G1 X161.218 Y189.461 E1.85747
G1 X160.624 Y188.857 E1.87438
G1 X159.933 Y188.119 E1.89455
G1 X159.331 Y187.411 E1.9131
G1 X158.981 Y186.936 E1.92487
G1 X158.388 Y186.077 E1.9457
G1 X157.936 Y185.388 E1.96215
G1 X157.475 Y184.612 E1.98016
G1 X157.178 Y184.024 E1.99331
G1 X156.717 Y183.025 E2.01526
G1 X156.423 Y182.348 E2.02999
G1 X156.1 Y181.505 E2.04801
G1 X155.913 Y180.891 E2.06082
G1 X155.677 Y180.023 E2.07877
G1 X155.444 Y179.084 E2.09807
G1 X155.27 Y178.198 E2.11609
G1 X155.194 Y177.598 E2.12816
G1 X155.113 Y176.777 E2.14462
G1 X155.037 Y175.742 E2.16534
G1 X155.013 Y174.782 E2.1845
G1 X155.039 Y174.215 E2.19583
G1 X155.118 Y173.16 E2.21694
G1 X155.197 Y172.363 E2.23292
G1 X155.331 Y171.441 E2.25151
G1 X155.458 Y170.858 E2.26342
G1 X155.695 Y169.902 E2.28308
G1 X155.913 Y169.105 E2.29957
G1 X156.189 Y168.245 E2.31759
G1 X156.431 Y167.64 E2.33059
G1 X156.93 Y166.507 E2.3553
G1 X157.229 Y165.875 E2.36925
G1 X157.664 Y165.051 E2.38785
G1 X157.959 Y164.575 E2.39902
G1 X158.521 Y163.725 E2.41936
G1 X158.993 Y163.047 E2.43584
G1 X159.577 Y162.286 E2.45499
G1 X159.954 Y161.86 E2.46634
G1 X160.748 Y161.015 E2.48948
G1 X161.293 Y160.468 E2.50489
G0 F6000 X161.564 Y160.762
G1 F1200 X162.249 Y160.132 E2.52346
G1 X162.668 Y159.797 E2.53417
G1 X163.552 Y159.131 E2.55625
G1 X164.139 Y158.712 E2.57065
G1 X164.919 Y158.206 E2.5892
G1 X165.376 Y157.952 E2.59963
G1 X166.031 Y157.609 E2.61439
G1 X167.032 Y157.118 E2.63664
G1 X167.887 Y156.748 E2.65523
G1 X168.431 Y156.559 E2.66672
G1 X169.469 Y156.231 E2.68845
G1 X170.183 Y156.024 E2.70328
G1 X171.088 Y155.805 E2.72186
G1 X171.646 Y155.713 E2.73315
G1 X172.719 Y155.566 E2.75476
G1 X173.446 Y155.484 E2.76936
G1 X174.375 Y155.422 E2.78794
G1 X174.924 Y155.423 E2.7989
G1 X175.729 Y155.447 E2.81497
G1 X176.756 Y155.501 E2.83549
G1 X177.684 Y155.595 E2.85411
G1 X178.262 Y155.696 E2.86582
G1 X179.358 Y155.922 E2.88815
G1 X180.033 Y156.079 E2.90198
G1 X180.929 Y156.33 E2.92055
G1 X181.443 Y156.513 E2.93144
G1 X182.471 Y156.914 E2.95346
G1 X183.165 Y157.205 E2.96847
G1 X183.982 Y157.59 E2.9865
G1 X184.511 Y157.889 E2.99862
G1 X185.451 Y158.457 E3.02054
G1 X186.032 Y158.826 E3.03428
G1 X186.796 Y159.36 E3.05288
G1 X187.242 Y159.722 E3.06434
G1 X187.863 Y160.255 E3.08067
G1 X188.641 Y160.957 E3.10158
G1 X189.282 Y161.593 E3.1196
G1 X189.661 Y162.026 E3.13109
G1 X190.296 Y162.797 E3.15102
G1 X190.801 Y163.441 E3.16735
G1 X191.343 Y164.199 E3.18595
G1 X191.649 Y164.7 E3.19766
G1 X192.165 Y165.604 E3.21844
G1 X192.526 Y166.273 E3.23361
G1 X192.932 Y167.112 E3.25221
G1 X193.144 Y167.647 E3.26369
G1 X193.527 Y168.7 E3.28605
G1 X193.751 Y169.369 E3.30013
G1 X194.007 Y170.263 E3.31869
G1 X194.12 Y170.793 E3.3295
G1 X194.263 Y171.56 E3.34507
G1 X194.414 Y172.498 E3.36403
G1 X194.52 Y173.481 E3.38376
G1 X194.572 Y174.367 E3.40148
G1 X194.583 Y175.374 E3.42157
G1 X194.558 Y176.032 E3.43471
G1 X194.447 Y177.202 E3.45817
G1 X194.229 Y178.622 E3.48684
G1 X194.121 Y179.208 E3.49873
G1 X193.918 Y180.088 E3.51675
G1 X193.738 Y180.672 E3.52895
G1 X193.383 Y181.708 E3.5508
G1 X193.126 Y182.402 E3.56557
G1 X192.763 Y183.26 E3.58416
G1 X192.505 Y183.767 E3.59551
G1 X191.956 Y184.769 E3.61831
G1 X191.614 Y185.36 E3.63194
G1 X191.127 Y186.12 E3.64995
G1 X190.785 Y186.581 E3.66141
G1 X190.089 Y187.46 E3.68378
G1 X189.627 Y188.015 E3.69819
G1 X188.999 Y188.704 E3.7168
G1 X188.582 Y189.1 E3.72827
G1 X187.784 Y189.814 E3.74964
G1 X187.207 Y190.306 E3.76477
G1 X186.472 Y190.879 E3.78337
G1 X185.996 Y191.198 E3.79481
G1 X185.066 Y191.781 E3.81671
G1 X184.449 Y192.147 E3.83103
G1 X183.628 Y192.587 E3.84962
G1 X183.154 Y192.8 E3.85999
G1 X182.517 Y193.068 E3.87378
G1 X181.44 Y193.488 E3.89685
G1 X180.584 Y193.777 E3.91488
G1 X180 Y193.929 E3.92692
G1 X179.224 Y194.107 E3.94281
G1 X178.204 Y194.314 E3.96358
G1 X177.284 Y194.456 E3.98216
G1 X176.721 Y194.501 E3.99343
G1 X175.65 Y194.557 E4.01483
G1 X174.915 Y194.578 E4.0295
G1 X173.983 Y194.563 E4.0481
G1 X173.441 Y194.516 E4.05896
G1 X172.403 Y194.395 E4.07982
G1 X171.624 Y194.285 E4.09552
G1 X170.709 Y194.113 E4.11409
G1 X170.149 Y193.967 E4.12564
G1 X169.097 Y193.656 E4.14754
G1 X168.379 Y193.424 E4.16259
G1 X167.533 Y193.109 E4.18061
G1 X167.017 Y192.875 E4.19192
G1 X166.096 Y192.424 E4.21238
G1 X165.4 Y192.062 E4.22804
G1 X164.579 Y191.586 E4.24697
G1 X164.093 Y191.257 E4.25869
G1 X163.173 Y190.589 E4.28138
G1 X162.621 Y190.167 E4.29524
G1 X161.928 Y189.588 E4.31326
G1 X161.503 Y189.18 E4.32502
G1 X160.916 Y188.584 E4.34171
G1 X160.238 Y187.86 E4.36151
G1 X159.653 Y187.173 E4.37952
G1 X159.31 Y186.709 E4.39103
G1 X158.722 Y185.858 E4.41167
G1 X158.28 Y185.184 E4.42776
G1 X157.819 Y184.408 E4.44577
G1 X157.541 Y183.856 E4.4581
G1 X157.084 Y182.865 E4.47988
G1 X156.797 Y182.205 E4.49424
G1 X156.474 Y181.362 E4.51226
G1 X156.299 Y180.786 E4.52427
G1 X156.065 Y179.927 E4.54204
G1 X155.837 Y179.007 E4.56095
G1 X155.663 Y178.121 E4.57897
G1 X155.592 Y177.559 E4.59028
G1 X155.512 Y176.748 E4.60654
G1 X155.437 Y175.732 E4.62687
G1 X155.413 Y174.8 E4.64548
G1 X155.438 Y174.245 E4.65656
G1 X155.516 Y173.199 E4.6775
G1 X155.593 Y172.421 E4.6931
G1 X155.727 Y171.499 E4.71169
G1 X155.846 Y170.954 E4.72282
G1 X156.081 Y170.007 E4.74229
G1 X156.294 Y169.227 E4.75843
G1 X156.57 Y168.367 E4.77645
G1 X156.797 Y167.801 E4.78862
G1 X157.291 Y166.678 E4.81311
G1 X157.583 Y166.062 E4.82671
G1 X158.018 Y165.238 E4.84531
G1 X158.293 Y164.796 E4.85569
G1 X158.855 Y163.946 E4.87603
G1 X159.311 Y163.29 E4.89197
G1 X159.877 Y162.551 E4.91055
G1 X160.246 Y162.134 E4.92166
G1 X161.032 Y161.297 E4.94457
G1 X161.564 Y160.762 E4.95963
G0 F6000 X161.835 Y161.056
G1 F1200 X162.499 Y160.444 E4.97765
G1 X162.909 Y160.116 E4.98813
G1 X163.785 Y159.456 E5.01002
G1 X164.357 Y159.047 E5.02405
G1 X165.114 Y158.555 E5.04207
G1 X165.561 Y158.306 E5.05228
G1 X166.207 Y157.968 E5.06683
G1 X167.191 Y157.485 E5.0887
G1 X168.019 Y157.126 E5.10671
G1 X168.552 Y156.94 E5.11798
G1 X169.58 Y156.615 E5.13949
G1 X170.277 Y156.413 E5.15398
G1 X171.154 Y156.2 E5.17199
G1 X171.7 Y156.109 E5.18303
G1 X172.764 Y155.963 E5.20446
G1 X173.473 Y155.883 E5.2187
G1 X174.374 Y155.822 E5.23672
G1 X174.912 Y155.823 E5.24746
G1 X175.708 Y155.846 E5.26335
G1 X176.716 Y155.899 E5.2835
G1 X177.615 Y155.989 E5.30153
G1 X178.181 Y156.088 E5.31299
G1 X179.268 Y156.312 E5.33514
G1 X179.925 Y156.464 E5.3486
G1 X180.795 Y156.707 E5.36662
G1 X181.298 Y156.886 E5.37728
G1 X182.316 Y157.283 E5.39908
G1 X182.994 Y157.567 E5.41375
G1 X183.811 Y157.952 E5.43178
G1 X184.304 Y158.231 E5.44308
G1 X185.237 Y158.795 E5.46484
G1 X185.803 Y159.154 E5.47821
G1 X186.544 Y159.671 E5.49625
G1 X186.982 Y160.026 E5.5075
G1 X187.595 Y160.552 E5.52362
G1 X188.359 Y161.241 E5.54415
G1 X189 Y161.877 E5.56217
G1 X189.352 Y162.28 E5.57284
G1 X189.981 Y163.044 E5.59259
G1 X190.476 Y163.674 E5.60858
G1 X191.002 Y164.408 E5.6266
G1 X191.302 Y164.898 E5.63807
G1 X191.813 Y165.794 E5.65865
G1 X192.166 Y166.447 E5.67347
G1 X192.56 Y167.26 E5.6915
G1 X192.768 Y167.784 E5.70275
G1 X193.148 Y168.828 E5.72492
G1 X193.367 Y169.479 E5.73862
G1 X193.616 Y170.347 E5.75664
G1 X193.727 Y170.866 E5.76724
G1 X193.868 Y171.624 E5.78262
G1 X194.016 Y172.541 E5.80116
G1 X194.122 Y173.524 E5.82089
G1 X194.172 Y174.371 E5.83782
G1 X194.183 Y175.359 E5.85754
G1 X194.158 Y176.017 E5.87068
G1 X194.052 Y177.141 E5.89321
G1 X193.836 Y178.549 E5.92164
G1 X193.731 Y179.118 E5.93318
G1 X193.528 Y179.998 E5.95121
G1 X193.36 Y180.542 E5.96257
G1 X193.008 Y181.569 E5.98423
G1 X192.757 Y182.247 E5.99866
G1 X192.406 Y183.079 E6.01668
G1 X192.154 Y183.575 E6.02778
G1 X191.61 Y184.569 E6.0504
G1 X191.277 Y185.144 E6.06366
G1 X190.79 Y185.904 E6.08167
G1 X190.471 Y186.333 E6.09234
G1 X189.782 Y187.204 E6.1145
G1 X189.331 Y187.746 E6.12857
G1 X188.723 Y188.414 E6.1466
G1 X188.315 Y188.802 E6.15783
G1 X187.524 Y189.51 E6.17902
G1 X186.961 Y189.991 E6.1938
G1 X186.249 Y190.547 E6.21182
G1 X185.783 Y190.859 E6.22302
G1 X184.862 Y191.437 E6.24472
G1 X184.26 Y191.795 E6.25869
G1 X183.464 Y192.222 E6.27672
G1 X182.999 Y192.431 E6.28689
G1 X182.371 Y192.695 E6.30049
G1 X181.312 Y193.109 E6.32318
G1 X180.456 Y193.398 E6.34121
G1 X179.911 Y193.539 E6.35244
G1 X179.144 Y193.715 E6.36815
G1 X178.143 Y193.919 E6.38853
G1 X177.251 Y194.057 E6.40655
G1 X176.7 Y194.102 E6.41758
G1 X175.638 Y194.157 E6.4388
G1 X174.921 Y194.178 E6.45311
G1 X174.018 Y194.164 E6.47114
G1 X173.476 Y194.117 E6.48199
G1 X172.459 Y193.999 E6.50243
G1 X171.698 Y193.892 E6.51776
G1 X170.81 Y193.726 E6.53579
G1 X170.262 Y193.583 E6.54709
G1 X169.22 Y193.275 E6.56877
G1 X168.519 Y193.049 E6.58347
G1 X167.673 Y192.734 E6.60149
G1 X167.193 Y192.516 E6.61201
G1 X166.281 Y192.069 E6.63228
G1 X165.585 Y191.707 E6.64793
G1 X164.803 Y191.255 E6.66596
G1 X164.328 Y190.933 E6.67741
G1 X163.416 Y190.271 E6.6999
G1 X162.877 Y189.86 E6.71343
G1 X162.184 Y189.281 E6.73145
G1 X161.788 Y188.9 E6.74241
G1 X161.208 Y188.31 E6.75892
G1 X160.543 Y187.601 E6.77832
G1 X159.958 Y186.914 E6.79633
G1 X159.639 Y186.481 E6.80706
G1 X159.056 Y185.638 E6.82752
G1 X158.624 Y184.98 E6.84322
G1 X158.163 Y184.204 E6.86124
G1 X157.904 Y183.688 E6.87276
G1 X157.451 Y182.706 E6.89434
G1 X157.171 Y182.062 E6.90835
G1 X156.848 Y181.219 E6.92637
G1 X156.685 Y180.681 E6.93759
G1 X156.453 Y179.831 E6.95517
G1 X156.23 Y178.93 E6.97369
G1 X156.056 Y178.044 E6.99171
G1 X155.99 Y177.52 E7.00225
G1 X155.911 Y176.718 E7.01833
G1 X155.837 Y175.721 E7.03829
G1 X155.813 Y174.818 E7.05631
G1 X155.837 Y174.275 E7.06716
G1 X155.914 Y173.238 E7.08791
G1 X155.989 Y172.478 E7.10315
G1 X156.118 Y171.584 E7.12118
G1 X156.234 Y171.05 E7.13208
G1 X156.467 Y170.112 E7.15137
G1 X156.675 Y169.349 E7.16715
G1 X156.951 Y168.489 E7.18518
G1 X157.163 Y167.962 E7.19651
G1 X157.653 Y166.849 E7.22078
G1 X157.937 Y166.248 E7.23405
G1 X158.358 Y165.449 E7.25207
G1 X158.627 Y165.016 E7.26224
G1 X159.183 Y164.174 E7.28238
G1 X159.629 Y163.533 E7.29796
G1 X160.177 Y162.816 E7.31597
G1 X160.537 Y162.408 E7.32683
G1 X161.316 Y161.579 E7.34953
G1 X161.835 Y161.056 E7.36423
G1 F1500 E0.86423
G1 F300 Z0.32
;MESH:Taban mesafe par??as??(4 tane).STL
G0 F6000 X174.674 Y182.595 Z0.32
;TYPE:WALL-INNER
G1 F300 Z0.12
G1 F1500 E7.36423
G1 F1200 X173.402 Y182.433 E7.38982
G1 X172.164 Y182.052 E7.41567
G1 X171.012 Y181.473 E7.4414
G1 X169.986 Y180.712 E7.46689
G1 X169.088 Y179.775 E7.49279
G1 X168.363 Y178.709 E7.51852
G1 X167.836 Y177.536 E7.54418
G1 X167.508 Y176.28 E7.57009
G1 X167.396 Y175 E7.59573
G1 X167.507 Y173.716 E7.62145
G1 X167.836 Y172.465 E7.64726
G1 X168.364 Y171.289 E7.67299
G1 X169.085 Y170.223 E7.69867
G1 X169.978 Y169.292 E7.72441
G1 X171.01 Y168.527 E7.75005
G1 X172.162 Y167.948 E7.77578
G1 X173.4 Y167.569 E7.80162
G1 X174.672 Y167.405 E7.82721
G1 X175.969 Y167.462 E7.85312
G1 X177.226 Y167.733 E7.87878
G1 X178.42 Y168.209 E7.90443
G1 X179.523 Y168.89 E7.9303
G1 X180.485 Y169.736 E7.95587
G1 X181.298 Y170.739 E7.98163
G1 X181.925 Y171.865 E8.00735
G1 X182.359 Y173.084 E8.03317
G1 X182.575 Y174.375 E8.05929
G1 X182.601 Y175.026 E8.0723
G1 X182.568 Y175.7 E8.08576
G1 X182.357 Y176.915 E8.11037
G1 X181.925 Y178.134 E8.13618
G1 X181.299 Y179.255 E8.1618
G1 X180.489 Y180.259 E8.18755
G1 X179.523 Y181.113 E8.21328
G1 X178.425 Y181.787 E8.23899
G1 X177.23 Y182.268 E8.2647
G1 X175.968 Y182.54 E8.29046
G1 X174.674 Y182.595 E8.31631
G0 F6000 X174.663 Y182.99
G1 F1209.1 X176.021 Y182.932 E8.34323
G1 F1203 X177.34 Y182.648 E8.37008
G1 F1209.1 X178.605 Y182.141 E8.39708
G1 F1212.1 X179.753 Y181.433 E8.42372
G1 F1215.2 X180.776 Y180.533 E8.45058
G1 F1218.3 X181.629 Y179.476 E8.47727
G1 X182.285 Y178.301 E8.50373
G1 F1221.4 X182.74 Y177.015 E8.53047
G1 F1218.3 X182.974 Y175.64 E8.55789
G1 F1209.1 X183 Y175 E8.57058
