;FLAVOR:Marlin
;TIME:14090
;Filament used: 11.1337m
;Layer height: 0.12
;MINX:115.027
;MINY:115.011
;MINZ:0.12
;MAXX:234.973
;MAXY:234.988
;MAXZ:6.2
;TARGET_MACHINE.NAME:Creality Ender-5 Plus
;Generated with Cura_SteamEngine 5.6.0
M140 S60
M105
M190 S60
M104 S210
M105
M109 S210
M82 ;absolute extrusion mode
M201 X500.00 Y500.00 Z100.00 E5000.00 ;Setup machine max acceleration
M203 X500.00 Y500.00 Z10.00 E50.00 ;Setup machine max feedrate
M204 P500.00 R1000.00 T500.00 ;Setup Print/Retract/Travel acceleration
M205 X8.00 Y8.00 Z0.40 E5.00 ;Setup Jerk
M220 S100 ;Reset Feedrate
M221 S100 ;Reset Flowrate

G28 ;Home
M420 S1 Z2 ;Enable ABL using saved Mesh and Fade Height

G92 E0 ;Reset Extruder
G1 Z2.0 F3000 ;Move Z Axis up
G1 X10.1 Y20 Z0.28 F5000.0 ;Move to start position
G1 X10.1 Y200.0 Z0.28 F1500.0 E15 ;Draw the first line
G1 X10.4 Y200.0 Z0.28 F5000.0 ;Move to side a little
G1 X10.4 Y20 Z0.28 F1500.0 E30 ;Draw the second line
G92 E0 ;Reset Extruder
G1 Z2.0 F3000 ;Move Z Axis up

G92 E0
G92 E0
G1 F1500 E-6.5
;LAYER_COUNT:50
;LAYER:0
M107
G1 F300 Z0.32
G0 F6000 X132.873 Y132.299 Z0.32
;TYPE:SKIRT
G1 F300 Z0.12
G1 F1500 E0
G1 F1200 X133.261 Y131.915 E0.01089
G1 X133.717 Y131.493 E0.02329
G1 X136.806 Y128.775 E0.1054
G1 X137.478 Y128.2 E0.12305
G1 X137.944 Y127.826 E0.13498
G1 X138.441 Y127.454 E0.14737
G1 X141.786 Y125.077 E0.22926
G1 X142.496 Y124.586 E0.24648
G1 X143.076 Y124.213 E0.26024
G1 X143.616 Y123.894 E0.27276
G1 X147.215 Y121.858 E0.35528
G1 X147.854 Y121.51 E0.3698
G1 X148.367 Y121.247 E0.3813
G1 X148.895 Y121.001 E0.39293
G1 X152.639 Y119.363 E0.47448
G1 X153.486 Y119.007 E0.49282
G1 X154.026 Y118.798 E0.50437
G1 X154.59 Y118.603 E0.51628
G1 X158.49 Y117.355 E0.598
G1 X159.373 Y117.087 E0.61641
G1 X159.94 Y116.932 E0.62814
G1 X160.494 Y116.803 E0.63949
G1 X164.676 Y115.928 E0.72476
G1 X165.412 Y115.786 E0.73972
G1 X165.985 Y115.692 E0.7513
G1 X166.592 Y115.615 E0.76351
G1 X170.712 Y115.188 E0.84617
G1 X171.939 Y115.088 E0.87074
G1 X172.657 Y115.056 E0.88508
G1 X174.05 Y115.02 E0.91289
G1 X175.364 Y115.011 E0.93911
G1 X177.296 Y115.056 E0.97768
G1 X178.397 Y115.11 E0.99968
G1 X179.169 Y115.176 E1.01514
G1 X183.129 Y115.588 E1.09459
G1 X183.844 Y115.671 E1.10896
G1 X184.443 Y115.76 E1.12104
G1 X185.035 Y115.868 E1.13305
G1 X189.169 Y116.733 E1.21734
G1 X189.93 Y116.904 E1.2329
G1 X190.463 Y117.041 E1.24388
G1 X191.066 Y117.216 E1.25641
G1 X194.954 Y118.455 E1.33785
G1 X195.8 Y118.737 E1.35564
G1 X196.46 Y118.984 E1.36971
G1 X197.149 Y119.27 E1.38459
G1 X200.661 Y120.806 E1.46109
G1 X201.479 Y121.177 E1.47901
G1 X202.121 Y121.496 E1.49332
G1 X202.781 Y121.855 E1.50831
G1 X206.255 Y123.823 E1.58799
G1 X206.881 Y124.189 E1.60246
G1 X207.354 Y124.483 E1.61358
G1 X207.847 Y124.816 E1.62545
G1 X211.216 Y127.209 E1.70792
G1 X211.917 Y127.722 E1.72525
G1 X212.396 Y128.094 E1.73735
G1 X212.874 Y128.495 E1.74981
G1 X215.922 Y131.173 E1.83077
G1 X216.569 Y131.756 E1.84815
G1 X217.059 Y132.227 E1.86172
G1 X217.545 Y132.73 E1.87568
G1 X220.232 Y135.635 E1.95464
G1 X220.807 Y136.274 E1.9718
G1 X221.172 Y136.702 E1.98302
G1 X221.558 Y137.191 E1.99546
G1 X224.034 Y140.486 E2.07771
G1 X224.538 Y141.178 E2.09479
G1 X224.86 Y141.646 E2.10613
G1 X225.201 Y142.18 E2.11877
G1 X227.384 Y145.813 E2.20335
G1 X227.768 Y146.474 E2.21861
G1 X228.063 Y147.019 E2.23098
G1 X228.323 Y147.547 E2.24272
G1 X230.127 Y151.399 E2.32761
G1 X230.416 Y152.042 E2.34167
G1 X230.628 Y152.549 E2.35264
G1 X230.853 Y153.142 E2.3653
G1 X232.206 Y157.025 E2.44736
G1 X232.484 Y157.861 E2.46494
G1 X232.689 Y158.557 E2.47942
G1 X232.861 Y159.237 E2.49341
G1 X233.793 Y163.183 E2.57433
G1 X233.943 Y163.867 E2.5883
G1 X234.055 Y164.461 E2.60037
G1 X234.146 Y165.052 E2.6123
G1 X234.69 Y169.259 E2.69695
G1 X234.773 Y169.964 E2.71112
G1 X234.826 Y170.583 E2.72352
G1 X234.856 Y171.216 E2.73616
G1 X234.966 Y175.468 E2.82104
G1 X234.973 Y176.152 E2.8347
G1 X234.958 Y176.826 E2.84815
G1 X234.916 Y177.572 E2.86306
G1 X234.601 Y181.598 E2.94365
G1 X234.535 Y182.314 E2.958
G1 X234.467 Y182.884 E2.96945
G1 X234.368 Y183.523 E2.98236
G1 X233.62 Y187.63 E3.06567
G1 X233.468 Y188.405 E3.08143
G1 X233.3 Y189.125 E3.09618
G1 X233.134 Y189.736 E3.10882
G1 X232.048 Y193.463 E3.18629
G1 X231.775 Y194.354 E3.20488
G1 X231.548 Y195.012 E3.21877
G1 X231.286 Y195.694 E3.23335
G1 X229.766 Y199.428 E3.31381
G1 X229.503 Y200.051 E3.3273
G1 X229.262 Y200.579 E3.33888
G1 X228.966 Y201.169 E3.35206
G1 X227.035 Y204.797 E3.43407
G1 X226.621 Y205.549 E3.4512
G1 X226.349 Y206.014 E3.46195
G1 X226.01 Y206.546 E3.47454
G1 X223.65 Y210.059 E3.559
G1 X223.202 Y210.705 E3.57469
G1 X222.837 Y211.198 E3.58693
G1 X222.495 Y211.625 E3.59785
G1 X219.898 Y214.741 E3.6788
G1 X219.285 Y215.457 E3.69761
G1 X218.878 Y215.906 E3.7097
G1 X218.459 Y216.332 E3.72162
G1 X215.482 Y219.237 E3.80463
G1 X214.916 Y219.775 E3.82021
G1 X214.419 Y220.218 E3.8335
G1 X213.983 Y220.579 E3.8448
G1 X210.749 Y223.141 E3.92713
G1 X210.078 Y223.658 E3.94404
G1 X209.593 Y224.01 E3.956
G1 X209.101 Y224.338 E3.9678
G1 X205.664 Y226.527 E4.04912
G1 X204.893 Y227.004 E4.06721
G1 X204.389 Y227.296 E4.07883
G1 X203.82 Y227.599 E4.0917
G1 X200.014 Y229.501 E4.17661
G1 X199.38 Y229.806 E4.19065
G1 X198.709 Y230.101 E4.20527
G1 X198.034 Y230.368 E4.21976
G1 X194.331 Y231.764 E4.29873
G1 X193.618 Y232.022 E4.31386
G1 X193.051 Y232.208 E4.32577
G1 X192.495 Y232.369 E4.33732
G1 X188.395 Y233.449 E4.42194
G1 X187.632 Y233.639 E4.43763
G1 X187.07 Y233.762 E4.44911
G1 X186.466 Y233.87 E4.46135
G1 X182.464 Y234.495 E4.54218
G1 X181.53 Y234.626 E4.56101
G1 X180.941 Y234.693 E4.57284
G1 X180.378 Y234.734 E4.5841
G1 X176.146 Y234.955 E4.66867
G1 X175.388 Y234.983 E4.68381
G1 X174.797 Y234.988 E4.6956
G1 X174.197 Y234.971 E4.70758
G1 X170.071 Y234.76 E4.79003
G1 X169.205 Y234.702 E4.80735
G1 X168.627 Y234.649 E4.81893
G1 X168.013 Y234.567 E4.83129
G1 X163.808 Y233.913 E4.91622
G1 X163.139 Y233.8 E4.92976
G1 X162.377 Y233.644 E4.94528
G1 X161.974 Y233.546 E4.95355
G1 X157.805 Y232.449 E5.03958
G1 X157.117 Y232.256 E5.05384
G1 X156.568 Y232.086 E5.06531
G1 X155.969 Y231.876 E5.07798
G1 X152.154 Y230.44 E5.15933
G1 X151.348 Y230.124 E5.1766
G1 X150.766 Y229.876 E5.18923
G1 X150.223 Y229.619 E5.20122
G1 X146.543 Y227.781 E5.28331
G1 X145.785 Y227.389 E5.30034
G1 X145.111 Y227.01 E5.31577
G1 X144.51 Y226.639 E5.32986
G1 X141.304 Y224.6 E5.40568
G1 X140.565 Y224.115 E5.42332
G1 X140.043 Y223.75 E5.43603
G1 X139.577 Y223.398 E5.44769
G1 X136.357 Y220.851 E5.52962
G1 X135.725 Y220.337 E5.54588
G1 X135.216 Y219.894 E5.55934
G1 X134.635 Y219.351 E5.57521
G1 X131.881 Y216.666 E5.65197
G1 X131.218 Y216.002 E5.67069
G1 X130.801 Y215.559 E5.68284
G1 X130.446 Y215.15 E5.69364
G1 X127.767 Y211.94 E5.77708
G1 X127.259 Y211.315 E5.79315
G1 X126.823 Y210.738 E5.80759
G1 X126.42 Y210.162 E5.82161
G1 X124.182 Y206.835 E5.90163
G1 X123.772 Y206.206 E5.91662
G1 X123.463 Y205.7 E5.92845
G1 X123.168 Y205.177 E5.94043
G1 X121.241 Y201.562 E6.02218
G1 X120.823 Y200.748 E6.04044
G1 X120.581 Y200.241 E6.05165
G1 X120.342 Y199.689 E6.06366
G1 X118.725 Y195.72 E6.14918
G1 X118.477 Y195.084 E6.16281
G1 X118.274 Y194.513 E6.1749
G1 X118.08 Y193.902 E6.18769
G1 X116.94 Y189.991 E6.26899
G1 X116.707 Y189.143 E6.28654
G1 X116.546 Y188.468 E6.30039
G1 X116.401 Y187.755 E6.31491
G1 X115.71 Y183.954 E6.392
G1 X115.565 Y183.086 E6.40957
G1 X115.472 Y182.393 E6.42352
G1 X115.404 Y181.704 E6.43734
G1 X115.089 Y177.609 E6.5193
G1 X115.047 Y176.956 E6.53236
G1 X115.027 Y176.355 E6.54436
G1 X115.028 Y175.731 E6.55681
G1 X115.137 Y171.434 E6.64259
G1 X115.168 Y170.73 E6.65665
G1 X115.206 Y170.172 E6.66781
G1 X115.273 Y169.533 E6.68063
G1 X115.823 Y165.284 E6.76613
G1 X115.922 Y164.61 E6.77973
G1 X116.026 Y164.017 E6.79174
G1 X116.147 Y163.448 E6.80335
G1 X117.078 Y159.49 E6.88449
G1 X117.307 Y158.585 E6.90312
G1 X117.453 Y158.065 E6.9139
G1 X117.657 Y157.423 E6.92734
G1 X118.994 Y153.578 E7.00858
G1 X119.289 Y152.765 E7.02584
G1 X119.522 Y152.178 E7.03845
G1 X119.754 Y151.657 E7.04983
G1 X121.553 Y147.808 E7.13461
G1 X121.869 Y147.157 E7.14905
G1 X122.156 Y146.607 E7.16143
G1 X122.443 Y146.104 E7.17299
G1 X124.558 Y142.58 E7.25501
G1 X125.021 Y141.83 E7.2726
G1 X125.371 Y141.302 E7.28524
G1 X125.689 Y140.859 E7.29612
G1 X128.123 Y137.612 E7.37711
G1 X128.691 Y136.875 E7.39567
G1 X129.122 Y136.352 E7.4092
G1 X129.574 Y135.845 E7.42275
G1 X132.375 Y132.821 E7.50501
G1 X132.873 Y132.299 E7.51941
G0 F6000 X133.155 Y132.583
G1 F1200 X133.533 Y132.208 E7.53003
G1 X133.981 Y131.793 E7.54222
G1 X137.066 Y129.079 E7.62422
G1 X137.729 Y128.512 E7.64163
G1 X138.184 Y128.146 E7.65328
G1 X138.673 Y127.78 E7.66547
G1 X142.013 Y125.406 E7.74724
G1 X142.713 Y124.922 E7.76423
G1 X143.28 Y124.557 E7.77768
G1 X143.813 Y124.242 E7.79004
G1 X147.407 Y122.209 E7.87244
G1 X148.036 Y121.866 E7.88674
G1 X148.536 Y121.61 E7.89795
G1 X149.064 Y121.364 E7.90957
G1 X152.794 Y119.732 E7.99082
G1 X153.631 Y119.38 E8.00894
G1 X154.157 Y119.176 E8.0202
G1 X154.712 Y118.984 E8.03192
G1 X158.606 Y117.738 E8.11351
G1 X159.479 Y117.473 E8.13172
G1 X160.031 Y117.322 E8.14314
G1 X160.576 Y117.195 E8.15431
G1 X164.752 Y116.321 E8.23945
G1 X165.477 Y116.181 E8.25418
G1 X166.036 Y116.089 E8.26549
G1 X166.633 Y116.013 E8.2775
G1 X170.745 Y115.587 E8.36
G1 X171.957 Y115.488 E8.38426
G1 X172.667 Y115.456 E8.39845
G1 X174.053 Y115.42 E8.42612
G1 X175.355 Y115.411 E8.4521
G1 X177.277 Y115.456 E8.49047
G1 X178.363 Y115.509 E8.51216
G1 X179.128 Y115.574 E8.52749
G1 X183.083 Y115.985 E8.60684
G1 X183.786 Y116.067 E8.62096
G1 X184.371 Y116.153 E8.63276
G1 X184.953 Y116.26 E8.64457
G1 X189.081 Y117.123 E8.72873
G1 X189.831 Y117.292 E8.74407
G1 X190.352 Y117.425 E8.7548
G1 X190.945 Y117.597 E8.76712
G1 X194.827 Y118.834 E8.84843
G1 X195.66 Y119.112 E8.86596
G1 X196.32 Y119.359 E8.88002
G1 X196.989 Y119.637 E8.89448
G1 X200.496 Y121.17 E8.97086
G1 X201.301 Y121.535 E8.9885
G1 X201.93 Y121.848 E9.00252
G1 X202.584 Y122.203 E9.01737
G1 X206.053 Y124.168 E9.09693
G1 X206.67 Y124.529 E9.11119
G1 X207.13 Y124.814 E9.12199
G1 X207.615 Y125.142 E9.13368
G1 X210.98 Y127.532 E9.21604
G1 X211.672 Y128.038 E9.23315
G1 X212.139 Y128.4 E9.24494
G1 X212.61 Y128.796 E9.25722
G1 X215.654 Y131.47 E9.33808
G1 X216.292 Y132.045 E9.35522
G1 X216.771 Y132.505 E9.36847
G1 X217.251 Y133.002 E9.38226
G1 X219.935 Y135.903 E9.46113
G1 X220.503 Y136.534 E9.47807
G1 X220.858 Y136.95 E9.48899
G1 X221.238 Y137.431 E9.50122
G1 X223.711 Y140.722 E9.58337
G1 X224.209 Y141.405 E9.60024
G1 X224.523 Y141.861 E9.61129
G1 X224.858 Y142.386 E9.62372
G1 X227.038 Y146.014 E9.70818
G1 X227.416 Y146.664 E9.72319
G1 X227.704 Y147.196 E9.73526
G1 X227.961 Y147.717 E9.74685
G1 X229.762 Y151.563 E9.8316
G1 X230.047 Y152.196 E9.84546
G1 X230.254 Y152.691 E9.85616
G1 X230.475 Y153.274 E9.86861
G1 X231.826 Y157.151 E9.95054
G1 X232.1 Y157.974 E9.96785
G1 X232.301 Y158.656 E9.98204
G1 X232.472 Y159.329 E9.99589
G1 X233.402 Y163.269 E10.07668
G1 X233.55 Y163.942 E10.09043
G1 X233.66 Y164.522 E10.10221
G1 X233.749 Y165.103 E10.11394
G1 X234.293 Y169.305 E10.1985
G1 X234.374 Y169.998 E10.21242
G1 X234.426 Y170.602 E10.22452
G1 X234.456 Y171.226 E10.23699
G1 X234.566 Y175.472 E10.32175
G1 X234.573 Y176.144 E10.33516
G1 X234.559 Y176.803 E10.34832
G1 X234.517 Y177.541 E10.36307
G1 X234.203 Y181.561 E10.44353
G1 X234.138 Y182.267 E10.45768
G1 X234.072 Y182.822 E10.46884
G1 X233.974 Y183.451 E10.48154
G1 X233.227 Y187.553 E10.56475
G1 X233.078 Y188.314 E10.58022
G1 X232.914 Y189.02 E10.59469
G1 X232.75 Y189.624 E10.60718
G1 X231.666 Y193.346 E10.68454
G1 X231.397 Y194.224 E10.70286
G1 X231.175 Y194.869 E10.71648
G1 X230.916 Y195.543 E10.73089
G1 X229.398 Y199.272 E10.81123
G1 X229.139 Y199.885 E10.82451
G1 X228.904 Y200.4 E10.83581
G1 X228.613 Y200.981 E10.84878
G1 X226.685 Y204.604 E10.93068
G1 X226.276 Y205.347 E10.9476
G1 X226.012 Y205.799 E10.95805
G1 X225.678 Y206.323 E10.97045
G1 X223.321 Y209.831 E11.05479
G1 X222.88 Y210.467 E11.07023
G1 X222.524 Y210.948 E11.08218
G1 X222.188 Y211.369 E11.09293
G1 X219.594 Y214.481 E11.17377
G1 X218.989 Y215.188 E11.19234
G1 X218.592 Y215.626 E11.20414
G1 X218.18 Y216.046 E11.21588
G1 X215.206 Y218.947 E11.29879
G1 X214.64 Y219.485 E11.31437
G1 X214.164 Y219.91 E11.32711
G1 X213.735 Y220.265 E11.33822
G1 X210.505 Y222.824 E11.42046
G1 X209.843 Y223.334 E11.43713
G1 X209.371 Y223.677 E11.44878
G1 X208.886 Y224.001 E11.46042
G1 X205.453 Y226.187 E11.54164
G1 X204.692 Y226.658 E11.5595
G1 X204.201 Y226.943 E11.57083
G1 X203.641 Y227.241 E11.58348
G1 X199.84 Y229.141 E11.66829
G1 X199.219 Y229.44 E11.68204
G1 X198.562 Y229.729 E11.69636
G1 X197.893 Y229.994 E11.71072
G1 X194.195 Y231.388 E11.78959
G1 X193.493 Y231.642 E11.80449
G1 X192.94 Y231.824 E11.81611
G1 X192.393 Y231.982 E11.82747
G1 X188.299 Y233.061 E11.91196
G1 X187.546 Y233.248 E11.92744
G1 X186.999 Y233.368 E11.93862
G1 X186.404 Y233.475 E11.95068
G1 X182.408 Y234.099 E12.03139
G1 X181.485 Y234.229 E12.05
G1 X180.911 Y234.294 E12.06152
G1 X180.357 Y234.335 E12.07261
G1 X176.131 Y234.555 E12.15706
G1 X175.385 Y234.583 E12.17196
G1 X174.808 Y234.588 E12.18347
G1 X174.217 Y234.572 E12.19527
G1 X170.098 Y234.361 E12.27758
G1 X169.242 Y234.304 E12.2947
G1 X168.679 Y234.252 E12.30598
G1 X168.074 Y234.172 E12.31816
G1 X163.875 Y233.519 E12.40296
G1 X163.219 Y233.408 E12.41624
G1 X162.471 Y233.255 E12.43147
G1 X162.076 Y233.159 E12.43959
G1 X157.913 Y232.064 E12.52549
G1 X157.235 Y231.874 E12.53954
G1 X156.7 Y231.709 E12.55071
G1 X156.11 Y231.502 E12.56319
G1 X152.3 Y230.067 E12.64444
G1 X151.505 Y229.756 E12.66147
G1 X150.937 Y229.514 E12.67379
G1 X150.402 Y229.261 E12.6856
G1 X146.727 Y227.426 E12.76758
G1 X145.981 Y227.04 E12.78434
G1 X145.321 Y226.669 E12.79945
G1 X144.725 Y226.302 E12.81342
G1 X141.523 Y224.265 E12.88915
G1 X140.794 Y223.787 E12.90655
G1 X140.284 Y223.431 E12.91896
G1 X139.825 Y223.084 E12.93044
G1 X136.609 Y220.541 E13.01226
G1 X135.987 Y220.035 E13.02826
G1 X135.489 Y219.602 E13.04143
G1 X134.914 Y219.065 E13.05713
G1 X132.164 Y216.384 E13.13378
G1 X131.509 Y215.727 E13.15229
G1 X131.103 Y215.297 E13.16409
G1 X130.753 Y214.894 E13.17474
G1 X128.077 Y211.688 E13.25808
G1 X127.578 Y211.074 E13.27387
G1 X127.151 Y210.509 E13.288
G1 X126.752 Y209.939 E13.30189
G1 X124.517 Y206.617 E13.38179
G1 X124.113 Y205.997 E13.39656
G1 X123.811 Y205.503 E13.40811
G1 X123.521 Y204.989 E13.41989
G1 X121.597 Y201.379 E13.50152
G1 X121.184 Y200.575 E13.51956
G1 X120.948 Y200.082 E13.53047
G1 X120.712 Y199.538 E13.5423
G1 X119.098 Y195.575 E13.62769
G1 X118.854 Y194.95 E13.64108
G1 X118.655 Y194.392 E13.65291
G1 X118.464 Y193.79 E13.66551
G1 X117.326 Y189.885 E13.74668
G1 X117.096 Y189.05 E13.76396
G1 X116.938 Y188.388 E13.77755
G1 X116.795 Y187.683 E13.7919
G1 X116.104 Y183.882 E13.869
G1 X115.961 Y183.033 E13.88618
G1 X115.87 Y182.354 E13.89985
G1 X115.803 Y181.673 E13.91351
G1 X115.488 Y177.584 E13.99535
G1 X115.447 Y176.942 E14.00819
G1 X115.427 Y176.356 E14.01989
G1 X115.428 Y175.741 E14.03216
G1 X115.537 Y171.451 E14.1178
G1 X115.567 Y170.757 E14.13166
G1 X115.604 Y170.214 E14.14252
G1 X115.67 Y169.584 E14.15517
G1 X116.219 Y165.342 E14.24052
G1 X116.316 Y164.679 E14.2539
G1 X116.417 Y164.1 E14.26563
G1 X116.536 Y163.54 E14.27705
G1 X117.466 Y159.588 E14.35807
G1 X117.692 Y158.693 E14.37649
G1 X117.834 Y158.186 E14.387
G1 X118.035 Y157.554 E14.40023
G1 X119.37 Y153.714 E14.48136
G1 X119.661 Y152.912 E14.49839
G1 X119.887 Y152.341 E14.51065
G1 X120.116 Y151.826 E14.52189
G1 X121.913 Y147.983 E14.60655
G1 X122.224 Y147.342 E14.62077
G1 X122.511 Y146.792 E14.63315
G1 X122.786 Y146.31 E14.64423
G1 X124.898 Y142.79 E14.72615
G1 X125.354 Y142.051 E14.74348
G1 X125.696 Y141.535 E14.75583
G1 X126.009 Y141.099 E14.76654
G1 X128.44 Y137.856 E14.84742
G1 X129 Y137.129 E14.86574
G1 X129.421 Y136.618 E14.87895
G1 X129.867 Y136.117 E14.89233
G1 X132.665 Y133.097 E14.97449
G1 X133.155 Y132.583 E14.98866
G0 F6000 X133.437 Y132.867
G1 F1200 X133.805 Y132.501 E14.99902
G1 X134.245 Y132.093 E15.011
G1 X137.326 Y129.383 E15.09288
G1 X137.98 Y128.823 E15.11006
G1 X138.423 Y128.466 E15.12142
