;FLAVOR:Marlin
;TIME:5350
;Filament used: 2.62944m
;Layer height: 0.12
;MINX:160.893
;MINY:110.349
;MINZ:0.12
;MAXX:189.105
;MAXY:238.878
;MAXZ:12.2
;TARGET_MACHINE.NAME:Creality Ender-5 Plus
;Generated with Cura_SteamEngine 5.6.0
M140 S60
M105
M190 S60
M104 S210
M105
M109 S210
M82 ;absolute extrusion mode
M201 X500.00 Y500.00 Z100.00 E5000.00 ;Setup machine max acceleration
M203 X500.00 Y500.00 Z10.00 E50.00 ;Setup machine max feedrate
M204 P500.00 R1000.00 T500.00 ;Setup Print/Retract/Travel acceleration
M205 X8.00 Y8.00 Z0.40 E5.00 ;Setup Jerk
M220 S100 ;Reset Feedrate
M221 S100 ;Reset Flowrate

G28 ;Home
M420 S1 Z2 ;Enable ABL using saved Mesh and Fade Height

G92 E0 ;Reset Extruder
G1 Z2.0 F3000 ;Move Z Axis up
G1 X10.1 Y20 Z0.28 F5000.0 ;Move to start position
G1 X10.1 Y200.0 Z0.28 F1500.0 E15 ;Draw the first line
G1 X10.4 Y200.0 Z0.28 F5000.0 ;Move to side a little
G1 X10.4 Y20 Z0.28 F1500.0 E30 ;Draw the second line
G92 E0 ;Reset Extruder
G1 Z2.0 F3000 ;Move Z Axis up

G92 E0
G92 E0
G1 F1500 E-6.5
;LAYER_COUNT:100
;LAYER:0
M107
G1 F300 Z0.32
G0 F6000 X163.195 Y115.141 Z0.32
;TYPE:SKIRT
G1 F300 Z0.12
G1 F1500 E0
G1 F1200 X164.064 Y114.105 E0.02698
G1 X164.313 Y113.844 E0.03418
G1 X165.003 Y113.182 E0.05327
G1 X165.792 Y112.551 E0.07343
G1 X166.603 Y112.014 E0.09284
G1 X167.458 Y111.549 E0.11226
G1 X168.286 Y111.187 E0.13029
G1 X169.261 Y110.86 E0.15082
G1 X169.615 Y110.761 E0.15815
G1 X170.563 Y110.539 E0.17758
G1 X171.535 Y110.401 E0.19717
G1 X172.686 Y110.35 E0.22017
G1 X175.399 Y110.374 E0.27431
G1 X176.447 Y110.354 E0.29523
G1 X177.344 Y110.349 E0.31313
G1 X178.315 Y110.39 E0.33252
G1 X179.28 Y110.516 E0.35194
G1 X180.171 Y110.711 E0.37015
G1 X180.566 Y110.816 E0.3783
G1 X181.495 Y111.108 E0.39773
G1 X182.394 Y111.482 E0.41717
G1 X183.227 Y111.916 E0.43591
G1 X184.078 Y112.46 E0.45607
G1 X184.852 Y113.06 E0.47561
G1 X185.672 Y113.831 E0.49807
G1 X185.945 Y114.118 E0.50598
G1 X186.583 Y114.853 E0.5254
G1 X187.135 Y115.613 E0.54414
G1 X187.653 Y116.478 E0.56426
G1 X188.048 Y117.29 E0.58228
G1 X188.522 Y118.596 E0.61001
G1 X188.621 Y118.936 E0.61708
G1 X188.844 Y119.848 E0.63581
G1 X188.997 Y120.86 E0.65624
G1 X189.055 Y122.127 E0.68155
G1 X189.032 Y123.596 E0.71087
G1 X189.023 Y126.436 E0.76754
G1 X189.028 Y127.397 E0.78672
G1 X189.105 Y130.391 E0.84649
G1 X189.098 Y131.137 E0.86138
G1 X189.047 Y132.275 E0.88411
G1 X188.965 Y134.904 E0.9366
G1 X188.952 Y136.464 E0.96773
G1 X188.953 Y197.578 E2.18733
G1 X188.989 Y200.114 E2.23794
G1 X189.051 Y201.448 E2.26459
G1 X189.052 Y201.664 E2.2689
G1 X189.101 Y202.94 E2.29439
G1 X189.105 Y203.649 E2.30854
G1 X189.045 Y205.855 E2.35257
G1 X189.038 Y208.479 E2.40494
G1 X189.056 Y209.897 E2.43324
G1 X189.004 Y211.069 E2.45665
G1 X188.889 Y212.215 E2.47964
G1 X188.662 Y214.801 E2.53144
G1 X188.518 Y217.286 E2.58111
G1 X188.441 Y219.814 E2.63159
G1 X188.438 Y221.279 E2.66082
G1 X188.424 Y222.141 E2.67803
G1 X188.339 Y223.328 E2.70178
G1 X188.19 Y224.478 E2.72492
G1 X187.901 Y226.979 E2.77516
G1 X187.745 Y227.931 E2.79441
G1 X187.542 Y228.769 E2.81162
G1 X187.4 Y229.264 E2.82189
G1 X187.175 Y229.993 E2.83712
G1 X186.871 Y230.844 E2.85515
G1 X186.431 Y231.792 E2.87601
G1 X185.944 Y232.634 E2.89542
G1 X185.402 Y233.407 E2.91426
G1 X184.621 Y234.317 E2.93819
G1 X184.04 Y234.921 E2.95492
G1 X183.493 Y235.462 E2.97027
G1 X182.765 Y236.107 E2.98968
G1 X181.982 Y236.687 E3.00913
G1 X181.152 Y237.194 E3.02854
G1 X180.344 Y237.598 E3.04656
G1 X178.948 Y238.114 E3.07626
G1 X178.054 Y238.375 E3.09485
G1 X177.52 Y238.516 E3.10587
G1 X176.568 Y238.722 E3.12531
G1 X175.602 Y238.843 E3.14474
G1 X174.629 Y238.878 E3.16417
G1 X173.727 Y238.833 E3.18219
G1 X172.696 Y238.689 E3.20296
G1 X171.893 Y238.509 E3.21939
G1 X171.067 Y238.28 E3.23649
G1 X170.388 Y238.071 E3.25067
G1 X169.474 Y237.742 E3.27006
G1 X168.653 Y237.365 E3.28808
G1 X167.745 Y236.844 E3.30898
G1 X166.973 Y236.304 E3.32778
G1 X166.031 Y235.497 E3.35253
G1 X165.388 Y234.871 E3.37044
G1 X164.91 Y234.379 E3.38413
G1 X164.254 Y233.636 E3.40391
G1 X163.675 Y232.851 E3.42337
G1 X163.169 Y232.02 E3.44279
G1 X162.735 Y231.14 E3.46237
G1 X162.337 Y230.09 E3.48478
G1 X162.055 Y229.181 E3.50377
G1 X161.877 Y228.528 E3.51728
G1 X161.665 Y227.579 E3.53668
G1 X161.534 Y226.596 E3.55647
G1 X161.5 Y225.22 E3.58394
G1 X161.583 Y222.172 E3.64479
G1 X161.574 Y219.558 E3.69696
G1 X161.498 Y217.069 E3.74665
G1 X161.35 Y214.528 E3.79744
G1 X161.11 Y211.808 E3.85194
G1 X161.037 Y211.082 E3.8665
G1 X160.984 Y210.222 E3.88369
G1 X160.938 Y207.929 E3.92946
G1 X160.924 Y205.177 E3.98438
G1 X160.893 Y203.521 E4.01743
G1 X160.899 Y202.898 E4.02987
G1 X160.976 Y201.176 E4.06426
G1 X161.048 Y197.532 E4.137
G1 X161.047 Y136.43 E5.35636
G1 X161.01 Y133.809 E5.40867
G1 X160.901 Y131.148 E5.46181
G1 X160.894 Y130.378 E5.47718
G1 X160.975 Y127.302 E5.53859
G1 X160.966 Y124.828 E5.58796
G1 X160.946 Y123.561 E5.61324
G1 X160.959 Y123.117 E5.62211
G1 X160.943 Y122.149 E5.64143
G1 X160.975 Y121.176 E5.66086
G1 X161.086 Y120.24 E5.67967
G1 X161.366 Y118.981 E5.70541
G1 X161.457 Y118.663 E5.71201
G1 X161.781 Y117.705 E5.73219
G1 X162.173 Y116.815 E5.7516
G1 X162.643 Y115.961 E5.77105
G1 X163.195 Y115.141 E5.79077
G0 F6000 X163.502 Y115.398
G1 F1200 X164.354 Y114.381 E5.81725
G1 X164.59 Y114.133 E5.82408
G1 X165.28 Y113.471 E5.84316
G1 X166.013 Y112.884 E5.86191
G1 X166.794 Y112.365 E5.88062
G1 X167.618 Y111.916 E5.89934
G1 X168.446 Y111.554 E5.91738
G1 X169.37 Y111.245 E5.93682
G1 X169.707 Y111.15 E5.94381
G1 X170.62 Y110.935 E5.96253
G1 X171.553 Y110.801 E5.98134
G1 X172.682 Y110.75 E6.00389
G1 X175.403 Y110.774 E6.05819
G1 X176.449 Y110.754 E6.07907
G1 X177.328 Y110.749 E6.09661
G1 X178.264 Y110.787 E6.11531
G1 X179.195 Y110.907 E6.13404
G1 X180.069 Y111.098 E6.15189
G1 X180.447 Y111.198 E6.1597
G1 X181.342 Y111.478 E6.17841
G1 X182.209 Y111.837 E6.19714
G1 X183.042 Y112.271 E6.21588
G1 X183.833 Y112.776 E6.23461
G1 X184.578 Y113.352 E6.2534
G1 X185.382 Y114.107 E6.27541
G1 X185.643 Y114.381 E6.28296
G1 X186.259 Y115.088 E6.30168
G1 X186.811 Y115.848 E6.32042
G1 X187.293 Y116.653 E6.33915
G1 X187.688 Y117.465 E6.35717
G1 X188.138 Y118.707 E6.38353
G1 X188.232 Y119.031 E6.39026
G1 X188.455 Y119.943 E6.409
G1 X188.597 Y120.878 E6.42787
G1 X188.655 Y122.145 E6.45318
G1 X188.632 Y123.59 E6.48202
G1 X188.623 Y126.435 E6.5388
G1 X188.628 Y127.407 E6.55819
G1 X188.705 Y130.387 E6.61768
G1 X188.698 Y131.119 E6.63229
G1 X188.647 Y132.257 E6.65502
G1 X188.565 Y134.892 E6.70763
G1 X188.552 Y136.461 E6.73895
G1 X188.553 Y197.578 E7.9586
G1 X188.589 Y200.133 E8.00959
G1 X188.651 Y201.45 E8.03591
G1 X188.652 Y201.68 E8.0405
G1 X188.701 Y202.942 E8.0657
G1 X188.705 Y203.638 E8.07959
G1 X188.645 Y205.844 E8.12363
G1 X188.638 Y208.478 E8.17619
G1 X188.656 Y209.879 E8.20415
G1 X188.604 Y211.051 E8.22757
G1 X188.491 Y212.175 E8.25011
G1 X188.264 Y214.766 E8.30201
G1 X188.118 Y217.274 E8.35215
G1 X188.041 Y219.802 E8.40262
G1 X188.038 Y221.273 E8.43198
G1 X188.025 Y222.113 E8.44874
G1 X187.942 Y223.277 E8.47203
G1 X187.794 Y224.427 E8.49517
G1 X187.506 Y226.915 E8.54515
G1 X187.356 Y227.837 E8.56379
G1 X187.157 Y228.659 E8.58067
G1 X187.018 Y229.146 E8.59078
G1 X186.798 Y229.858 E8.60565
G1 X186.494 Y230.709 E8.62368
G1 X186.085 Y231.592 E8.6431
G1 X185.616 Y232.405 E8.66183
G1 X185.098 Y233.146 E8.67987
G1 X184.317 Y234.056 E8.7038
G1 X183.758 Y234.637 E8.71989
G1 X183.227 Y235.163 E8.73481
G1 X182.526 Y235.786 E8.75352
G1 X181.773 Y236.346 E8.77225
G1 X180.973 Y236.836 E8.79097
G1 X180.165 Y237.24 E8.809
G1 X178.836 Y237.73 E8.83727
G1 X177.951 Y237.988 E8.85566
G1 X177.435 Y238.125 E8.86632
G1 X176.518 Y238.325 E8.88505
G1 X175.587 Y238.443 E8.90378
G1 X174.649 Y238.478 E8.92251
G1 X173.747 Y238.433 E8.94053
G1 X172.784 Y238.299 E8.95993
G1 X171.999 Y238.123 E8.97599
G1 X171.184 Y237.898 E8.99286
G1 X170.523 Y237.695 E9.00666
G1 X169.641 Y237.378 E9.02536
G1 X168.82 Y237.001 E9.04339
G1 X167.974 Y236.516 E9.06285
G1 X167.202 Y235.976 E9.08165
G1 X166.31 Y235.21 E9.10512
G1 X165.675 Y234.592 E9.1228
G1 X165.197 Y234.1 E9.13649
G1 X164.575 Y233.398 E9.15521
G1 X164.016 Y232.643 E9.17395
G1 X163.527 Y231.842 E9.19268
G1 X163.109 Y230.998 E9.21148
G1 X162.711 Y229.948 E9.23389
G1 X162.441 Y229.075 E9.25212
G1 X162.267 Y228.44 E9.26526
G1 X162.061 Y227.525 E9.28398
G1 X161.934 Y226.586 E9.30289
G1 X161.9 Y225.231 E9.32994
G1 X161.983 Y222.183 E9.39078
G1 X161.974 Y219.557 E9.44319
G1 X161.898 Y217.057 E9.4931
G1 X161.749 Y214.505 E9.54412
G1 X161.508 Y211.768 E9.59895
G1 X161.436 Y211.057 E9.61321
G1 X161.384 Y210.214 E9.63006
G1 X161.338 Y207.927 E9.67571
G1 X161.324 Y205.175 E9.73063
G1 X161.293 Y203.525 E9.76357
G1 X161.299 Y202.916 E9.77572
G1 X161.376 Y201.194 E9.81012
G1 X161.448 Y197.54 E9.88305
G1 X161.447 Y136.43 E11.10257
G1 X161.41 Y133.803 E11.155
G1 X161.301 Y131.144 E11.20811
G1 X161.294 Y130.389 E11.22317
G1 X161.375 Y127.313 E11.28458
G1 X161.366 Y124.827 E11.33419
G1 X161.346 Y123.573 E11.35922
G1 X161.359 Y123.129 E11.36808
G1 X161.343 Y122.161 E11.3874
G1 X161.372 Y121.223 E11.40613
G1 X161.477 Y120.327 E11.42413
G1 X161.751 Y119.091 E11.4494
G1 X161.842 Y118.773 E11.456
G1 X162.147 Y117.866 E11.4751
G1 X162.524 Y117.007 E11.49382
G1 X162.975 Y116.184 E11.51254
G1 X163.502 Y115.398 E11.53143
G0 F6000 X163.809 Y115.655
G1 F1200 X164.644 Y114.657 E11.5574
G1 X164.88 Y114.409 E11.56423
G1 X165.531 Y113.783 E11.58225
G1 X166.235 Y113.217 E11.60028
G1 X166.986 Y112.716 E11.6183
G1 X167.778 Y112.283 E11.63631
G1 X168.606 Y111.921 E11.65434
G1 X169.479 Y111.63 E11.67271
G1 X169.799 Y111.539 E11.67935
G1 X170.678 Y111.331 E11.69737
G1 X171.571 Y111.201 E11.71538
G1 X172.678 Y111.15 E11.73749
G1 X175.407 Y111.174 E11.79196
G1 X176.451 Y111.154 E11.81279
G1 X177.312 Y111.149 E11.82998
G1 X178.214 Y111.184 E11.84799
G1 X179.11 Y111.298 E11.86602
G1 X179.967 Y111.485 E11.88352
G1 X180.328 Y111.58 E11.89097
G1 X181.19 Y111.848 E11.90898
G1 X182.025 Y112.192 E11.92701
G1 X182.827 Y112.608 E11.94504
G1 X183.589 Y113.093 E11.96306
G1 X184.304 Y113.644 E11.98108
G1 X185.108 Y114.399 E12.00309
G1 X185.342 Y114.644 E12.00985
G1 X185.936 Y115.324 E12.02786
G1 X186.468 Y116.054 E12.04589
G1 X186.933 Y116.828 E12.06391
G1 X187.328 Y117.64 E12.08193
G1 X187.754 Y118.82 E12.10697
G1 X187.844 Y119.127 E12.11335
G1 X188.06 Y120.004 E12.13137
G1 X188.197 Y120.896 E12.14938
G1 X188.255 Y122.163 E12.17469
G1 X188.232 Y123.584 E12.20306
G1 X188.223 Y126.434 E12.25993
G1 X188.228 Y127.417 E12.27955
G1 X188.305 Y130.383 E12.33876
G1 X188.298 Y131.101 E12.35309
G1 X188.247 Y132.239 E12.37582
G1 X188.165 Y134.88 E12.42855
G1 X188.152 Y136.458 E12.46004
G1 X188.153 Y197.578 E13.67976
G1 X188.189 Y200.152 E13.73113
G1 X188.251 Y201.452 E13.7571
G1 X188.252 Y201.696 E13.76197
G1 X188.301 Y202.944 E13.78689
G1 X188.305 Y203.627 E13.80053
G1 X188.245 Y205.833 E13.84456
G1 X188.238 Y208.477 E13.89733
G1 X188.256 Y209.862 E13.92497
G1 X188.206 Y211.011 E13.94792
G1 X188.093 Y212.135 E13.97047
G1 X187.866 Y214.731 E14.02247
G1 X187.718 Y217.262 E14.07306
G1 X187.641 Y219.79 E14.12354
G1 X187.638 Y221.267 E14.15301
G1 X187.626 Y222.085 E14.16934
G1 X187.545 Y223.226 E14.19216
G1 X187.398 Y224.376 E14.2153
G1 X187.111 Y226.851 E14.26502
G1 X186.967 Y227.743 E14.28305
G1 X186.772 Y228.55 E14.29962
G1 X186.636 Y229.028 E14.30954
G1 X186.421 Y229.723 E14.32406
G1 X186.117 Y230.574 E14.34209
G1 X185.738 Y231.393 E14.3601
G1 X185.288 Y232.176 E14.37812
G1 X184.77 Y232.917 E14.39617
G1 X184.029 Y233.779 E14.41885
G1 X183.477 Y234.353 E14.43474
G1 X182.961 Y234.864 E14.44923
G1 X182.287 Y235.465 E14.46726
G1 X181.563 Y236.005 E14.48528
G1 X180.794 Y236.478 E14.5033
G1 X179.986 Y236.882 E14.52132
G1 X178.724 Y237.346 E14.54816
G1 X177.848 Y237.601 E14.56636
G1 X177.349 Y237.734 E14.57667
G1 X176.467 Y237.928 E14.59469
G1 X175.571 Y238.043 E14.61272
G1 X174.669 Y238.078 E14.63073
G1 X173.767 Y238.033 E14.64876
G1 X172.872 Y237.909 E14.66679
G1 X172.105 Y237.737 E14.68247
G1 X171.302 Y237.516 E14.69909
G1 X170.658 Y237.318 E14.71254
G1 X169.808 Y237.014 E14.73055
G1 X168.987 Y236.637 E14.74858
G1 X168.203 Y236.188 E14.76661
G1 X167.462 Y235.672 E14.78463
G1 X166.589 Y234.923 E14.80759
G1 X165.962 Y234.313 E14.82504
G1 X165.496 Y233.834 E14.83838
G1 X164.896 Y233.159 E14.8564
G1 X164.357 Y232.434 E14.87443
G1 X163.885 Y231.664 E14.89246
G1 X163.483 Y230.856 E14.91047
G1 X163.085 Y229.806 E14.93287
G1 X162.827 Y228.969 E14.95035
G1 X162.657 Y228.351 E14.96314
G1 X162.457 Y227.471 E14.98115
G1 X162.334 Y226.576 E14.99918
G1 X162.3 Y225.242 E15.02581
G1 X162.383 Y222.194 E15.08666
G1 X162.374 Y219.556 E15.1393
G1 X162.298 Y217.045 E15.18944
G1 X162.148 Y214.482 E15.24067
G1 X161.906 Y211.727 E15.29586
G1 X161.835 Y211.032 E15.3098
G1 X161.784 Y210.206 E15.32632
G1 X161.738 Y207.925 E15.37185
G1 X161.724 Y205.173 E15.42677
G1 X161.693 Y203.529 E15.45958
G1 X161.699 Y202.934 E15.47146
G1 X161.776 Y201.212 E15.50586
G1 X161.848 Y197.548 E15.57899
G1 X161.847 Y136.43 E16.79866
G1 X161.81 Y133.797 E16.85121
G1 X161.701 Y131.14 E16.90428
G1 X161.694 Y130.4 E16.91905
G1 X161.775 Y127.324 E16.98046
G1 X161.766 Y124.826 E17.03031
G1 X161.746 Y123.585 E17.05508
G1 X161.759 Y123.141 E17.06394
G1 X161.743 Y122.173 E17.08326
G1 X161.769 Y121.27 E17.10129
G1 X161.874 Y120.374 E17.11929
G1 X162.136 Y119.201 E17.14328
G1 X162.227 Y118.883 E17.14988
G1 X162.513 Y118.026 E17.16791
G1 X162.875 Y117.199 E17.18592
G1 X163.308 Y116.406 E17.20395
G1 X163.809 Y115.655 E17.22197
G1 F1500 E10.72197
G1 F300 Z0.32
G0 F6000 X172.202 Y121.787 Z0.32
G1 F300 Z0.12
G1 F1500 E17.22197
G1 F1200 X172.37 Y121.61 E17.22684
G1 X172.594 Y121.547 E17.23148
G1 X172.819 Y121.61 E17.23614
G1 X172.984 Y121.786 E17.24096
G1 X173.011 Y121.875 E17.24282
G1 X173.057 Y121.954 E17.24464
G1 X173.115 Y122.016 E17.24633
G1 X173.169 Y122.199 E17.25014
G1 X173.113 Y122.411 E17.25452
G1 X172.985 Y122.547 E17.25824
G1 X172.815 Y122.598 E17.26179
G1 X172.654 Y122.548 E17.26515
G1 X172.592 Y122.482 E17.26696
G1 X172.504 Y122.428 E17.26902
G1 X172.383 Y122.392 E17.27154
G1 X172.202 Y122.211 E17.27665
G1 X172.14 Y122 E17.28103
G1 X172.202 Y121.787 E17.28546
G0 F6000 X172.56 Y121.99
G1 F1200 X172.584 Y121.965 E17.28615
G1 X172.594 Y121.962 E17.28636
G1 X172.604 Y121.965 E17.28657
G1 X172.629 Y121.992 E17.2873
G1 X172.682 Y122.084 E17.28942
G1 X172.619 Y122.045 E17.2909
G1 X172.594 Y122.037 E17.29143
G1 X172.558 Y122.002 E17.29243
G1 X172.56 Y121.99 E17.29267
G0 F6000 X172.634 Y123.379
G1 F1200 X172.857 Y123.442 E17.29729
G1 X173.073 Y123.669 E17.30355
G1 X173.164 Y123.985 E17.31011
G1 X173.115 Y124.161 E17.31376
G1 X172.988 Y124.288 E17.31734
G1 X172.816 Y124.335 E17.3209
G1 X172.42 Y124.222 E17.32912
G1 X172.242 Y124.044 E17.33414
G1 X172.179 Y123.832 E17.33855
G1 X172.241 Y123.619 E17.34298
G1 X172.409 Y123.442 E17.34785
G1 X172.634 Y123.379 E17.35251
G0 F6000 X172.633 Y123.795
G1 F1200 X172.644 Y123.798 E17.35274
G1 X172.716 Y123.874 E17.35483
G1 X172.721 Y123.892 E17.3552
G1 X172.629 Y123.865 E17.35712
G1 X172.597 Y123.833 E17.35802
G1 X172.599 Y123.823 E17.35822
G1 X172.623 Y123.798 E17.35891
G1 X172.633 Y123.795 E17.35912
G0 F6000 X172.634 Y125.112
G1 F1200 X172.857 Y125.175 E17.36375
G1 X173.073 Y125.402 E17.37
G1 X173.164 Y125.718 E17.37656
G1 X173.115 Y125.894 E17.38021
G1 X172.988 Y126.021 E17.38379
G1 X172.816 Y126.068 E17.38735
G1 X172.42 Y125.955 E17.39557
G1 X172.242 Y125.777 E17.40059
G1 X172.179 Y125.565 E17.40501
G1 X172.241 Y125.352 E17.40943
G1 X172.409 Y125.175 E17.4143
G1 X172.634 Y125.112 E17.41897
G0 F6000 X172.633 Y125.528
G1 F1200 X172.644 Y125.531 E17.41919
G1 X172.716 Y125.607 E17.42128
G1 X172.721 Y125.625 E17.42166
G1 X172.629 Y125.598 E17.42357
G1 X172.597 Y125.566 E17.42447
G1 X172.599 Y125.556 E17.42468
G1 X172.623 Y125.531 E17.42537
G1 X172.633 Y125.528 E17.42558
G0 F6000 X172.634 Y126.845
G1 F1200 X172.857 Y126.908 E17.4302
G1 X173.073 Y127.135 E17.43645
G1 X173.164 Y127.451 E17.44302
G1 X173.115 Y127.627 E17.44666
G1 X172.988 Y127.754 E17.45025
G1 X172.816 Y127.801 E17.4538
G1 X172.42 Y127.688 E17.46202
