;FLAVOR:Marlin
;TIME:11563
;Filament used: 7.80184m
;Layer height: 0.12
;MINX:54.069
;MINY:144
;MINZ:0.12
;MAXX:295.931
;MAXY:206
;MAXZ:3.2
;TARGET_MACHINE.NAME:Creality Ender-5 Plus
;Generated with Cura_SteamEngine 5.6.0
M140 S60
M105
M190 S60
M104 S210
M105
M109 S210
M82 ;absolute extrusion mode
M201 X500.00 Y500.00 Z100.00 E5000.00 ;Setup machine max acceleration
M203 X500.00 Y500.00 Z10.00 E50.00 ;Setup machine max feedrate
M204 P500.00 R1000.00 T500.00 ;Setup Print/Retract/Travel acceleration
M205 X8.00 Y8.00 Z0.40 E5.00 ;Setup Jerk
M220 S100 ;Reset Feedrate
M221 S100 ;Reset Flowrate

G28 ;Home
M420 S1 Z2 ;Enable ABL using saved Mesh and Fade Height

G92 E0 ;Reset Extruder
G1 Z2.0 F3000 ;Move Z Axis up
G1 X10.1 Y20 Z0.28 F5000.0 ;Move to start position
G1 X10.1 Y200.0 Z0.28 F1500.0 E15 ;Draw the first line
G1 X10.4 Y200.0 Z0.28 F5000.0 ;Move to side a little
G1 X10.4 Y20 Z0.28 F1500.0 E30 ;Draw the second line
G92 E0 ;Reset Extruder
G1 Z2.0 F3000 ;Move Z Axis up

G92 E0
G92 E0
G1 F1500 E-6.5
;LAYER_COUNT:25
;LAYER:0
M107
G1 F300 Z0.32
G0 F6000 X70.941 Y147.403 Z0.32
;TYPE:SKIRT
G1 F300 Z0.12
G1 F1500 E0
G1 F1200 X71.654 Y147.079 E0.01563
G1 X73.548 Y146.249 E0.0569
G1 X74.245 Y145.953 E0.07201
G1 X75.091 Y145.638 E0.09002
G1 X75.641 Y145.474 E0.10148
G1 X76.257 Y145.307 E0.11421
G1 X78.443 Y144.753 E0.15922
G1 X79.192 Y144.575 E0.17458
G1 X80.131 Y144.397 E0.19365
G1 X80.604 Y144.339 E0.20316
G1 X81.376 Y144.262 E0.21864
G1 X83.591 Y144.081 E0.26299
G1 X84.328 Y144.031 E0.27774
G1 X84.906 Y144.009 E0.28928
G1 X85.683 Y144 E0.30479
G1 X264.468 Y144.001 E3.87263
G1 X265.243 Y144.013 E3.8881
G1 X265.807 Y144.038 E3.89937
G1 X266.438 Y144.081 E3.91199
G1 X268.503 Y144.253 E3.95334
G1 X269.383 Y144.338 E3.97098
G1 X270.303 Y144.469 E3.98953
G1 X270.802 Y144.574 E3.99971
G1 X271.567 Y144.754 E4.01539
G1 X273.634 Y145.28 E4.05795
G1 X274.38 Y145.481 E4.07337
G1 X275.294 Y145.771 E4.09251
G1 X275.785 Y145.966 E4.10305
G1 X276.529 Y146.281 E4.11917
G1 X278.404 Y147.104 E4.16004
G1 X279.111 Y147.428 E4.17556
G1 X279.937 Y147.851 E4.19408
G1 X280.369 Y148.108 E4.20411
G1 X281.063 Y148.546 E4.22048
G1 X282.718 Y149.628 E4.25994
G1 X283.459 Y150.126 E4.27776
G1 X284.185 Y150.663 E4.29578
G1 X284.589 Y151.006 E4.30636
G1 X285.138 Y151.496 E4.32104
G1 X286.783 Y153.011 E4.36567
G1 X287.263 Y153.465 E4.37886
G1 X287.939 Y154.166 E4.39829
G1 X288.257 Y154.54 E4.40809
G1 X288.764 Y155.171 E4.42424
G1 X290.09 Y156.876 E4.46734
G1 X290.523 Y157.451 E4.48171
G1 X291.308 Y158.649 E4.51029
G1 X291.692 Y159.333 E4.52594
G1 X292.683 Y161.167 E4.56755
G1 X293.065 Y161.898 E4.584
G1 X293.47 Y162.765 E4.6031
G1 X293.641 Y163.207 E4.61256
G1 X293.918 Y163.975 E4.62885
G1 X294.606 Y165.978 E4.67112
G1 X294.838 Y166.688 E4.68602
G1 X295.095 Y167.609 E4.7051
G1 X295.197 Y168.097 E4.71505
G1 X295.339 Y168.878 E4.73089
G1 X295.681 Y170.94 E4.77261
G1 X295.8 Y171.711 E4.78817
G1 X295.901 Y172.663 E4.80728
G1 X295.921 Y173.173 E4.81746
G1 X295.931 Y173.801 E4.83
G1 X295.931 Y176.114 E4.87616
G1 X295.918 Y176.867 E4.89119
G1 X295.86 Y177.823 E4.9103
G1 X295.795 Y178.319 E4.92028
G1 X295.677 Y179.099 E4.93602
G1 X295.356 Y181.021 E4.97491
G1 X295.199 Y181.885 E4.99244
G1 X294.857 Y183.246 E5.02044
G1 X294.59 Y184.069 E5.03771
G1 X293.917 Y186.022 E5.07893
G1 X293.645 Y186.78 E5.095
G1 X293.292 Y187.639 E5.11353
G1 X293.069 Y188.096 E5.12368
G1 X292.69 Y188.823 E5.14004
G1 X291.678 Y190.691 E5.18244
G1 X291.322 Y191.327 E5.19699
G1 X290.832 Y192.118 E5.21555
G1 X290.529 Y192.541 E5.22594
G1 X290.066 Y193.155 E5.24128
G1 X288.73 Y194.869 E5.28465
G1 X288.268 Y195.446 E5.2994
G1 X287.673 Y196.125 E5.31742
G1 X287.294 Y196.503 E5.3281
G1 X286.735 Y197.034 E5.34349
G1 X285.105 Y198.535 E5.38771
G1 X284.579 Y199.003 E5.40176
G1 X283.879 Y199.574 E5.41979
G1 X282.883 Y200.263 E5.44395
G1 X280.997 Y201.494 E5.4889
G1 X280.332 Y201.914 E5.50459
G1 X279.547 Y202.361 E5.52262
G1 X279.04 Y202.606 E5.53386
G1 X278.346 Y202.921 E5.54907
G1 X276.452 Y203.751 E5.59034
G1 X275.755 Y204.047 E5.60545
G1 X274.909 Y204.362 E5.62346
G1 X274.359 Y204.526 E5.63492
G1 X273.743 Y204.693 E5.64765
G1 X271.557 Y205.247 E5.69266
G1 X270.808 Y205.425 E5.70802
G1 X269.869 Y205.603 E5.72709
G1 X269.396 Y205.661 E5.7366
G1 X268.624 Y205.738 E5.75208
G1 X266.409 Y205.919 E5.79643
G1 X265.672 Y205.969 E5.81118
G1 X265.094 Y205.991 E5.82272
G1 X264.317 Y206 E5.83822
G1 X85.532 Y205.999 E9.40607
G1 X84.757 Y205.987 E9.42154
G1 X84.193 Y205.962 E9.43281
G1 X83.562 Y205.919 E9.44543
G1 X81.37 Y205.736 E9.48932
G1 X80.632 Y205.665 E9.50412
G1 X79.712 Y205.535 E9.52266
G1 X79.175 Y205.422 E9.53361
G1 X78.428 Y205.244 E9.54894
G1 X76.366 Y204.719 E9.5914
G1 X75.62 Y204.518 E9.60682
G1 X74.707 Y204.228 E9.62593
G1 X74.228 Y204.039 E9.63621
G1 X73.471 Y203.719 E9.65261
G1 X71.596 Y202.896 E9.69348
G1 X70.889 Y202.572 E9.709
G1 X70.063 Y202.149 E9.72752
G1 X69.631 Y201.892 E9.73755
G1 X68.937 Y201.454 E9.75392
G1 X67.281 Y200.372 E9.7934
G1 X66.551 Y199.88 E9.81097
G1 X65.79 Y199.315 E9.82988
G1 X65.411 Y198.994 E9.83979
G1 X64.862 Y198.504 E9.85448
G1 X63.31 Y197.076 E9.89657
G1 X62.723 Y196.52 E9.9127
G1 X62.046 Y195.818 E9.93216
G1 X61.737 Y195.452 E9.94172
G1 X61.239 Y194.833 E9.95758
G1 X60.012 Y193.255 E9.99747
G1 X59.452 Y192.513 E10.01602
G1 X58.927 Y191.747 E10.03455
G1 X58.666 Y191.306 E10.04478
G1 X58.309 Y190.669 E10.05935
G1 X57.254 Y188.717 E10.10363
G1 X56.946 Y188.128 E10.11689
G1 X56.541 Y187.261 E10.13599
G1 X56.37 Y186.821 E10.14541
G1 X56.081 Y186.023 E10.16235
G1 X55.438 Y184.151 E10.20185
G1 X55.156 Y183.286 E10.22
G1 X54.9 Y182.364 E10.2391
G1 X54.66 Y181.116 E10.26446
G1 X54.201 Y178.294 E10.32152
G1 X54.099 Y177.342 E10.34062
G1 X54.079 Y176.828 E10.35089
G1 X54.069 Y176.199 E10.36344
G1 X54.069 Y173.886 E10.4096
G1 X54.082 Y173.133 E10.42463
G1 X54.14 Y172.177 E10.44374
G1 X54.205 Y171.681 E10.45373
G1 X54.323 Y170.901 E10.46947
G1 X54.644 Y168.979 E10.50836
G1 X54.801 Y168.115 E10.52588
G1 X55.143 Y166.754 E10.55388
G1 X55.41 Y165.93 E10.57117
G1 X56.046 Y164.082 E10.61017
G1 X56.357 Y163.215 E10.62855
G1 X56.71 Y162.357 E10.64707
G1 X56.931 Y161.904 E10.65713
G1 X57.31 Y161.177 E10.67349
G1 X58.322 Y159.309 E10.71588
G1 X58.678 Y158.673 E10.73043
G1 X59.168 Y157.882 E10.749
G1 X59.471 Y157.459 E10.75938
G1 X59.934 Y156.845 E10.77473
G1 X61.27 Y155.131 E10.8181
G1 X61.733 Y154.554 E10.83286
G1 X62.371 Y153.829 E10.85213
G1 X63.139 Y153.084 E10.87349
G1 X64.883 Y151.477 E10.92081
G1 X65.408 Y151.008 E10.93486
G1 X66.149 Y150.404 E10.95394
G1 X66.568 Y150.107 E10.96419
G1 X67.246 Y149.65 E10.9805
G1 X68.865 Y148.593 E11.01909
G1 X69.661 Y148.091 E11.03787
G1 X70.469 Y147.631 E11.05642
G1 X70.941 Y147.403 E11.06688
G0 F6000 X71.106 Y147.767
G1 F1200 X71.815 Y147.445 E11.08242
G1 X73.704 Y146.617 E11.12358
G1 X74.385 Y146.328 E11.13835
G1 X75.231 Y146.013 E11.15636
G1 X75.745 Y145.86 E11.16706
G1 X76.355 Y145.695 E11.17967
G1 X78.536 Y145.142 E11.22458
G1 X79.267 Y144.968 E11.23957
G1 X80.18 Y144.794 E11.25812
G1 X80.644 Y144.737 E11.26745
G1 X81.409 Y144.661 E11.28279
G1 X83.618 Y144.48 E11.32702
G1 X84.344 Y144.431 E11.34154
G1 X84.911 Y144.409 E11.35286
G1 X85.683 Y144.4 E11.36827
G1 X264.462 Y144.401 E14.936
G1 X265.226 Y144.413 E14.95125
G1 X265.78 Y144.437 E14.96231
G1 X266.405 Y144.48 E14.97482
G1 X268.465 Y144.651 E15.01607
G1 X269.327 Y144.734 E15.03335
G1 X270.221 Y144.861 E15.05137
G1 X270.71 Y144.963 E15.06134
G1 X271.468 Y145.142 E15.07688
G1 X273.53 Y145.666 E15.11934
G1 X274.259 Y145.862 E15.1344
G1 X275.147 Y146.143 E15.15299
G1 X275.629 Y146.334 E15.16334
G1 X276.368 Y146.647 E15.17935
G1 X278.238 Y147.468 E15.22011
G1 X278.929 Y147.784 E15.23527
G1 X279.733 Y148.195 E15.25329
G1 X280.155 Y148.446 E15.26309
G1 X280.844 Y148.881 E15.27935
G1 X282.495 Y149.96 E15.31871
G1 X283.221 Y150.448 E15.33617
G1 X283.947 Y150.985 E15.35419
G1 X284.323 Y151.305 E15.36404
G1 X284.867 Y151.79 E15.37858
G1 X286.508 Y153.302 E15.42311
G1 X286.975 Y153.743 E15.43593
G1 X287.634 Y154.425 E15.45486
G1 X287.945 Y154.791 E15.46444
G1 X288.448 Y155.417 E15.48047
G1 X289.77 Y157.117 E15.52344
G1 X290.203 Y157.692 E15.53781
G1 X290.959 Y158.845 E15.56532
G1 X291.34 Y159.523 E15.58084
G1 X292.329 Y161.352 E15.62234
G1 X292.703 Y162.067 E15.63844
G1 X293.097 Y162.91 E15.65701
G1 X293.265 Y163.343 E15.66628
G1 X293.54 Y164.105 E15.68244
G1 X294.226 Y166.103 E15.7246
G1 X294.453 Y166.796 E15.73915
G1 X294.703 Y167.691 E15.7577
G1 X294.803 Y168.169 E15.76744
G1 X294.944 Y168.944 E15.78316
G1 X295.286 Y171.001 E15.82478
G1 X295.402 Y171.754 E15.83998
G1 X295.501 Y172.679 E15.85855
G1 X295.521 Y173.179 E15.86853
G1 X295.531 Y173.807 E15.88107
G1 X295.531 Y176.107 E15.92697
G1 X295.519 Y176.843 E15.94165
G1 X295.463 Y177.772 E15.96023
G1 X295.4 Y178.259 E15.97003
G1 X295.282 Y179.033 E15.98565
G1 X294.962 Y180.949 E16.02442
G1 X294.805 Y181.813 E16.04194
G1 X294.469 Y183.148 E16.06941
G1 X294.212 Y183.939 E16.08601
G1 X293.541 Y185.887 E16.12713
G1 X293.275 Y186.628 E16.14284
G1 X292.932 Y187.464 E16.16087
G1 X292.714 Y187.911 E16.1708
G1 X292.338 Y188.633 E16.18704
G1 X291.329 Y190.496 E16.22932
G1 X290.982 Y191.116 E16.2435
G1 X290.492 Y191.907 E16.26207
G1 X290.21 Y192.3 E16.27172
G1 X289.751 Y192.909 E16.28694
G1 X288.418 Y194.619 E16.33021
G1 X287.967 Y195.182 E16.3446
G1 X287.372 Y195.861 E16.36262
G1 X287.019 Y196.213 E16.37257
G1 X286.464 Y196.74 E16.38784
G1 X284.839 Y198.236 E16.43192
G1 X284.326 Y198.693 E16.44563
G1 X283.626 Y199.264 E16.46366
G1 X282.664 Y199.928 E16.48699
G1 X280.783 Y201.156 E16.53181
G1 X280.134 Y201.566 E16.54713
G1 X279.349 Y202.013 E16.56516
G1 X278.875 Y202.242 E16.57567
G1 X278.185 Y202.555 E16.59079
G1 X276.296 Y203.383 E16.63195
G1 X275.615 Y203.672 E16.64671
G1 X274.769 Y203.987 E16.66472
G1 X274.255 Y204.14 E16.67543
G1 X273.645 Y204.305 E16.68804
G1 X271.464 Y204.858 E16.73294
G1 X270.733 Y205.032 E16.74793
G1 X269.82 Y205.206 E16.76648
G1 X269.356 Y205.263 E16.77581
G1 X268.591 Y205.339 E16.79115
G1 X266.382 Y205.52 E16.83538
G1 X265.656 Y205.569 E16.8499
G1 X265.089 Y205.591 E16.86123
G1 X264.317 Y205.6 E16.87664
G1 X85.538 Y205.599 E20.44436
G1 X84.774 Y205.587 E20.45961
G1 X84.22 Y205.563 E20.47068
G1 X83.595 Y205.52 E20.48318
G1 X81.408 Y205.338 E20.52697
G1 X80.688 Y205.269 E20.54141
G1 X79.794 Y205.143 E20.55943
G1 X79.268 Y205.033 E20.57015
G1 X78.527 Y204.856 E20.58535
G1 X76.47 Y204.333 E20.62771
G1 X75.741 Y204.137 E20.64277
G1 X74.854 Y203.856 E20.66134
G1 X74.384 Y203.671 E20.67142
G1 X73.632 Y203.353 E20.68772
G1 X71.762 Y202.532 E20.72847
G1 X71.071 Y202.216 E20.74363
G1 X70.267 Y201.805 E20.76165
G1 X69.845 Y201.554 E20.77145
G1 X69.156 Y201.119 E20.78771
G1 X67.505 Y200.04 E20.82707
G1 X66.775 Y199.548 E20.84464
G1 X66.028 Y198.994 E20.8632
G1 X65.677 Y198.695 E20.8724
G1 X65.133 Y198.21 E20.88695
G1 X63.585 Y196.785 E20.92893
G1 X63.011 Y196.242 E20.9447
G1 X62.352 Y195.56 E20.96363
G1 X62.049 Y195.201 E20.973
G1 X61.555 Y194.587 E20.98873
G1 X60.331 Y193.014 E21.0285
G1 X59.782 Y192.287 E21.04668
G1 X59.257 Y191.521 E21.06522
G1 X59.015 Y191.111 E21.07472
G1 X58.661 Y190.479 E21.08917
G1 X57.608 Y188.531 E21.13336
G1 X57.308 Y187.958 E21.14627
G1 X56.914 Y187.116 E21.16482
G1 X56.746 Y186.685 E21.17405
G1 X56.459 Y185.893 E21.19087
G1 X55.818 Y184.027 E21.23024
G1 X55.541 Y183.179 E21.24804
G1 X55.292 Y182.283 E21.2666
G1 X55.199 Y181.831 E21.27581
G1 X55.055 Y181.05 E21.29166
G1 X54.715 Y179.002 E21.33309
G1 X54.599 Y178.251 E21.34825
G1 X54.499 Y177.326 E21.36682
G1 X54.479 Y176.822 E21.37688
G1 X54.469 Y176.193 E21.38944
G1 X54.469 Y173.893 E21.43534
G1 X54.481 Y173.157 E21.45003
G1 X54.537 Y172.228 E21.4686
G1 X54.6 Y171.741 E21.4784
G1 X54.718 Y170.967 E21.49402
G1 X55.038 Y169.051 E21.53279
G1 X55.195 Y168.187 E21.55031
G1 X55.531 Y166.852 E21.57779
G1 X55.788 Y166.06 E21.5944
G1 X56.422 Y164.217 E21.6333
G1 X56.727 Y163.367 E21.65132
G1 X57.07 Y162.532 E21.66933
G1 X57.286 Y162.089 E21.67917
G1 X57.662 Y161.367 E21.69541
G1 X58.671 Y159.504 E21.73769
G1 X59.018 Y158.884 E21.75187
G1 X59.508 Y158.093 E21.77044
G1 X59.79 Y157.7 E21.78009
G1 X60.249 Y157.091 E21.79531
G1 X61.582 Y155.381 E21.83858
G1 X62.033 Y154.818 E21.85298
G1 X62.65 Y154.116 E21.87163
G1 X63.41 Y153.378 E21.89277
G1 X65.15 Y151.775 E21.93998
G1 X65.661 Y151.318 E21.95366
G1 X66.381 Y150.73 E21.97221
G1 X66.791 Y150.439 E21.98225
G1 X67.465 Y149.985 E21.99846
G1 X69.078 Y148.931 E22.03692
G1 X69.859 Y148.439 E22.05534
G1 X70.667 Y147.979 E22.07389
G1 X71.106 Y147.767 E22.08362
G0 F6000 X71.271 Y148.131
G1 F1200 X71.976 Y147.811 E22.09907
G1 X73.86 Y146.985 E22.14012
G1 X74.525 Y146.703 E22.15454
G1 X75.371 Y146.388 E22.17255
G1 X75.849 Y146.246 E22.1825
G1 X76.453 Y146.083 E22.19499
G1 X78.629 Y145.531 E22.23979
G1 X79.342 Y145.361 E22.25442
G1 X80.229 Y145.191 E22.27244
G1 X80.683 Y145.135 E22.28157
G1 X81.442 Y145.06 E22.29679
G1 X83.645 Y144.879 E22.3409
G1 X84.36 Y144.831 E22.3552
G1 X84.916 Y144.809 E22.3663
G1 X85.683 Y144.8 E22.38161
G1 X264.456 Y144.801 E25.94922
G1 X265.209 Y144.813 E25.96425
G1 X265.752 Y144.836 E25.97509
G1 X266.372 Y144.879 E25.9875
G1 X268.427 Y145.049 E26.02865
G1 X269.271 Y145.13 E26.04557
G1 X270.165 Y145.257 E26.06359
G1 X270.618 Y145.352 E26.07282
G1 X271.37 Y145.53 E26.08825
G1 X273.426 Y146.052 E26.13058
G1 X274.139 Y146.243 E26.14531
G1 X275 Y146.515 E26.16333
G1 X275.473 Y146.702 E26.17348
G1 X276.207 Y147.013 E26.18938
G1 X278.072 Y147.832 E26.23003
G1 X278.747 Y148.14 E26.24484
G1 X279.551 Y148.551 E26.26286
G1 X279.941 Y148.784 E26.27193
G1 X280.625 Y149.216 E26.28807
G1 X282.272 Y150.292 E26.32733
G1 X282.983 Y150.77 E26.34443
G1 X283.709 Y151.307 E26.36245
G1 X284.057 Y151.603 E26.37157
G1 X284.596 Y152.084 E26.38598
G1 X286.233 Y153.593 E26.43041
G1 X286.7 Y154.034 E26.44323
G1 X287.329 Y154.683 E26.46127
G1 X287.633 Y155.042 E26.47065
G1 X288.132 Y155.663 E26.48655
G1 X289.45 Y157.358 E26.5294
G1 X289.883 Y157.933 E26.54376
G1 X290.61 Y159.041 E26.57021
G1 X290.988 Y159.713 E26.5856
G1 X291.975 Y161.538 E26.627
G1 X292.341 Y162.237 E26.64275
G1 X292.724 Y163.055 E26.66077
G1 X292.889 Y163.479 E26.66985
G1 X293.162 Y164.235 E26.68589
G1 X293.846 Y166.228 E26.72794
G1 X294.068 Y166.904 E26.74214
G1 X294.311 Y167.773 E26.76015
G1 X294.409 Y168.241 E26.76969
G1 X294.55 Y169.016 E26.78541
G1 X294.891 Y171.062 E26.8268
G1 X295.004 Y171.797 E26.84164
G1 X295.101 Y172.695 E26.85967
G1 X295.121 Y173.185 E26.86946
G1 X295.131 Y173.813 E26.88199
G1 X295.131 Y176.101 E26.92765
G1 X295.12 Y176.819 E26.94198
G1 X295.066 Y177.721 E26.96001
G1 X295.005 Y178.198 E26.96961
G1 X294.887 Y178.967 E26.98513
G1 X294.568 Y180.877 E27.02378
G1 X294.411 Y181.741 E27.0413
G1 X294.081 Y183.05 E27.06824
G1 X293.834 Y183.809 E27.08417
G1 X293.165 Y185.752 E27.12518
G1 X292.905 Y186.476 E27.14053
G1 X292.562 Y187.312 E27.15856
G1 X292.359 Y187.726 E27.16777
G1 X291.986 Y188.443 E27.18389
G1 X290.98 Y190.301 E27.22606
G1 X290.642 Y190.906 E27.23989
G1 X290.167 Y191.674 E27.25791
G1 X289.891 Y192.059 E27.26736
G1 X289.435 Y192.663 E27.28247
G1 X288.106 Y194.369 E27.32562
G1 X287.666 Y194.918 E27.33966
G1 X287.071 Y195.597 E27.35768
G1 X286.744 Y195.923 E27.36689
G1 X286.193 Y196.446 E27.38205
G1 X284.573 Y197.937 E27.42599
G1 X284.073 Y198.383 E27.43936
G1 X283.373 Y198.954 E27.45739
G1 X282.445 Y199.593 E27.47987
G1 X280.57 Y200.818 E27.52457
G1 X279.936 Y201.218 E27.53953
G1 X279.151 Y201.665 E27.55756
G1 X278.71 Y201.878 E27.56733
G1 X278.024 Y202.189 E27.58236
G1 X276.14 Y203.015 E27.62341
G1 X275.475 Y203.297 E27.63783
G1 X274.629 Y203.612 E27.65584
G1 X274.151 Y203.754 E27.66579
G1 X273.547 Y203.917 E27.67828
G1 X271.371 Y204.469 E27.72308
G1 X270.658 Y204.639 E27.73771
G1 X269.771 Y204.809 E27.75573
G1 X269.317 Y204.865 E27.76486
G1 X268.558 Y204.94 E27.78008
G1 X266.355 Y205.121 E27.82419
G1 X265.64 Y205.169 E27.83849
G1 X265.084 Y205.191 E27.8496
G1 X264.317 Y205.2 E27.8649
G1 X85.544 Y205.199 E31.43251
G1 X84.791 Y205.187 E31.44754
G1 X84.248 Y205.164 E31.45839
G1 X83.628 Y205.121 E31.47079
