;FLAVOR:Marlin
;TIME:1349
;Filament used: 0.565332m
;Layer height: 0.12
;MINX:131.61
;MINY:153.767
;MINZ:0.12
;MAXX:218.16
;MAXY:196.184
;MAXZ:3.2
;TARGET_MACHINE.NAME:Creality Ender-5 Plus
;Generated with Cura_SteamEngine 5.6.0
M140 S60
M105
M190 S60
M104 S210
M105
M109 S210
M82 ;absolute extrusion mode
M201 X500.00 Y500.00 Z100.00 E5000.00 ;Setup machine max acceleration
M203 X500.00 Y500.00 Z10.00 E50.00 ;Setup machine max feedrate
M204 P500.00 R1000.00 T500.00 ;Setup Print/Retract/Travel acceleration
M205 X8.00 Y8.00 Z0.40 E5.00 ;Setup Jerk
M220 S100 ;Reset Feedrate
M221 S100 ;Reset Flowrate

G28 ;Home
M420 S1 Z2 ;Enable ABL using saved Mesh and Fade Height

G92 E0 ;Reset Extruder
G1 Z2.0 F3000 ;Move Z Axis up
G1 X10.1 Y20 Z0.28 F5000.0 ;Move to start position
G1 X10.1 Y200.0 Z0.28 F1500.0 E15 ;Draw the first line
G1 X10.4 Y200.0 Z0.28 F5000.0 ;Move to side a little
G1 X10.4 Y20 Z0.28 F1500.0 E30 ;Draw the second line
G92 E0 ;Reset Extruder
G1 Z2.0 F3000 ;Move Z Axis up

G92 E0
G92 E0
G1 F1500 E-6.5
;LAYER_COUNT:25
;LAYER:0
M107
G1 F300 Z0.32
G0 F6000 X137.254 Y157.576 Z0.32
;TYPE:SKIRT
G1 F300 Z0.12
G1 F1500 E0
G1 F1200 X138.262 Y156.787 E0.02555
G1 X138.895 Y156.36 E0.04078
G1 X139.379 Y156.056 E0.05219
G1 X140.528 Y155.427 E0.07833
G1 X141.226 Y155.107 E0.09365
G1 X141.681 Y154.915 E0.10351
G1 X143.026 Y154.448 E0.13192
G1 X143.703 Y154.269 E0.1459
G1 X144.237 Y154.141 E0.15685
G1 X145.123 Y153.969 E0.17486
G1 X145.676 Y153.9 E0.18599
G1 X146.373 Y153.836 E0.19995
G1 X146.949 Y153.797 E0.21148
G1 X147.527 Y153.775 E0.22302
G1 X148.238 Y153.767 E0.23721
G1 X169.045 Y153.768 E0.65243
G1 X169.814 Y153.781 E0.66778
G1 X170.567 Y153.818 E0.68283
G1 X171.392 Y153.89 E0.69935
G1 X172.287 Y154.007 E0.71737
G1 X172.874 Y154.124 E0.72931
G1 X173.611 Y154.302 E0.74444
G1 X174.162 Y154.453 E0.75584
G1 X175.048 Y154.738 E0.77442
G1 X175.545 Y154.937 E0.7851
G1 X176.155 Y155.2 E0.79836
G1 X176.884 Y155.535 E0.81437
G1 X179.265 Y156.584 E0.86629
G1 X181.578 Y157.528 E0.91614
G1 X183.928 Y158.409 E0.96623
G1 X186.322 Y159.231 E1.01674
G1 X188.71 Y159.977 E1.06667
G1 X191.151 Y160.663 E1.11727
G1 X193.584 Y161.272 E1.16732
G1 X196.056 Y161.819 E1.21784
G1 X198.619 Y162.31 E1.26992
G1 X199.741 Y162.511 E1.29267
G1 X200.68 Y162.722 E1.31187
G1 X201.254 Y162.896 E1.32384
G1 X201.89 Y163.111 E1.33724
G1 X210.301 Y166.173 E1.51587
G1 X211.111 Y166.481 E1.53316
G1 X212.003 Y166.87 E1.55258
G1 X212.858 Y167.337 E1.57202
G1 X213.668 Y167.877 E1.59145
G1 X214.427 Y168.487 E1.61088
G1 X215.13 Y169.161 E1.63032
G1 X215.77 Y169.896 E1.64977
G1 X216.342 Y170.683 E1.66918
G1 X216.844 Y171.519 E1.68864
G1 X217.24 Y172.331 E1.70667
G1 X217.614 Y173.306 E1.72751
G1 X217.877 Y174.242 E1.74691
G1 X218.057 Y175.2 E1.76637
G1 X218.151 Y176.169 E1.78579
G1 X218.16 Y177.144 E1.80525
G1 X218.082 Y178.113 E1.82465
G1 X217.934 Y179.004 E1.84268
G1 X217.611 Y180.203 E1.86746
G1 X217.398 Y180.832 E1.88071
G1 X215.832 Y185.132 E1.97203
G1 X215.56 Y185.845 E1.98726
G1 X215.171 Y186.737 E2.00668
G1 X214.705 Y187.591 E2.0261
G1 X214.165 Y188.403 E2.04556
G1 X213.555 Y189.162 E2.06499
G1 X212.881 Y189.865 E2.08442
G1 X212.147 Y190.505 E2.10386
G1 X211.344 Y191.087 E2.12365
G1 X210.126 Y191.785 E2.15166
G1 X209.462 Y192.108 E2.1664
G1 X203.465 Y194.903 E2.29844
G1 X202.723 Y195.236 E2.31467
G1 X201.884 Y195.569 E2.33268
G1 X200.881 Y195.867 E2.35356
G1 X199.926 Y196.058 E2.373
G1 X198.959 Y196.164 E2.39241
G1 X197.984 Y196.184 E2.41187
G1 X197.013 Y196.117 E2.43129
G1 X196.034 Y195.961 E2.45108
G1 X194.676 Y195.592 E2.47916
G1 X194.033 Y195.37 E2.49274
G1 X182.46 Y191.158 E2.73851
G1 X180.027 Y190.312 E2.78991
G1 X177.624 Y189.55 E2.84022
G1 X175.225 Y188.865 E2.89001
G1 X172.711 Y188.224 E2.94178
G1 X170.301 Y187.68 E2.99109
G1 X167.846 Y187.198 E3.04101
G1 X165.362 Y186.782 E3.09128
G1 X162.863 Y186.44 E3.14161
G1 X160.341 Y186.164 E3.19224
G1 X157.83 Y185.96 E3.24252
G1 X155.373 Y185.834 E3.29161
G1 X151.85 Y185.767 E3.36193
G1 X148.133 Y185.766 E3.43611
G1 X147.364 Y185.754 E3.45145
G1 X146.623 Y185.717 E3.46626
G1 X145.774 Y185.643 E3.48327
G1 X144.879 Y185.526 E3.50128
G1 X144.034 Y185.345 E3.51853
G1 X143.209 Y185.134 E3.53552
G1 X142.318 Y184.863 E3.5541
G1 X141.737 Y184.64 E3.56652
G1 X141.092 Y184.365 E3.58052
G1 X140.601 Y184.14 E3.59129
G1 X139.463 Y183.531 E3.61705
G1 X138.778 Y183.098 E3.63322
G1 X138.343 Y182.803 E3.64371
G1 X137.23 Y181.939 E3.67183
G1 X136.631 Y181.396 E3.68797
G1 X136.25 Y181.03 E3.69851
G1 X135.627 Y180.376 E3.71653
G1 X135.202 Y179.86 E3.72987
G1 X134.691 Y179.201 E3.74652
G1 X134.17 Y178.463 E3.76454
G1 X133.815 Y177.875 E3.77825
G1 X133.489 Y177.283 E3.79174
G1 X133.25 Y176.826 E3.80203
G1 X132.709 Y175.602 E3.82873
G1 X132.455 Y174.89 E3.84382
G1 X132.294 Y174.397 E3.85417
G1 X131.937 Y173.005 E3.88285
G1 X131.814 Y172.305 E3.89703
G1 X131.733 Y171.771 E3.90781
G1 X131.62 Y170.451 E3.93425
G1 X131.61 Y169.65 E3.95023
G1 X131.62 Y169.127 E3.96067
G1 X131.678 Y168.195 E3.97931
G1 X131.77 Y167.52 E3.9929
G1 X131.91 Y166.687 E4.00976
G1 X132.099 Y165.804 E4.02778
G1 X132.274 Y165.194 E4.04044
G1 X132.502 Y164.5 E4.05502
G1 X132.662 Y164.054 E4.06448
G1 X133.209 Y162.789 E4.09198
G1 X133.572 Y162.094 E4.10763
G1 X133.844 Y161.611 E4.11869
G1 X134.56 Y160.507 E4.14495
G1 X135.025 Y159.892 E4.16034
G1 X135.354 Y159.482 E4.17083
G1 X136.246 Y158.504 E4.19724
G1 X136.84 Y157.942 E4.21356
G1 X137.254 Y157.576 E4.22459
G0 F6000 X137.501 Y157.891
G1 F1200 X138.486 Y157.119 E4.24956
G1 X139.119 Y156.692 E4.2648
G1 X139.571 Y156.407 E4.27546
G1 X140.695 Y155.791 E4.30104
G1 X141.382 Y155.476 E4.31613
G1 X141.837 Y155.284 E4.32598
G1 X143.129 Y154.835 E4.35328
G1 X143.796 Y154.658 E4.36705
G1 X144.313 Y154.534 E4.37766
G1 X145.199 Y154.362 E4.39567
G1 X145.712 Y154.298 E4.40599
G1 X146.4 Y154.235 E4.41977
G1 X146.965 Y154.197 E4.43107
G1 X147.532 Y154.175 E4.4424
G1 X148.238 Y154.167 E4.45649
G1 X169.039 Y154.168 E4.87159
G1 X169.794 Y154.18 E4.88666
G1 X170.532 Y154.217 E4.90141
G1 X171.34 Y154.287 E4.91759
G1 X172.235 Y154.404 E4.93561
G1 X172.78 Y154.513 E4.9467
G1 X173.506 Y154.688 E4.9616
G1 X174.04 Y154.834 E4.97265
G1 X174.9 Y155.11 E4.99067
G1 X175.387 Y155.304 E5.00113
G1 X175.988 Y155.563 E5.01419
G1 X176.723 Y155.901 E5.03034
G1 X179.104 Y156.95 E5.08226
G1 X181.438 Y157.903 E5.13257
G1 X183.788 Y158.784 E5.18266
G1 X186.203 Y159.613 E5.23361
G1 X188.591 Y160.359 E5.28354
G1 X191.054 Y161.051 E5.33459
G1 X193.498 Y161.663 E5.38487
G1 X195.97 Y162.21 E5.43539
G1 X198.549 Y162.704 E5.4878
G1 X199.654 Y162.901 E5.5102
G1 X200.564 Y163.105 E5.52881
G1 X201.126 Y163.275 E5.54052
G1 X201.753 Y163.487 E5.55373
G1 X210.159 Y166.547 E5.73225
G1 X210.952 Y166.848 E5.74918
G1 X211.812 Y167.221 E5.76789
G1 X212.637 Y167.67 E5.78663
G1 X213.418 Y168.189 E5.80534
G1 X214.151 Y168.776 E5.82408
G1 X214.829 Y169.424 E5.8428
G1 X215.447 Y170.131 E5.86154
G1 X215.999 Y170.889 E5.88025
G1 X216.484 Y171.694 E5.89901
G1 X216.88 Y172.506 E5.91703
G1 X217.229 Y173.415 E5.93647
G1 X217.484 Y174.317 E5.95517
G1 X217.659 Y175.239 E5.9739
G1 X217.751 Y176.173 E5.99263
G1 X217.761 Y177.112 E6.01137
G1 X217.687 Y178.047 E6.03009
G1 X217.539 Y178.938 E6.04811
G1 X217.232 Y180.075 E6.07161
G1 X217.022 Y180.695 E6.08468
G1 X215.458 Y184.99 E6.17589
G1 X215.193 Y185.686 E6.19076
G1 X214.82 Y186.546 E6.20946
G1 X214.372 Y187.37 E6.22818
G1 X213.853 Y188.153 E6.24693
G1 X213.266 Y188.886 E6.26567
G1 X212.618 Y189.564 E6.28438
G1 X211.911 Y190.182 E6.30312
G1 X211.145 Y190.74 E6.32203
G1 X209.951 Y191.425 E6.3495
G1 X209.293 Y191.745 E6.36411
G1 X203.301 Y194.538 E6.49604
G1 X202.575 Y194.864 E6.51192
G1 X201.736 Y195.197 E6.52993
G1 X200.802 Y195.475 E6.54938
G1 X199.882 Y195.66 E6.5681
G1 X198.95 Y195.764 E6.58682
G1 X198.011 Y195.785 E6.60556
G1 X197.075 Y195.722 E6.62428
G1 X196.139 Y195.575 E6.64319
G1 X194.807 Y195.214 E6.67073
G1 X194.17 Y194.994 E6.68418
G1 X182.597 Y190.782 E6.92995
G1 X180.158 Y189.934 E6.98148
G1 X177.734 Y189.165 E7.03223
G1 X175.324 Y188.477 E7.08225
G1 X172.81 Y187.836 E7.13402
G1 X170.378 Y187.287 E7.18378
G1 X167.917 Y186.804 E7.23383
G1 X165.428 Y186.388 E7.28419
G1 X162.906 Y186.042 E7.33499
G1 X160.38 Y185.766 E7.3857
G1 X157.862 Y185.562 E7.43611
G1 X155.381 Y185.434 E7.48569
G1 X151.858 Y185.367 E7.55601
G1 X148.139 Y185.366 E7.63022
G1 X147.384 Y185.354 E7.64529
G1 X146.643 Y185.317 E7.6601
G1 X145.826 Y185.246 E7.67646
G1 X144.931 Y185.129 E7.69447
G1 X144.133 Y184.958 E7.71076
G1 X143.325 Y184.751 E7.72741
G1 X142.461 Y184.489 E7.74542
G1 X141.894 Y184.272 E7.75754
G1 X141.258 Y184.001 E7.77134
G1 X140.79 Y183.787 E7.78161
G1 X139.652 Y183.178 E7.80736
G1 X139.002 Y182.767 E7.82271
G1 X138.588 Y182.487 E7.83268
G1 X137.499 Y181.643 E7.86018
G1 X136.908 Y181.107 E7.8761
G1 X136.54 Y180.754 E7.88628
G1 X135.917 Y180.1 E7.9043
G1 X135.518 Y179.615 E7.91684
G1 X135.018 Y178.97 E7.93312
G1 X134.497 Y178.232 E7.95115
G1 X134.165 Y177.682 E7.96397
G1 X133.843 Y177.098 E7.97728
G1 X133.616 Y176.664 E7.98705
G1 X133.075 Y175.44 E8.01376
G1 X132.835 Y174.766 E8.02804
G1 X132.674 Y174.273 E8.03839
G1 X132.331 Y172.935 E8.06595
G1 X132.209 Y172.245 E8.07993
G1 X132.132 Y171.737 E8.09019
G1 X132.019 Y170.417 E8.11663
G1 X132.01 Y169.657 E8.13179
G1 X132.019 Y169.152 E8.14187
G1 X132.077 Y168.22 E8.16051
G1 X132.164 Y167.586 E8.17328
G1 X132.301 Y166.771 E8.18977
G1 X132.49 Y165.888 E8.20779
G1 X132.654 Y165.319 E8.21961
G1 X132.879 Y164.635 E8.23398
G1 X133.039 Y164.189 E8.24343
G1 X133.564 Y162.974 E8.26985
G1 X133.921 Y162.29 E8.28524
G1 X134.18 Y161.829 E8.2958
G1 X134.896 Y160.725 E8.32206
G1 X135.337 Y160.142 E8.33664
G1 X135.65 Y159.752 E8.34662
G1 X136.542 Y158.774 E8.37304
G1 X137.115 Y158.233 E8.38876
G1 X137.501 Y157.891 E8.39906
G0 F6000 X137.748 Y158.206
G1 F1200 X138.733 Y157.434 E8.42403
G1 X139.333 Y157.03 E8.43847
G1 X139.763 Y156.758 E8.44862
G1 X140.887 Y156.142 E8.4742
G1 X141.538 Y155.845 E8.48848
G1 X141.993 Y155.653 E8.49833
G1 X143.232 Y155.222 E8.52451
G1 X143.889 Y155.047 E8.53808
G1 X144.389 Y154.927 E8.54834
G1 X145.275 Y154.755 E8.56635
G1 X145.748 Y154.696 E8.57587
G1 X146.427 Y154.634 E8.58947
G1 X146.981 Y154.597 E8.60055
G1 X147.537 Y154.575 E8.61166
G1 X148.238 Y154.567 E8.62565
G1 X169.033 Y154.568 E9.04063
G1 X169.774 Y154.579 E9.05542
G1 X170.498 Y154.616 E9.06989
G1 X171.288 Y154.684 E9.08571
G1 X172.183 Y154.801 E9.10373
G1 X172.686 Y154.902 E9.11396
G1 X173.412 Y155.077 E9.12887
G1 X173.918 Y155.215 E9.13933
G1 X174.778 Y155.491 E9.15736
G1 X175.228 Y155.671 E9.16703
G1 X175.821 Y155.927 E9.17992
G1 X176.556 Y156.264 E9.19606
G1 X178.943 Y157.316 E9.24811
G1 X181.298 Y158.278 E9.29888
G1 X183.648 Y159.159 E9.34896
G1 X186.084 Y159.995 E9.40036
G1 X188.472 Y160.741 E9.45028
G1 X190.957 Y161.439 E9.50179
G1 X193.412 Y162.054 E9.5523
G1 X195.884 Y162.601 E9.60283
G1 X198.479 Y163.098 E9.65555
G1 X199.567 Y163.291 E9.6776
G1 X200.448 Y163.488 E9.69562
G1 X200.998 Y163.654 E9.70708
G1 X201.616 Y163.863 E9.7201
G1 X210.017 Y166.921 E9.89852
G1 X210.793 Y167.215 E9.91508
G1 X211.622 Y167.573 E9.9331
G1 X212.416 Y168.003 E9.95112
G1 X213.169 Y168.502 E9.96914
G1 X213.875 Y169.065 E9.98716
G1 X214.528 Y169.688 E10.00517
G1 X215.124 Y170.367 E10.0232
G1 X215.657 Y171.096 E10.04122
G1 X216.124 Y171.869 E10.05925
G1 X216.52 Y172.681 E10.07728
G1 X216.844 Y173.524 E10.0953
G1 X217.091 Y174.392 E10.11331
G1 X217.261 Y175.279 E10.13133
G1 X217.351 Y176.178 E10.14936
G1 X217.362 Y177.081 E10.16738
G1 X217.292 Y177.981 E10.1854
G1 X217.144 Y178.872 E10.20342
G1 X216.853 Y179.947 E10.22565
G1 X216.646 Y180.558 E10.23852
G1 X215.084 Y184.848 E10.32963
G1 X214.826 Y185.527 E10.34413
G1 X214.468 Y186.356 E10.36215
G1 X214.038 Y187.15 E10.38017
G1 X213.54 Y187.904 E10.3982
G1 X212.977 Y188.61 E10.41622
G1 X212.354 Y189.263 E10.43423
G1 X211.675 Y189.859 E10.45226
G1 X210.946 Y190.393 E10.47029
G1 X209.776 Y191.065 E10.49722
G1 X209.124 Y191.382 E10.51169
G1 X203.137 Y194.173 E10.64351
G1 X202.427 Y194.492 E10.65904
G1 X201.588 Y194.825 E10.67706
G1 X200.722 Y195.083 E10.69509
G1 X199.837 Y195.263 E10.71311
G1 X198.94 Y195.364 E10.73112
G1 X198.037 Y195.386 E10.74915
G1 X197.136 Y195.327 E10.76717
G1 X196.243 Y195.189 E10.7852
G1 X194.938 Y194.836 E10.81218
G1 X194.307 Y194.618 E10.8255
G1 X182.734 Y190.406 E11.07127
G1 X180.289 Y189.556 E11.12293
G1 X177.844 Y188.78 E11.17412
G1 X175.423 Y188.089 E11.22437
G1 X172.909 Y187.448 E11.27614
G1 X170.455 Y186.894 E11.32635
G1 X167.988 Y186.41 E11.37652
G1 X165.494 Y185.994 E11.42697
G1 X162.949 Y185.644 E11.47824
G1 X160.419 Y185.368 E11.52903
G1 X157.894 Y185.164 E11.57958
G1 X155.389 Y185.034 E11.62964
G1 X151.866 Y184.967 E11.69996
G1 X148.145 Y184.966 E11.77421
G1 X147.404 Y184.955 E11.789
G1 X146.677 Y184.918 E11.80353
G1 X145.878 Y184.849 E11.81953
G1 X144.983 Y184.732 E11.83755
G1 X144.232 Y184.57 E11.85288
G1 X143.441 Y184.368 E11.86917
G1 X142.577 Y184.106 E11.88719
G1 X142.051 Y183.904 E11.89843
G1 X141.424 Y183.637 E11.91203
G1 X140.979 Y183.434 E11.92179
G1 X139.841 Y182.825 E11.94755
G1 X139.225 Y182.435 E11.9621
G1 X138.833 Y182.171 E11.97153
G1 X137.768 Y181.347 E11.9984
G1 X137.185 Y180.819 E12.0141
G1 X136.83 Y180.478 E12.02392
G1 X136.207 Y179.824 E12.04195
G1 X135.834 Y179.37 E12.05367
G1 X135.345 Y178.739 E12.0696
G1 X134.824 Y178.001 E12.08763
G1 X134.515 Y177.489 E12.09957
G1 X134.197 Y176.913 E12.1127
G1 X133.982 Y176.502 E12.12195
G1 X133.441 Y175.278 E12.14866
G1 X133.215 Y174.642 E12.16213
G1 X133.054 Y174.149 E12.17248
G1 X132.725 Y172.865 E12.19893
G1 X132.604 Y172.185 E12.21271
G1 X132.531 Y171.703 E12.22244
G1 X132.418 Y170.383 E12.24888
G1 X132.41 Y169.664 E12.26323
G1 X132.418 Y169.176 E12.27297
G1 X132.473 Y168.274 E12.291
G1 X132.558 Y167.652 E12.30353
G1 X132.692 Y166.855 E12.31966
G1 X132.881 Y165.972 E12.33768
G1 X133.034 Y165.444 E12.34865
G1 X133.256 Y164.77 E12.36281
G1 X133.416 Y164.324 E12.37227
G1 X133.931 Y163.133 E12.39816
G1 X134.27 Y162.486 E12.41274
G1 X134.516 Y162.047 E12.42278
G1 X135.232 Y160.943 E12.44904
G1 X135.649 Y160.392 E12.46283
G1 X135.946 Y160.021 E12.47231
G1 X136.817 Y159.065 E12.49812
G1 X137.381 Y158.532 E12.51361
G1 X137.748 Y158.206 E12.5234
G1 F1500 E6.0234
G1 F300 Z0.32
;MESH:sap 3(4 tane).STL
G0 F6000 X148.131 Y172.241 Z0.32
;TYPE:WALL-INNER
G1 F300 Z0.12
G1 F1500 E12.5234
G1 F1200 X147.27 Y172.278 E12.5406
G1 X146.452 Y172.022 E12.55771
G1 X145.925 Y171.634 E12.57077
G1 X145.636 Y171.327 E12.57918
G1 X145.285 Y170.806 E12.59172
G1 X145.125 Y170.193 E12.60436
G1 X145.088 Y169.766 E12.61291
G1 X145.124 Y169.344 E12.62137
G1 X145.227 Y168.942 E12.62965
G1 X145.395 Y168.562 E12.63794
G1 X145.629 Y168.213 E12.64632
G1 X145.915 Y167.909 E12.65465
G1 X146.417 Y167.526 E12.66725
G1 X147.022 Y167.331 E12.67994
G1 X147.434 Y167.272 E12.68824
G1 X147.942 Y167.284 E12.69838
G1 X148.274 Y167.354 E12.70516
G1 X148.712 Y167.529 E12.71457
G1 X149.076 Y167.753 E12.7231
G1 X149.423 Y168.057 E12.7323
G1 X149.635 Y168.317 E12.739
G1 X149.867 Y168.727 E12.7484
G1 X150.011 Y169.134 E12.75702
G1 X150.082 Y169.542 E12.76528
G1 X150.083 Y169.985 E12.77412
G1 X150.012 Y170.391 E12.78235
G1 X149.86 Y170.83 E12.79162
G1 X149.697 Y171.126 E12.79836
G1 X149.408 Y171.487 E12.80759
G1 X149.086 Y171.776 E12.81622
G1 X148.721 Y172.001 E12.82478
G1 X148.131 Y172.241 E12.83749
G0 F6000 X148.058 Y171.838
G1 F1200 X147.305 Y171.872 E12.85253
G1 X146.627 Y171.66 E12.86671
G1 X146.197 Y171.34 E12.87741
G1 X145.951 Y171.081 E12.88453
G1 X145.655 Y170.643 E12.89508
G1 X145.518 Y170.133 E12.90562
G1 X145.488 Y169.766 E12.91297
G1 X145.518 Y169.41 E12.9201
G1 X145.606 Y169.072 E12.92707
G1 X145.747 Y168.752 E12.93405
G1 X145.945 Y168.459 E12.94111
G1 X146.185 Y168.204 E12.94809
G1 X146.613 Y167.881 E12.95879
G1 X147.12 Y167.719 E12.96942
G1 X147.485 Y167.667 E12.97677
G1 X148.031 Y167.688 E12.98768
G1 X148.536 Y167.89 E12.99853
G1 X148.833 Y168.072 E13.00548
G1 X149.237 Y168.425 E13.01619
G1 X149.505 Y168.9 E13.02707
G1 X149.631 Y169.283 E13.03512
G1 X149.674 Y169.531 E13.04014
G1 X149.684 Y169.944 E13.04839
