;FLAVOR:Marlin
;TIME:465
;Filament used: 0.18284m
;Layer height: 0.12
;MINX:145.022
;MINY:160.514
;MINZ:0.12
;MAXX:204.976
;MAXY:189.486
;MAXZ:3.2
;TARGET_MACHINE.NAME:Creality Ender-5 Plus
;Generated with Cura_SteamEngine 5.6.0
M140 S60
M105
M190 S60
M104 S210
M105
M109 S210
M82 ;absolute extrusion mode
M201 X500.00 Y500.00 Z100.00 E5000.00 ;Setup machine max acceleration
M203 X500.00 Y500.00 Z10.00 E50.00 ;Setup machine max feedrate
M204 P500.00 R1000.00 T500.00 ;Setup Print/Retract/Travel acceleration
M205 X8.00 Y8.00 Z0.40 E5.00 ;Setup Jerk
M220 S100 ;Reset Feedrate
M221 S100 ;Reset Flowrate

G28 ;Home
M420 S1 Z2 ;Enable ABL using saved Mesh and Fade Height

G92 E0 ;Reset Extruder
G1 Z2.0 F3000 ;Move Z Axis up
G1 X10.1 Y20 Z0.28 F5000.0 ;Move to start position
G1 X10.1 Y200.0 Z0.28 F1500.0 E15 ;Draw the first line
G1 X10.4 Y200.0 Z0.28 F5000.0 ;Move to side a little
G1 X10.4 Y20 Z0.28 F1500.0 E30 ;Draw the second line
G92 E0 ;Reset Extruder
G1 Z2.0 F3000 ;Move Z Axis up

G92 E0
G92 E0
G1 F1500 E-6.5
;LAYER_COUNT:25
;LAYER:0
M107
G1 F300 Z0.32
G0 F6000 X149.698 Y164.34 Z0.32
;TYPE:SKIRT
G1 F300 Z0.12
G1 F1500 E0
G1 F1200 X150.192 Y163.908 E0.0131
G1 X150.948 Y163.305 E0.03239
G1 X151.609 Y162.857 E0.04833
G1 X152.127 Y162.535 E0.0605
G1 X152.944 Y162.077 E0.07919
G1 X153.776 Y161.698 E0.09744
G1 X154.355 Y161.464 E0.1099
G1 X155.271 Y161.141 E0.12928
G1 X156.065 Y160.934 E0.14566
G1 X156.673 Y160.798 E0.15809
G1 X157.562 Y160.64 E0.17611
G1 X158.521 Y160.552 E0.19533
G1 X159.158 Y160.524 E0.20805
G1 X160.121 Y160.524 E0.22727
G1 X160.803 Y160.576 E0.24092
G1 X161.391 Y160.643 E0.25273
G1 X162.999 Y160.86 E0.28511
G1 X165.59 Y161.174 E0.33719
G1 X168.082 Y161.403 E0.38713
G1 X170.557 Y161.56 E0.43663
G1 X173.125 Y161.651 E0.4879
G1 X175.621 Y161.67 E0.53772
G1 X178.158 Y161.615 E0.58836
G1 X180.653 Y161.492 E0.63821
G1 X183.153 Y161.296 E0.68825
G1 X185.703 Y161.027 E0.73942
G1 X186.959 Y160.858 E0.76471
G1 X187.139 Y160.842 E0.76832
G1 X188.617 Y160.641 E0.79808
G1 X189.258 Y160.57 E0.81095
G1 X190.261 Y160.514 E0.831
G1 X190.913 Y160.525 E0.84402
G1 X191.493 Y160.553 E0.8556
G1 X192.488 Y160.648 E0.87555
G1 X193.142 Y160.76 E0.88879
G1 X193.868 Y160.914 E0.9036
G1 X194.184 Y160.992 E0.9101
G1 X195.107 Y161.263 E0.92929
G1 X195.714 Y161.491 E0.94223
G1 X196.288 Y161.727 E0.95462
G1 X197.166 Y162.136 E0.97395
G1 X197.876 Y162.539 E0.99024
G1 X198.387 Y162.856 E1.00224
G1 X199.202 Y163.415 E1.02196
G1 X199.868 Y163.959 E1.03912
G1 X200.343 Y164.38 E1.05179
G1 X201.041 Y165.057 E1.0712
G1 X201.613 Y165.716 E1.08861
G1 X202.003 Y166.203 E1.10106
G1 X202.574 Y166.988 E1.12043
G1 X203.025 Y167.731 E1.13778
G1 X203.323 Y168.271 E1.15009
G1 X203.751 Y169.141 E1.16943
G1 X204.059 Y169.922 E1.18619
G1 X204.272 Y170.528 E1.19901
G1 X204.533 Y171.392 E1.21702
G1 X204.726 Y172.302 E1.23558
G1 X204.827 Y172.9 E1.24769
G1 X204.944 Y173.862 E1.26702
G1 X204.976 Y174.666 E1.28308
G1 X204.976 Y175.343 E1.29659
G1 X204.93 Y176.312 E1.31595
G1 X204.816 Y177.177 E1.33336
G1 X204.711 Y177.787 E1.34571
G1 X204.518 Y178.669 E1.36373
G1 X204.243 Y179.563 E1.3824
G1 X204.03 Y180.16 E1.39505
G1 X203.663 Y181.057 E1.41439
G1 X203.296 Y181.781 E1.43059
G1 X203 Y182.313 E1.44274
G1 X202.489 Y183.14 E1.46214
G1 X201.986 Y183.82 E1.47902
G1 X201.569 Y184.336 E1.49225
G1 X200.926 Y185.063 E1.51162
G1 X200.314 Y185.648 E1.52852
G1 X199.85 Y186.058 E1.54088
G1 X199.106 Y186.657 E1.55994
G1 X198.359 Y187.162 E1.57793
G1 X197.842 Y187.481 E1.59005
G1 X196.994 Y187.952 E1.60941
G1 X196.251 Y188.289 E1.62569
G1 X195.669 Y188.527 E1.63824
G1 X194.754 Y188.851 E1.65761
G1 X193.935 Y189.066 E1.67451
G1 X193.327 Y189.202 E1.68694
G1 X192.438 Y189.36 E1.70496
G1 X191.479 Y189.448 E1.72418
G1 X190.842 Y189.476 E1.7369
G1 X189.879 Y189.476 E1.75612
G1 X189.197 Y189.424 E1.76977
G1 X188.609 Y189.357 E1.78158
G1 X187.001 Y189.14 E1.81396
G1 X184.41 Y188.826 E1.86605
G1 X181.918 Y188.597 E1.91599
G1 X179.443 Y188.44 E1.96548
G1 X176.875 Y188.349 E2.01676
G1 X174.379 Y188.33 E2.06657
G1 X171.842 Y188.385 E2.11721
G1 X169.347 Y188.508 E2.16706
G1 X166.847 Y188.704 E2.2171
G1 X164.297 Y188.973 E2.26827
G1 X163.041 Y189.142 E2.29356
G1 X162.861 Y189.158 E2.29717
G1 X161.383 Y189.359 E2.32694
G1 X160.742 Y189.43 E2.33981
G1 X159.739 Y189.486 E2.35985
G1 X159.087 Y189.475 E2.37287
G1 X158.507 Y189.447 E2.38446
G1 X157.512 Y189.352 E2.4044
G1 X156.858 Y189.24 E2.41764
G1 X156.132 Y189.086 E2.43245
G1 X155.816 Y189.008 E2.43895
G1 X154.921 Y188.746 E2.45756
G1 X154.287 Y188.509 E2.47107
G1 X153.708 Y188.271 E2.48356
G1 X152.858 Y187.877 E2.50226
G1 X152.087 Y187.438 E2.51996
G1 X151.561 Y187.11 E2.53233
G1 X150.789 Y186.579 E2.55103
G1 X150.126 Y186.038 E2.56811
G1 X149.682 Y185.645 E2.57994
G1 X148.978 Y184.962 E2.59951
G1 X148.533 Y184.46 E2.6129
G1 X148.048 Y183.865 E2.62822
G1 X147.855 Y183.612 E2.63457
G1 X147.321 Y182.848 E2.65317
G1 X146.984 Y182.282 E2.66632
G1 X146.687 Y181.746 E2.67855
G1 X146.272 Y180.912 E2.69714
G1 X146.023 Y180.306 E2.71021
G1 X145.772 Y179.614 E2.7249
G1 X145.666 Y179.289 E2.73172
G1 X145.408 Y178.361 E2.75094
G1 X145.276 Y177.699 E2.76442
G1 X145.169 Y177.063 E2.77729
G1 X145.053 Y176.1 E2.79664
G1 X145.022 Y175.239 E2.81384
G1 X145.024 Y174.619 E2.82621
G1 X145.07 Y173.683 E2.84491
G1 X145.187 Y172.805 E2.86259
G1 X145.294 Y172.19 E2.87504
G1 X145.497 Y171.275 E2.89375
G1 X145.768 Y170.406 E2.91191
G1 X145.979 Y169.819 E2.92436
G1 X146.355 Y168.906 E2.94407
G1 X146.726 Y168.179 E2.96035
G1 X147.016 Y167.661 E2.9722
G1 X147.527 Y166.838 E2.99153
G1 X148.009 Y166.188 E3.00768
G1 X148.401 Y165.699 E3.02019
G1 X149.043 Y164.967 E3.03962
G1 X149.698 Y164.34 E3.05771
G0 F6000 X149.962 Y164.641
G1 F1200 X150.442 Y164.22 E3.07045
G1 X151.172 Y163.636 E3.08911
G1 X151.82 Y163.197 E3.10473
G1 X152.323 Y162.884 E3.11655
G1 X153.14 Y162.426 E3.13524
G1 X153.926 Y162.069 E3.15247
G1 X154.489 Y161.841 E3.16459
G1 X155.372 Y161.528 E3.18329
G1 X156.152 Y161.324 E3.19938
G1 X156.743 Y161.192 E3.21146
G1 X157.632 Y161.034 E3.22948
G1 X158.539 Y160.952 E3.24766
G1 X159.158 Y160.924 E3.26002
G1 X160.091 Y160.923 E3.27864
G1 X160.758 Y160.973 E3.29199
G1 X161.337 Y161.039 E3.30362
G1 X162.951 Y161.257 E3.33612
G1 X165.542 Y161.571 E3.3882
G1 X168.053 Y161.802 E3.43853
G1 X170.543 Y161.96 E3.48832
G1 X173.111 Y162.051 E3.5396
G1 X175.627 Y162.07 E3.58981
G1 X178.178 Y162.015 E3.64073
G1 X180.673 Y161.892 E3.69058
G1 X183.19 Y161.695 E3.74096
G1 X185.745 Y161.424 E3.79223
G1 X186.995 Y161.256 E3.8174
G1 X187.185 Y161.239 E3.82121
G1 X188.661 Y161.039 E3.85093
G1 X189.302 Y160.968 E3.8638
G1 X190.254 Y160.914 E3.88283
G1 X190.894 Y160.925 E3.89561
G1 X191.474 Y160.953 E3.9072
G1 X192.421 Y161.042 E3.92618
G1 X193.059 Y161.151 E3.93909
G1 X193.772 Y161.302 E3.95364
G1 X194.072 Y161.376 E3.9598
G1 X194.967 Y161.638 E3.97841
G1 X195.562 Y161.861 E3.99109
G1 X196.12 Y162.09 E4.00313
G1 X196.969 Y162.484 E4.02181
G1 X197.665 Y162.879 E4.03778
G1 X198.161 Y163.186 E4.04942
G1 X198.949 Y163.725 E4.06847
G1 X199.603 Y164.258 E4.08531
G1 X200.065 Y164.667 E4.09762
G1 X200.739 Y165.319 E4.11634
G1 X201.301 Y165.966 E4.13344
G1 X201.68 Y166.439 E4.14553
G1 X202.232 Y167.196 E4.16423
G1 X202.675 Y167.924 E4.18124
G1 X202.964 Y168.448 E4.19318
G1 X203.379 Y169.288 E4.21188
G1 X203.682 Y170.055 E4.22833
G1 X203.889 Y170.644 E4.24079
G1 X204.15 Y171.508 E4.25881
G1 X204.332 Y172.369 E4.27637
G1 X204.43 Y172.949 E4.28811
G1 X204.544 Y173.878 E4.30678
G1 X204.576 Y174.682 E4.32284
G1 X204.576 Y175.325 E4.33567
G1 X204.533 Y176.26 E4.35435
G1 X204.422 Y177.109 E4.37144
G1 X204.32 Y177.701 E4.38343
G1 X204.127 Y178.583 E4.40144
G1 X203.866 Y179.429 E4.41911
G1 X203.66 Y180.009 E4.4314
G1 X203.306 Y180.876 E4.45008
G1 X202.946 Y181.587 E4.46599
G1 X202.659 Y182.103 E4.47777
G1 X202.167 Y182.902 E4.4965
G1 X201.664 Y183.582 E4.51338
G1 X201.269 Y184.071 E4.52592
G1 X200.649 Y184.774 E4.54463
G1 X200.049 Y185.348 E4.5612
G1 X199.599 Y185.746 E4.57318
G1 X198.855 Y186.345 E4.59225
G1 X198.149 Y186.822 E4.60925
G1 X197.647 Y187.132 E4.62102
G1 X196.829 Y187.588 E4.63971
G1 X196.099 Y187.919 E4.65571
G1 X195.535 Y188.15 E4.66787
G1 X194.652 Y188.464 E4.68657
G1 X193.848 Y188.676 E4.70317
G1 X193.257 Y188.808 E4.71525
G1 X192.368 Y188.966 E4.73327
G1 X191.461 Y189.048 E4.75144
G1 X190.842 Y189.076 E4.76381
G1 X189.909 Y189.077 E4.78243
G1 X189.242 Y189.027 E4.79578
G1 X188.663 Y188.961 E4.80741
G1 X187.049 Y188.743 E4.83991
G1 X184.458 Y188.429 E4.89199
G1 X181.947 Y188.198 E4.94231
G1 X179.457 Y188.04 E4.9921
G1 X176.889 Y187.949 E5.04338
G1 X174.373 Y187.93 E5.09359
G1 X171.822 Y187.985 E5.14451
G1 X169.327 Y188.108 E5.19436
G1 X166.81 Y188.305 E5.24475
G1 X164.255 Y188.576 E5.29602
G1 X163.005 Y188.744 E5.32119
G1 X162.815 Y188.761 E5.325
G1 X161.339 Y188.961 E5.35472
G1 X160.698 Y189.032 E5.36759
G1 X159.746 Y189.086 E5.38662
G1 X159.106 Y189.075 E5.39939
G1 X158.526 Y189.047 E5.41098
G1 X157.579 Y188.958 E5.42996
G1 X156.941 Y188.849 E5.44288
G1 X156.228 Y188.698 E5.45742
G1 X155.928 Y188.624 E5.46359
G1 X155.033 Y188.362 E5.4822
G1 X154.439 Y188.139 E5.49486
G1 X153.876 Y187.908 E5.50701
G1 X153.026 Y187.514 E5.5257
G1 X152.299 Y187.099 E5.54241
G1 X151.788 Y186.78 E5.55443
G1 X151.016 Y186.249 E5.57313
G1 X150.391 Y185.738 E5.58924
G1 X149.947 Y185.345 E5.60107
G1 X149.277 Y184.696 E5.61969
G1 X148.843 Y184.207 E5.63274
G1 X148.366 Y183.622 E5.6478
G1 X148.183 Y183.383 E5.65381
G1 X147.665 Y182.643 E5.67183
G1 X147.334 Y182.088 E5.68473
G1 X147.045 Y181.567 E5.69662
G1 X146.642 Y180.759 E5.71464
G1 X146.399 Y180.17 E5.72735
G1 X146.152 Y179.489 E5.74181
G1 X146.051 Y179.181 E5.74828
G1 X145.8 Y178.282 E5.7669
G1 X145.67 Y177.633 E5.78011
G1 X145.566 Y177.015 E5.79262
G1 X145.453 Y176.085 E5.81131
G1 X145.422 Y175.24 E5.82819
G1 X145.424 Y174.639 E5.84018
G1 X145.47 Y173.703 E5.85888
G1 X145.581 Y172.874 E5.87557
G1 X145.685 Y172.277 E5.88767
G1 X145.888 Y171.362 E5.90637
G1 X146.145 Y170.541 E5.92354
G1 X146.349 Y169.971 E5.93562
G1 X146.711 Y169.088 E5.95466
G1 X147.075 Y168.374 E5.97066
G1 X147.356 Y167.872 E5.98214
G1 X147.849 Y167.076 E6.00082
G1 X148.321 Y166.438 E6.01666
G1 X148.702 Y165.962 E6.02883
G1 X149.32 Y165.256 E6.04755
G1 X149.962 Y164.641 E6.06529
G0 F6000 X150.239 Y164.93
G1 F1200 X150.692 Y164.532 E6.07733
G1 X151.396 Y163.967 E6.09534
G1 X152.031 Y163.537 E6.11065
G1 X152.519 Y163.233 E6.12212
G1 X153.306 Y162.79 E6.14014
G1 X154.076 Y162.44 E6.15702
G1 X154.623 Y162.218 E6.1688
G1 X155.474 Y161.915 E6.18683
G1 X156.239 Y161.714 E6.20261
G1 X156.813 Y161.586 E6.21435
G1 X157.702 Y161.428 E6.23237
G1 X158.558 Y161.352 E6.24952
G1 X159.159 Y161.324 E6.26153
G1 X160.062 Y161.322 E6.27955
G1 X160.713 Y161.37 E6.29257
G1 X161.283 Y161.435 E6.30402
G1 X162.903 Y161.654 E6.33664
G1 X165.494 Y161.968 E6.38873
G1 X168.024 Y162.201 E6.43943
G1 X170.529 Y162.36 E6.48952
G1 X173.097 Y162.451 E6.5408
G1 X175.633 Y162.47 E6.59141
G1 X178.198 Y162.415 E6.64261
G1 X180.693 Y162.292 E6.69246
G1 X183.227 Y162.094 E6.74318
G1 X185.787 Y161.822 E6.79456
G1 X187.031 Y161.654 E6.81961
G1 X187.231 Y161.636 E6.82362
G1 X188.705 Y161.437 E6.8533
G1 X189.346 Y161.366 E6.86617
G1 X190.247 Y161.314 E6.88418
G1 X190.875 Y161.325 E6.89671
G1 X191.455 Y161.353 E6.9083
G1 X192.354 Y161.436 E6.92632
G1 X192.976 Y161.542 E6.93891
G1 X193.677 Y161.691 E6.95321
G1 X193.96 Y161.76 E6.95903
G1 X194.827 Y162.013 E6.97705
G1 X195.41 Y162.231 E6.98947
G1 X195.952 Y162.453 E7.00116
G1 X196.772 Y162.832 E7.01919
G1 X197.454 Y163.219 E7.03483
G1 X197.95 Y163.526 E7.04648
G1 X198.696 Y164.035 E7.0645
G1 X199.338 Y164.558 E7.08102
G1 X199.787 Y164.955 E7.09298
G1 X200.437 Y165.582 E7.11101
G1 X200.989 Y166.216 E7.12778
G1 X201.357 Y166.675 E7.13952
G1 X201.89 Y167.404 E7.15754
G1 X202.325 Y168.118 E7.17423
G1 X202.606 Y168.626 E7.18581
G1 X203.007 Y169.435 E7.20383
G1 X203.305 Y170.187 E7.21997
G1 X203.506 Y170.76 E7.23209
G1 X203.767 Y171.624 E7.2501
G1 X203.938 Y172.436 E7.26666
G1 X204.033 Y172.998 E7.27804
G1 X204.144 Y173.894 E7.29606
G1 X204.176 Y174.698 E7.31211
G1 X204.176 Y175.307 E7.32427
G1 X204.136 Y176.209 E7.34228
G1 X204.028 Y177.041 E7.35903
G1 X203.929 Y177.615 E7.37065
G1 X203.736 Y178.497 E7.38867
G1 X203.489 Y179.295 E7.40534
G1 X203.289 Y179.858 E7.41726
G1 X202.949 Y180.695 E7.43529
G1 X202.596 Y181.393 E7.4509
G1 X202.318 Y181.894 E7.46233
G1 X201.845 Y182.664 E7.48037
G1 X201.342 Y183.344 E7.49725
G1 X200.969 Y183.807 E7.50911
G1 X200.372 Y184.485 E7.52714
G1 X199.784 Y185.048 E7.54339
G1 X199.334 Y185.446 E7.55538
G1 X198.631 Y186.014 E7.57341
G1 X197.939 Y186.482 E7.59008
G1 X197.452 Y186.783 E7.60151
G1 X196.663 Y187.224 E7.61955
G1 X195.948 Y187.549 E7.63522
G1 X195.4 Y187.773 E7.64703
G1 X194.55 Y188.077 E7.66505
G1 X193.761 Y188.286 E7.68134
G1 X193.187 Y188.414 E7.69307
G1 X192.298 Y188.572 E7.71109
G1 X191.442 Y188.648 E7.72824
G1 X190.841 Y188.676 E7.74025
G1 X189.938 Y188.678 E7.75827
G1 X189.287 Y188.63 E7.77129
G1 X188.717 Y188.565 E7.78274
G1 X187.097 Y188.346 E7.81537
G1 X184.506 Y188.032 E7.86745
G1 X181.976 Y187.799 E7.91815
G1 X179.471 Y187.64 E7.96824
G1 X176.903 Y187.549 E8.01952
G1 X174.367 Y187.53 E8.07013
G1 X171.802 Y187.585 E8.12133
G1 X169.307 Y187.708 E8.17118
G1 X166.773 Y187.906 E8.22191
G1 X164.213 Y188.178 E8.27328
G1 X162.969 Y188.346 E8.29833
G1 X162.769 Y188.364 E8.30234
G1 X161.295 Y188.563 E8.33202
G1 X160.654 Y188.634 E8.34489
G1 X159.753 Y188.686 E8.3629
G1 X159.125 Y188.675 E8.37544
G1 X158.545 Y188.647 E8.38702
G1 X157.646 Y188.564 E8.40504
G1 X157.024 Y188.458 E8.41763
G1 X156.323 Y188.309 E8.43193
G1 X156.04 Y188.24 E8.43775
G1 X155.173 Y187.987 E8.45577
G1 X154.591 Y187.769 E8.46817
G1 X154.044 Y187.545 E8.47997
G1 X153.224 Y187.166 E8.498
G1 X152.511 Y186.76 E8.51437
G1 X152.014 Y186.45 E8.52606
G1 X151.269 Y185.939 E8.54409
G1 X150.656 Y185.438 E8.55989
G1 X150.225 Y185.057 E8.57137
G1 X149.576 Y184.43 E8.58938
G1 X149.153 Y183.954 E8.60208
G1 X148.683 Y183.378 E8.61692
G1 X148.511 Y183.154 E8.62256
G1 X147.993 Y182.414 E8.64058
G1 X147.684 Y181.894 E8.65265
G1 X147.403 Y181.388 E8.6642
G1 X147 Y180.58 E8.68222
G1 X146.775 Y180.033 E8.69402
G1 X146.532 Y179.364 E8.70823
G1 X146.436 Y179.073 E8.71434
G1 X146.192 Y178.203 E8.73238
G1 X146.064 Y177.567 E8.74532
G1 X145.963 Y176.966 E8.75748
G1 X145.853 Y176.07 E8.7755
G1 X145.822 Y175.241 E8.79205
G1 X145.824 Y174.658 E8.80369
G1 X145.867 Y173.756 E8.82171
G1 X145.975 Y172.943 E8.83808
G1 X146.076 Y172.363 E8.84982
G1 X146.27 Y171.481 E8.86785
G1 X146.522 Y170.676 E8.88468
G1 X146.726 Y170.106 E8.89676
G1 X147.067 Y169.27 E8.91478
G1 X147.424 Y168.569 E8.93048
G1 X147.696 Y168.082 E8.94161
G1 X148.171 Y167.314 E8.95963
G1 X148.633 Y166.688 E8.97516
G1 X149.003 Y166.225 E8.98698
G1 X149.597 Y165.545 E9.005
G1 X150.239 Y164.93 E9.02275
G1 F1500 E2.52275
G1 F300 Z0.32
;MESH:Sap 1(4 tane).STL
G0 F6000 X161.503 Y173.483 Z0.32
;TYPE:WALL-INNER
G1 F300 Z0.12
G1 F1500 E9.02275
G1 F1263.2 X161.388 Y173.355 E9.02601
G1 F1240.3 X161.135 Y173.115 E9.03274
G1 F1200 X160.785 Y172.861 E9.04137
G1 F1197 X160.411 Y172.678 E9.0497
G1 F1230.8 X160.012 Y172.547 E9.05787
G1 F1233.9 X159.587 Y172.507 E9.06616
G1 F1230.8 X159.164 Y172.516 E9.07439
G1 F1227.6 X158.758 Y172.618 E9.08255
G1 F1194 X158.364 Y172.778 E9.09108
G1 X158.009 Y172.998 E9.09946
G1 F1197 X157.692 Y173.279 E9.10793
G1 F1200 X157.427 Y173.61 E9.1164
G1 F1218.3 X157.21 Y173.964 E9.12456
G1 X157.085 Y174.375 E9.133
G1 F1200 X157.014 Y174.791 E9.14142
G1 F1197 X157.014 Y175.207 E9.14975
G1 F1194 X157.085 Y175.625 E9.15825
G1 F1212.1 X157.216 Y176.047 E9.16698
G1 F1209.1 X157.427 Y176.39 E9.17496
G1 F1191.1 X157.693 Y176.721 E9.18349
G1 F1197 X158.01 Y177.002 E9.19197
G1 F1215.2 X158.366 Y177.243 E9.20044
G1 X158.758 Y177.383 E9.20864
G1 X159.174 Y177.492 E9.21712
G1 F1212.1 X159.587 Y177.493 E9.22528
G1 F1230.8 X160.012 Y177.453 E9.23358
G1 F1233.9 X160.411 Y177.323 E9.24173
G1 F1197 X160.784 Y177.139 E9.25005
G1 F1170.7 X161.203 Y176.836 E9.26062
G1 F1121.5 X161.665 Y176.311 E9.27556
G1 F1500 E2.77556
G1 F300 Z0.32
