;FLAVOR:Marlin
;TIME:1660
;Filament used: 0.681113m
;Layer height: 0.12
;MINX:99.411
;MINY:149.792
;MINZ:0.12
;MAXX:251.389
;MAXY:188.917
;MAXZ:2.88
;TARGET_MACHINE.NAME:Creality Ender-5 Plus
;Generated with Cura_SteamEngine 5.6.0
M140 S60
M105
M190 S60
M104 S200
M105
M109 S200
M82 ;absolute extrusion mode
M201 X500.00 Y500.00 Z100.00 E5000.00 ;Setup machine max acceleration
M203 X500.00 Y500.00 Z10.00 E50.00 ;Setup machine max feedrate
M204 P500.00 R1000.00 T500.00 ;Setup Print/Retract/Travel acceleration
M205 X8.00 Y8.00 Z0.40 E5.00 ;Setup Jerk
M220 S100 ;Reset Feedrate
M221 S100 ;Reset Flowrate

G28 ;Home
M420 S1 Z2 ;Enable ABL using saved Mesh and Fade Height

G92 E0 ;Reset Extruder
G1 Z2.0 F3000 ;Move Z Axis up
G1 X10.1 Y20 Z0.28 F5000.0 ;Move to start position
G1 X10.1 Y200.0 Z0.28 F1500.0 E15 ;Draw the first line
G1 X10.4 Y200.0 Z0.28 F5000.0 ;Move to side a little
G1 X10.4 Y20 Z0.28 F1500.0 E30 ;Draw the second line
G92 E0 ;Reset Extruder
G1 Z2.0 F3000 ;Move Z Axis up

G92 E0
G92 E0
G1 F1500 E-6.5
;LAYER_COUNT:24
;LAYER:0
M107
G0 F6000 X104.409 Y151.802 Z0.12
;TYPE:SKIRT
G1 F1500 E0
G1 F1200 X105.248 Y151.306 E0.01945
G1 X106.062 Y150.915 E0.03747
G1 X107.039 Y150.547 E0.05831
G1 X107.943 Y150.297 E0.07702
G1 X108.945 Y150.114 E0.09735
G1 X110.092 Y150.019 E0.12032
G1 X110.741 Y150.005 E0.13327
G1 X112.81 Y150.006 E0.17456
G1 X113.529 Y150.016 E0.18891
G1 X114.121 Y150.042 E0.20074
G1 X114.744 Y150.085 E0.2132
G1 X116.44 Y150.23 E0.24717
G1 X118.94 Y150.369 E0.29714
G1 X121.479 Y150.44 E0.34782
G1 X123.969 Y150.438 E0.39751
G1 X126.538 Y150.365 E0.4488
G1 X129.022 Y150.222 E0.49845
G1 X131.154 Y150.05 E0.54114
G1 X131.66 Y150.02 E0.55125
G1 X132.258 Y150.006 E0.56319
G1 X134.313 Y150.005 E0.6042
G1 X135.187 Y150.016 E0.62164
G1 X135.627 Y150.033 E0.63043
G1 X138.196 Y150.176 E0.68178
G1 X140.75 Y150.248 E0.73277
G1 X143.239 Y150.248 E0.78244
G1 X145.794 Y150.176 E0.83345
G1 X148.465 Y150.03 E0.88683
G1 X149.057 Y150.01 E0.89865
G1 X151.368 Y150.005 E0.94477
G1 X152.242 Y150.016 E0.96221
G1 X152.838 Y150.043 E0.97412
G1 X154.048 Y150.128 E0.99832
G1 X154.718 Y150.187 E1.01174
G1 X157.202 Y150.325 E1.06139
G1 X159.737 Y150.396 E1.112
G1 X162.228 Y150.396 E1.16171
G1 X164.792 Y150.323 E1.2129
G1 X167.253 Y150.183 E1.26209
G1 X169.753 Y149.963 E1.31217
G1 X171.546 Y149.839 E1.34804
G1 X172.694 Y149.795 E1.37097
G1 X173.315 Y149.792 E1.38336
G1 X174.217 Y149.814 E1.40137
G1 X174.994 Y149.851 E1.41689
G1 X176.057 Y149.929 E1.43816
G1 X177.599 Y150.093 E1.4691
G1 X180.254 Y150.35 E1.52234
G1 X182.709 Y150.517 E1.57144
G1 X185.276 Y150.619 E1.62271
G1 X187.737 Y150.647 E1.67182
G1 X190.275 Y150.603 E1.72248
G1 X192.838 Y150.487 E1.77368
G1 X195.277 Y150.308 E1.82248
G1 X199.214 Y149.894 E1.90148
G1 X199.69 Y149.855 E1.91101
G1 X200.466 Y149.819 E1.92652
G1 X201.644 Y149.805 E1.95003
G1 X202.531 Y149.821 E1.96773
G1 X203.489 Y149.866 E1.98687
G1 X203.93 Y149.899 E1.9957
G1 X206.641 Y150.154 E2.05004
G1 X209.158 Y150.319 E2.10037
G1 X211.681 Y150.413 E2.15076
G1 X214.215 Y150.437 E2.20133
G1 X216.688 Y150.388 E2.25069
G1 X219.26 Y150.266 E2.30207
G1 X222.153 Y150.046 E2.35997
G1 X222.671 Y150.018 E2.37033
G1 X223.295 Y150.005 E2.38278
G1 X225.364 Y150.006 E2.42407
G1 X226.381 Y150.024 E2.44437
G1 X227.305 Y150.063 E2.46282
G1 X229.9 Y150.137 E2.51463
G1 X232.389 Y150.137 E2.5643
G1 X234.946 Y150.066 E2.61535
G1 X235.563 Y150.034 E2.62768
G1 X236.587 Y150.007 E2.64812
G1 X239.708 Y150.005 E2.7104
G1 X240.592 Y150.018 E2.72805
G1 X241.566 Y150.077 E2.74752
G1 X242.527 Y150.224 E2.76692
G1 X243.473 Y150.455 E2.78635
G1 X244.396 Y150.768 E2.8058
G1 X245.286 Y151.162 E2.82523
G1 X246.139 Y151.633 E2.84467
G1 X246.946 Y152.178 E2.86411
G1 X247.701 Y152.791 E2.88351
G1 X248.4 Y153.469 E2.90295
G1 X249.037 Y154.207 E2.9224
G1 X249.606 Y154.997 E2.94183
G1 X250.069 Y155.773 E2.95986
G1 X250.521 Y156.714 E2.9807
G1 X250.863 Y157.627 E3.00015
G1 X251.113 Y158.531 E3.01887
G1 X251.295 Y159.523 E3.039
G1 X251.385 Y160.493 E3.05844
G1 X251.389 Y161.467 E3.07787
G1 X251.315 Y162.367 E3.0959
G1 X251.188 Y163.15 E3.11173
G1 X250.975 Y164.223 E3.13356
G1 X250.818 Y164.956 E3.14852
G1 X250.369 Y167.383 E3.19777
G1 X249.974 Y169.914 E3.24889
G1 X249.659 Y172.388 E3.29866
G1 X249.413 Y174.888 E3.34879
G1 X249.18 Y178.443 E3.41989
G1 X249.081 Y179.341 E3.43792
G1 X248.874 Y180.366 E3.45879
G1 X248.595 Y181.299 E3.47822
G1 X248.235 Y182.204 E3.49766
G1 X247.798 Y183.072 E3.51705
G1 X247.324 Y183.841 E3.53508
G1 X246.697 Y184.679 E3.55596
G1 X246.045 Y185.402 E3.57539
G1 X245.332 Y186.065 E3.59482
G1 X244.564 Y186.663 E3.61424
G1 X243.744 Y187.191 E3.63371
G1 X242.882 Y187.643 E3.65313
G1 X241.983 Y188.017 E3.67256
G1 X241.055 Y188.31 E3.69198
G1 X240.105 Y188.522 E3.71141
G1 X239.21 Y188.641 E3.72943
G1 X238.429 Y188.685 E3.74504
G1 X237.183 Y188.708 E3.76991
G1 X235.102 Y188.707 E3.81143
G1 X234.199 Y188.694 E3.82946
G1 X231.595 Y188.619 E3.88144
G1 X229.096 Y188.619 E3.93131
G1 X225.884 Y188.704 E3.99543
G1 X223.513 Y188.707 E4.04275
G1 X222.507 Y188.689 E4.06283
G1 X220.563 Y188.59 E4.10167
G1 X218.013 Y188.518 E4.15258
G1 X215.519 Y188.517 E4.20235
G1 X212.953 Y188.589 E4.25358
G1 X210.726 Y188.696 E4.29807
G1 X210.213 Y188.708 E4.30831
G1 X208.141 Y188.707 E4.34966
G1 X207.079 Y188.687 E4.37086
G1 X205.536 Y188.614 E4.40169
G1 X202.949 Y188.539 E4.45334
G1 X200.461 Y188.537 E4.50299
G1 X197.909 Y188.608 E4.55393
G1 X196.134 Y188.694 E4.5894
G1 X195.475 Y188.708 E4.60255
G1 X193.435 Y188.707 E4.64326
G1 X192.721 Y188.697 E4.65751
G1 X192.125 Y188.671 E4.66942
G1 X190.97 Y188.589 E4.69252
G1 X188.402 Y188.444 E4.74385
G1 X185.863 Y188.371 E4.79454
G1 X183.373 Y188.371 E4.84423
G1 X180.839 Y188.442 E4.89482
G1 X178.372 Y188.581 E4.94413
G1 X177.047 Y188.701 E4.97068
G1 X175.261 Y188.838 E5.00643
G1 X174.318 Y188.892 E5.02528
G1 X173.236 Y188.917 E5.04688
G1 X172.691 Y188.913 E5.05775
G1 X171.416 Y188.864 E5.08321
G1 X170.686 Y188.817 E5.09781
G1 X170.009 Y188.753 E5.11138
G1 X167.224 Y188.395 E5.16742
G1 X164.757 Y188.142 E5.21691
G1 X162.254 Y187.961 E5.26699
G1 X159.712 Y187.847 E5.31777
G1 X157.179 Y187.804 E5.36832
G1 X154.714 Y187.834 E5.41752
G1 X152.146 Y187.937 E5.46881
G1 X149.657 Y188.107 E5.51859
G1 X147.207 Y188.345 E5.56772
G1 X145.734 Y188.539 E5.59737
G1 X145.48 Y188.561 E5.60245
G1 X144.206 Y188.717 E5.62807
G1 X142.979 Y188.796 E5.6526
G1 X141.592 Y188.806 E5.68028
G1 X140.641 Y188.793 E5.69926
G1 X139.779 Y188.745 E5.71649
G1 X138.964 Y188.665 E5.73284
G1 X137.59 Y188.509 E5.76043
G1 X135.055 Y188.29 E5.81121
G1 X132.593 Y188.15 E5.86042
G1 X130.033 Y188.077 E5.91153
G1 X127.543 Y188.075 E5.96122
G1 X125.003 Y188.146 E6.01193
G1 X122.534 Y188.285 E6.06128
G1 X119.896 Y188.508 E6.11411
G1 X119.121 Y188.588 E6.12966
G1 X118.627 Y188.628 E6.13955
G1 X117.725 Y188.671 E6.15757
G1 X116.011 Y188.706 E6.19178
G1 X110.96 Y188.707 E6.29258
G1 X110.227 Y188.695 E6.30721
G1 X109.255 Y188.636 E6.32664
G1 X108.292 Y188.49 E6.34608
G1 X107.345 Y188.259 E6.36553
G1 X106.457 Y187.959 E6.38424
G1 X105.565 Y187.569 E6.40366
G1 X104.682 Y187.082 E6.42379
G1 X103.931 Y186.58 E6.44181
G1 X103.116 Y185.922 E6.46272
G1 X102.418 Y185.244 E6.48214
G1 X101.782 Y184.507 E6.50156
G1 X101.212 Y183.717 E6.521
G1 X100.75 Y182.941 E6.53903
G1 X100.296 Y181.999 E6.55989
G1 X99.967 Y181.121 E6.57861
G1 X99.698 Y180.148 E6.59875
G1 X99.521 Y179.181 E6.61837
G1 X99.425 Y178.016 E6.6417
G1 X99.411 Y177.366 E6.65467
G1 X99.412 Y161.514 E6.97102
G1 X99.424 Y160.813 E6.98501
G1 X99.484 Y159.84 E7.00446
G1 X99.631 Y158.879 E7.02386
G1 X99.862 Y157.931 E7.04333
G1 X100.164 Y157.042 E7.06207
G1 X100.571 Y156.12 E7.08218
G1 X101.042 Y155.268 E7.10161
G1 X101.587 Y154.459 E7.12108
G1 X102.178 Y153.731 E7.13979
G1 X102.88 Y153.006 E7.15993
G1 X103.59 Y152.392 E7.17866
G1 X104.409 Y151.802 E7.1988
G0 F6000 X104.613 Y152.146
G1 F1200 X105.421 Y151.667 E7.21755
G1 X106.235 Y151.276 E7.23557
G1 X107.146 Y150.933 E7.255
G1 X108.05 Y150.683 E7.27371
G1 X108.978 Y150.513 E7.29254
G1 X110.125 Y150.418 E7.31551
G1 X110.741 Y150.405 E7.3278
G1 X112.804 Y150.406 E7.36897
G1 X113.512 Y150.416 E7.3831
G1 X114.093 Y150.441 E7.39471
G1 X114.71 Y150.484 E7.40705
G1 X116.406 Y150.628 E7.44102
G1 X118.929 Y150.769 E7.49145
G1 X121.468 Y150.84 E7.54214
G1 X123.98 Y150.838 E7.59226
G1 X126.549 Y150.765 E7.64355
G1 X129.054 Y150.621 E7.69363
G1 X131.178 Y150.449 E7.73615
G1 X131.67 Y150.42 E7.74599
G1 X132.258 Y150.406 E7.75772
G1 X134.308 Y150.405 E7.79863
G1 X135.172 Y150.416 E7.81588
G1 X135.605 Y150.432 E7.82452
G1 X138.185 Y150.576 E7.87609
G1 X140.739 Y150.648 E7.92708
G1 X143.25 Y150.648 E7.97719
G1 X145.805 Y150.576 E8.0282
G1 X148.479 Y150.43 E8.08164
G1 X149.058 Y150.41 E8.0932
G1 X151.363 Y150.405 E8.1392
G1 X152.224 Y150.416 E8.15638
G1 X152.81 Y150.442 E8.16809
G1 X154.014 Y150.527 E8.19218
G1 X154.684 Y150.585 E8.2056
G1 X157.191 Y150.725 E8.2557
G1 X159.726 Y150.796 E8.30631
G1 X162.239 Y150.796 E8.35646
G1 X164.803 Y150.723 E8.40765
G1 X167.278 Y150.582 E8.45712
G1 X169.781 Y150.362 E8.50726
G1 X171.562 Y150.239 E8.54289
G1 X172.696 Y150.195 E8.56554
G1 X173.305 Y150.192 E8.57769
G1 X174.198 Y150.214 E8.59552
G1 X174.965 Y150.25 E8.61084
G1 X176.015 Y150.327 E8.63185
G1 X177.557 Y150.491 E8.6628
G1 X180.221 Y150.749 E8.71621
G1 X182.693 Y150.917 E8.76565
G1 X185.26 Y151.019 E8.81692
G1 X187.739 Y151.047 E8.8664
G1 X190.293 Y151.003 E8.91737
G1 X192.856 Y150.887 E8.96857
G1 X195.318 Y150.706 E9.01783
G1 X199.247 Y150.293 E9.09667
G1 X199.709 Y150.255 E9.10593
G1 X200.471 Y150.219 E9.12115
G1 X201.637 Y150.205 E9.14442
G1 X202.512 Y150.221 E9.16188
G1 X203.46 Y150.265 E9.18082
G1 X203.893 Y150.297 E9.18949
G1 X206.615 Y150.553 E9.24405
G1 X209.143 Y150.719 E9.2946
G1 X211.666 Y150.813 E9.34499
G1 X214.219 Y150.837 E9.39594
G1 X216.707 Y150.788 E9.4456
G1 X219.279 Y150.666 E9.49698
G1 X222.174 Y150.445 E9.55492
G1 X222.679 Y150.418 E9.56502
G1 X223.295 Y150.405 E9.57731
G1 X225.357 Y150.406 E9.61846
G1 X226.364 Y150.424 E9.63856
G1 X227.288 Y150.463 E9.65702
G1 X229.889 Y150.537 E9.70894
G1 X232.4 Y150.537 E9.75905
G1 X234.957 Y150.466 E9.8101
G1 X235.574 Y150.434 E9.82243
G1 X236.587 Y150.407 E9.84265
G1 X239.702 Y150.405 E9.90482
G1 X240.568 Y150.417 E9.9221
G1 X241.506 Y150.473 E9.94085
G1 X242.433 Y150.613 E9.95956
G1 X243.345 Y150.834 E9.97829
G1 X244.235 Y151.134 E9.99703
G1 X245.093 Y151.512 E10.01574
G1 X245.916 Y151.965 E10.03449
G1 X246.694 Y152.489 E10.05321
G1 X247.423 Y153.079 E10.07192
G1 X248.098 Y153.731 E10.09065
G1 X248.713 Y154.441 E10.1094
G1 X249.262 Y155.202 E10.12812
G1 X249.725 Y155.978 E10.14616
G1 X250.147 Y156.855 E10.16558
G1 X250.477 Y157.734 E10.18431
G1 X250.727 Y158.638 E10.20303
G1 X250.897 Y159.561 E10.22176
G1 X250.985 Y160.495 E10.24048
G1 X250.99 Y161.434 E10.25922
G1 X250.916 Y162.334 E10.27724
G1 X250.796 Y163.072 E10.29216
G1 X250.584 Y164.139 E10.31387
G1 X250.427 Y164.872 E10.32883
G1 X249.976 Y167.31 E10.37831
G1 X249.577 Y169.863 E10.42988
G1 X249.262 Y172.337 E10.47965
G1 X249.015 Y174.849 E10.53002
G1 X248.782 Y178.399 E10.60102
G1 X248.683 Y179.297 E10.61904
G1 X248.491 Y180.252 E10.63848
G1 X248.223 Y181.152 E10.65722
G1 X247.878 Y182.024 E10.67594
G1 X247.457 Y182.862 E10.69465
G1 X246.983 Y183.631 E10.71268
G1 X246.399 Y184.412 E10.73214
G1 X245.772 Y185.11 E10.75087
G1 X245.086 Y185.75 E10.76959
G1 X244.347 Y186.327 E10.7883
G1 X243.558 Y186.837 E10.80705
G1 X242.728 Y187.274 E10.82577
G1 X241.862 Y187.636 E10.8445
G1 X240.968 Y187.92 E10.86322
G1 X240.052 Y188.125 E10.88195
G1 X239.157 Y188.244 E10.89997
G1 X238.422 Y188.285 E10.91466
G1 X237.183 Y188.308 E10.93939
G1 X235.108 Y188.307 E10.98079
G1 X234.211 Y188.294 E10.9987
G1 X231.607 Y188.219 E11.05068
G1 X229.085 Y188.219 E11.10101
G1 X225.883 Y188.304 E11.16494
G1 X223.52 Y188.307 E11.21209
G1 X222.524 Y188.289 E11.23197
G1 X221.729 Y188.255 E11.24785
G1 X220.574 Y188.19 E11.27094
G1 X218.024 Y188.118 E11.32185
G1 X215.508 Y188.117 E11.37205
G1 X212.934 Y188.189 E11.42344
G1 X210.716 Y188.296 E11.46776
G1 X210.213 Y188.308 E11.4778
G1 X208.149 Y188.307 E11.51899
G1 X207.098 Y188.287 E11.53996
G1 X205.555 Y188.214 E11.57079
G1 X202.961 Y188.139 E11.62258
G1 X200.45 Y188.137 E11.67269
G1 X197.89 Y188.208 E11.72379
G1 X196.125 Y188.294 E11.75906
G1 X195.475 Y188.308 E11.77203
G1 X193.441 Y188.307 E11.81262
G1 X192.738 Y188.297 E11.82665
G1 X192.153 Y188.272 E11.83834
G1 X190.998 Y188.19 E11.86145
G1 X188.413 Y188.044 E11.91312
G1 X185.874 Y187.971 E11.96381
G1 X183.362 Y187.971 E12.01393
G1 X180.828 Y188.042 E12.06452
G1 X178.344 Y188.182 E12.11417
G1 X177.016 Y188.302 E12.14078
G1 X175.238 Y188.439 E12.17637
G1 X174.309 Y188.492 E12.19494
G1 X173.239 Y188.517 E12.2163
G1 X172.706 Y188.513 E12.22693
G1 X171.442 Y188.465 E12.25218
G1 X170.724 Y188.419 E12.26654
G1 X170.06 Y188.356 E12.27985
G1 X167.275 Y187.998 E12.33588
G1 X164.794 Y187.744 E12.38565
G1 X162.272 Y187.561 E12.43611
G1 X159.73 Y187.447 E12.48689
G1 X157.181 Y187.404 E12.53777
G1 X154.698 Y187.434 E12.58732
G1 X152.13 Y187.537 E12.63861
G1 X149.624 Y187.708 E12.68874
G1 X147.155 Y187.948 E12.73824
G1 X145.699 Y188.14 E12.76755
G1 X145.445 Y188.162 E12.77264
G1 X144.18 Y188.318 E12.79807
G1 X142.976 Y188.396 E12.82215
G1 X141.597 Y188.406 E12.84967
G1 X140.663 Y188.394 E12.86831
G1 X139.818 Y188.347 E12.8852
G1 X139.009 Y188.268 E12.90142
G1 X137.624 Y188.11 E12.92924
G1 X135.089 Y187.892 E12.98001
G1 X132.604 Y187.75 E13.02968
G1 X130.044 Y187.677 E13.08079
G1 X127.532 Y187.675 E13.13092
G1 X124.992 Y187.746 E13.18163
G1 X122.5 Y187.886 E13.23144
G1 X119.862 Y188.109 E13.28427
G1 X119.089 Y188.189 E13.29978
G1 X118.608 Y188.228 E13.30941
G1 X117.717 Y188.271 E13.32721
G1 X116.011 Y188.306 E13.36126
G1 X110.966 Y188.307 E13.46194
G1 X110.251 Y188.296 E13.47621
G1 X109.314 Y188.24 E13.49495
G1 X108.386 Y188.101 E13.51367
G1 X107.473 Y187.88 E13.53242
G1 X106.617 Y187.592 E13.55044
G1 X105.725 Y187.202 E13.56987
G1 X104.904 Y186.749 E13.58858
G1 X104.153 Y186.247 E13.60661
G1 X103.394 Y185.635 E13.62607
G1 X102.72 Y184.982 E13.64479
G1 X102.106 Y184.273 E13.66351
G1 X101.556 Y183.512 E13.68225
G1 X101.094 Y182.736 E13.70027
G1 X100.671 Y181.859 E13.7197
G1 X100.342 Y180.981 E13.73841
G1 X100.091 Y180.076 E13.75715
G1 X99.92 Y179.148 E13.77599
G1 X99.824 Y177.983 E13.79931
G1 X99.811 Y177.366 E13.81163
G1 X99.812 Y161.52 E14.12785
G1 X99.823 Y160.837 E14.14148
G1 X99.88 Y159.9 E14.16022
G1 X100.02 Y158.973 E14.17893
G1 X100.241 Y158.06 E14.19767
G1 X100.543 Y157.171 E14.21641
G1 X100.921 Y156.313 E14.23512
G1 X101.374 Y155.491 E14.25385
G1 X101.898 Y154.711 E14.2726
G1 X102.489 Y153.983 E14.29131
G1 X103.142 Y153.309 E14.31004
G1 X103.852 Y152.695 E14.32877
G1 X104.613 Y152.146 E14.3475
G0 F6000 X104.818 Y152.49
G1 F1200 X105.594 Y152.028 E14.36552
G1 X106.408 Y151.637 E14.38354
G1 X107.253 Y151.318 E14.40157
G1 X108.123 Y151.076 E14.41959
G1 X109.011 Y150.912 E14.43761
G1 X110.134 Y150.818 E14.4601
G1 X110.741 Y150.805 E14.47222
G1 X112.798 Y150.806 E14.51327
G1 X113.495 Y150.816 E14.52718
G1 X114.065 Y150.84 E14.53856
G1 X114.676 Y150.883 E14.55078
G1 X116.372 Y151.026 E14.58475
G1 X118.918 Y151.169 E14.63564
G1 X121.457 Y151.24 E14.68633
G1 X123.991 Y151.238 E14.7369
G1 X126.56 Y151.165 E14.78818
G1 X129.086 Y151.02 E14.83868
G1 X131.201 Y150.848 E14.88102
G1 X131.68 Y150.82 E14.8906
G1 X132.258 Y150.806 E14.90214
G1 X134.303 Y150.805 E14.94295
G1 X135.158 Y150.816 E14.96001
G1 X135.583 Y150.831 E14.9685
G1 X138.174 Y150.976 E15.02028
G1 X140.728 Y151.048 E15.07127
G1 X143.261 Y151.048 E15.12182
G1 X145.816 Y150.976 E15.17283
G1 X148.493 Y150.83 E15.22633
G1 X149.059 Y150.81 E15.23763
G1 X151.358 Y150.805 E15.28351
G1 X152.207 Y150.816 E15.30045
G1 X152.782 Y150.841 E15.31194
G1 X153.98 Y150.926 E15.33591
G1 X154.65 Y150.983 E15.34933
G1 X157.18 Y151.125 E15.3999
G1 X159.715 Y151.196 E15.4505
G1 X162.25 Y151.196 E15.50109
G1 X164.814 Y151.123 E15.55228
G1 X167.303 Y150.981 E15.60203
G1 X169.809 Y150.761 E15.65223
G1 X171.578 Y150.639 E15.68762
G1 X172.698 Y150.595 E15.70999
