;FLAVOR:Marlin
;TIME:726
;Filament used: 0.318231m
;Layer height: 0.12
;MINX:162.956
;MINY:131.5
;MINZ:0.12
;MAXX:187.044
;MAXY:218.5
;MAXZ:4.16
;TARGET_MACHINE.NAME:Creality Ender-5 Plus
;Generated with Cura_SteamEngine 5.6.0
M140 S60
M105
M190 S60
M104 S210
M105
M109 S210
M82 ;absolute extrusion mode
M201 X500.00 Y500.00 Z100.00 E5000.00 ;Setup machine max acceleration
M203 X500.00 Y500.00 Z10.00 E50.00 ;Setup machine max feedrate
M204 P500.00 R1000.00 T500.00 ;Setup Print/Retract/Travel acceleration
M205 X8.00 Y8.00 Z0.40 E5.00 ;Setup Jerk
M220 S100 ;Reset Feedrate
M221 S100 ;Reset Flowrate

G28 ;Home
M420 S1 Z2 ;Enable ABL using saved Mesh and Fade Height

G92 E0 ;Reset Extruder
G1 Z2.0 F3000 ;Move Z Axis up
G1 X10.1 Y20 Z0.28 F5000.0 ;Move to start position
G1 X10.1 Y200.0 Z0.28 F1500.0 E15 ;Draw the first line
G1 X10.4 Y200.0 Z0.28 F5000.0 ;Move to side a little
G1 X10.4 Y20 Z0.28 F1500.0 E30 ;Draw the second line
G92 E0 ;Reset Extruder
G1 Z2.0 F3000 ;Move Z Axis up

G92 E0
G92 E0
G1 F1500 E-6.5
;LAYER_COUNT:33
;LAYER:0
M107
G1 F300 Z0.32
G0 F6000 X165.687 Y135.265 Z0.32
;TYPE:SKIRT
G1 F300 Z0.12
G1 F1500 E0
G1 F1200 X166.412 Y134.513 E0.02085
G1 X167.148 Y133.876 E0.04027
G1 X167.88 Y133.346 E0.05831
G1 X168.777 Y132.811 E0.07915
G1 X169.655 Y132.39 E0.09858
G1 X170.568 Y132.048 E0.11804
G1 X171.505 Y131.789 E0.13744
G1 X172.472 Y131.611 E0.15706
G1 X173.61 Y131.515 E0.17985
G1 X174.267 Y131.5 E0.19296
G1 X175.347 Y131.5 E0.21452
G1 X176.227 Y131.513 E0.23208
G1 X177.199 Y131.572 E0.25151
G1 X178.162 Y131.718 E0.27095
G1 X179.109 Y131.949 E0.2904
G1 X179.997 Y132.249 E0.30911
G1 X180.889 Y132.639 E0.32853
G1 X181.772 Y133.126 E0.34866
G1 X182.523 Y133.628 E0.36668
G1 X183.338 Y134.286 E0.38759
G1 X184.036 Y134.964 E0.40701
G1 X184.672 Y135.701 E0.42643
G1 X185.242 Y136.491 E0.44587
G1 X185.704 Y137.267 E0.4639
G1 X186.158 Y138.209 E0.48477
G1 X186.487 Y139.087 E0.50348
G1 X186.756 Y140.059 E0.5236
G1 X186.933 Y141.025 E0.5432
G1 X187.028 Y142.151 E0.56575
G1 X187.043 Y142.825 E0.57921
G1 X187.044 Y206.785 E1.8556
G1 X187.032 Y207.665 E1.87316
G1 X186.975 Y208.638 E1.89261
G1 X186.83 Y209.6 E1.91202
G1 X186.601 Y210.548 E1.93149
G1 X186.29 Y211.469 E1.95089
G1 X185.929 Y212.297 E1.96891
G1 X185.428 Y213.214 E1.98976
G1 X184.885 Y214.023 E2.00921
G1 X184.273 Y214.779 E2.02862
G1 X183.596 Y215.481 E2.04808
G1 X182.887 Y216.096 E2.06681
G1 X182.099 Y216.668 E2.08624
G1 X181.232 Y217.185 E2.10639
G1 X180.354 Y217.606 E2.12582
G1 X179.442 Y217.949 E2.14526
G1 X178.504 Y218.209 E2.16469
G1 X177.538 Y218.388 E2.18429
G1 X176.39 Y218.485 E2.20729
G1 X175.659 Y218.5 E2.22188
G1 X173.874 Y218.491 E2.2575
G1 X172.972 Y218.446 E2.27552
G1 X171.937 Y218.302 E2.29637
G1 X171.057 Y218.099 E2.3144
G1 X170.063 Y217.775 E2.33526
G1 X169.17 Y217.39 E2.35467
G1 X168.374 Y216.964 E2.37268
G1 X167.5 Y216.389 E2.39356
G1 X166.739 Y215.782 E2.41299
G1 X166.033 Y215.11 E2.43244
G1 X165.391 Y214.379 E2.45185
G1 X164.814 Y213.593 E2.47131
G1 X164.311 Y212.76 E2.49073
G1 X163.883 Y211.886 E2.51015
G1 X163.534 Y210.977 E2.52958
G1 X163.265 Y210.041 E2.54902
G1 X163.092 Y209.155 E2.56703
G1 X162.969 Y207.762 E2.59494
G1 X162.957 Y207.131 E2.60753
G1 X162.956 Y143.164 E3.88407
G1 X162.968 Y142.325 E3.90081
G1 X163.026 Y141.352 E3.92026
G1 X163.172 Y140.389 E3.9397
G1 X163.402 Y139.443 E3.95913
G1 X163.715 Y138.52 E3.97858
G1 X164.107 Y137.63 E3.99798
G1 X164.577 Y136.777 E4.01742
G1 X165.12 Y135.969 E4.03685
G1 X165.687 Y135.265 E4.05489
G0 F6000 X165.999 Y135.516
G1 F1200 X166.674 Y134.815 E4.07431
G1 X167.383 Y134.2 E4.09304
G1 X168.115 Y133.67 E4.11107
G1 X168.951 Y133.171 E4.1305
G1 X169.796 Y132.764 E4.14922
G1 X170.675 Y132.433 E4.16796
G1 X171.578 Y132.182 E4.18667
G1 X172.506 Y132.01 E4.2055
G1 X173.644 Y131.914 E4.22829
G1 X174.276 Y131.9 E4.24091
G1 X175.341 Y131.9 E4.26216
G1 X176.203 Y131.912 E4.27936
G1 X177.14 Y131.968 E4.2981
G1 X178.068 Y132.107 E4.31682
G1 X178.981 Y132.328 E4.33557
G1 X179.837 Y132.616 E4.35359
G1 X180.729 Y133.006 E4.37302
G1 X181.55 Y133.459 E4.39173
G1 X182.301 Y133.961 E4.40976
G1 X183.06 Y134.573 E4.42922
G1 X183.734 Y135.226 E4.44794
G1 X184.348 Y135.935 E4.46666
G1 X184.898 Y136.696 E4.4854
G1 X185.36 Y137.472 E4.50342
G1 X185.783 Y138.349 E4.52285
G1 X186.112 Y139.227 E4.54156
G1 X186.363 Y140.132 E4.5603
G1 X186.534 Y141.059 E4.57912
G1 X186.629 Y142.185 E4.60167
G1 X186.643 Y142.825 E4.61444
G1 X186.644 Y206.78 E5.89073
G1 X186.633 Y207.642 E5.90794
G1 X186.579 Y208.579 E5.92667
G1 X186.441 Y209.507 E5.94539
G1 X186.222 Y210.42 E5.96413
G1 X185.923 Y211.309 E5.98284
G1 X185.562 Y212.137 E6.00087
G1 X185.096 Y212.992 E6.0203
G1 X184.574 Y213.772 E6.03903
G1 X183.985 Y214.502 E6.05775
G1 X183.333 Y215.179 E6.07651
G1 X182.652 Y215.772 E6.09453
G1 X181.864 Y216.344 E6.11396
G1 X181.058 Y216.825 E6.13269
G1 X180.213 Y217.232 E6.15141
G1 X179.335 Y217.564 E6.17014
G1 X178.431 Y217.816 E6.18887
G1 X177.504 Y217.989 E6.20769
G1 X176.356 Y218.086 E6.23068
G1 X175.661 Y218.1 E6.24455
G1 X173.894 Y218.091 E6.27981
G1 X172.992 Y218.046 E6.29783
G1 X172.027 Y217.912 E6.31728
G1 X171.147 Y217.709 E6.3353
G1 X170.221 Y217.407 E6.35474
G1 X169.359 Y217.037 E6.37346
G1 X168.563 Y216.611 E6.39147
G1 X167.749 Y216.076 E6.41091
G1 X167.014 Y215.492 E6.42965
G1 X166.333 Y214.846 E6.44838
G1 X165.713 Y214.142 E6.4671
G1 X165.156 Y213.386 E6.48584
G1 X164.67 Y212.583 E6.50457
G1 X164.256 Y211.742 E6.52328
G1 X163.918 Y210.866 E6.54201
G1 X163.658 Y209.964 E6.56075
G1 X163.485 Y209.078 E6.57876
G1 X163.369 Y207.754 E6.60528
G1 X163.357 Y207.131 E6.61772
G1 X163.356 Y143.169 E7.89415
G1 X163.367 Y142.348 E7.91054
G1 X163.422 Y141.411 E7.92927
G1 X163.561 Y140.483 E7.94799
G1 X163.781 Y139.571 E7.96671
G1 X164.081 Y138.681 E7.98546
G1 X164.458 Y137.822 E8.00418
G1 X164.909 Y137 E8.02289
G1 X165.432 Y136.22 E8.04163
G1 X165.999 Y135.516 E8.05967
G0 F6000 X166.311 Y135.767
G1 F1200 X166.937 Y135.117 E8.07768
G1 X167.618 Y134.524 E8.0957
G1 X168.35 Y133.994 E8.11373
G1 X169.125 Y133.531 E8.13175
G1 X169.938 Y133.138 E8.14977
G1 X170.783 Y132.818 E8.1678
G1 X171.652 Y132.575 E8.18581
G1 X172.54 Y132.409 E8.20384
G1 X173.678 Y132.313 E8.22663
G1 X174.285 Y132.3 E8.23874
G1 X175.336 Y132.3 E8.25972
G1 X176.18 Y132.311 E8.27656
G1 X177.082 Y132.364 E8.29459
G1 X177.975 Y132.496 E8.31261
G1 X178.853 Y132.707 E8.33063
G1 X179.709 Y132.995 E8.34865
G1 X180.536 Y133.357 E8.36667
G1 X181.328 Y133.792 E8.3847
G1 X182.079 Y134.294 E8.40272
G1 X182.782 Y134.861 E8.42075
G1 X183.432 Y135.488 E8.43877
G1 X184.024 Y136.17 E8.45679
G1 X184.554 Y136.901 E8.47481
G1 X185.016 Y137.677 E8.49283
G1 X185.409 Y138.49 E8.51086
G1 X185.727 Y139.335 E8.52887
G1 X185.97 Y140.205 E8.5469
G1 X186.135 Y141.093 E8.56492
G1 X186.23 Y142.219 E8.58747
G1 X186.243 Y142.825 E8.59957
G1 X186.244 Y206.775 E9.87576
G1 X186.234 Y207.619 E9.89261
G1 X186.183 Y208.521 E9.91063
G1 X186.052 Y209.414 E9.92865
G1 X185.843 Y210.293 E9.94668
G1 X185.556 Y211.149 E9.96469
G1 X185.195 Y211.977 E9.98272
G1 X184.763 Y212.77 E10.00074
G1 X184.262 Y213.521 E10.01876
G1 X183.696 Y214.225 E10.03678
G1 X183.07 Y214.877 E10.05482
G1 X182.389 Y215.47 E10.07284
G1 X181.659 Y216.001 E10.09086
G1 X180.884 Y216.465 E10.10888
G1 X180.071 Y216.858 E10.1269
G1 X179.227 Y217.179 E10.14492
G1 X178.357 Y217.423 E10.16295
G1 X177.47 Y217.59 E10.18097
G1 X176.322 Y217.687 E10.20396
G1 X175.663 Y217.7 E10.21711
G1 X173.914 Y217.691 E10.25201
G1 X173.012 Y217.646 E10.27004
G1 X172.117 Y217.522 E10.28807
G1 X171.237 Y217.319 E10.30609
G1 X170.378 Y217.039 E10.32412
G1 X169.548 Y216.684 E10.34214
G1 X168.752 Y216.258 E10.36015
G1 X167.997 Y215.762 E10.37818
G1 X167.289 Y215.202 E10.39619
G1 X166.633 Y214.581 E10.41422
G1 X166.035 Y213.904 E10.43225
G1 X165.498 Y213.178 E10.45027
G1 X165.029 Y212.406 E10.46829
G1 X164.629 Y211.597 E10.4863
G1 X164.302 Y210.755 E10.50433
G1 X164.051 Y209.887 E10.52236
G1 X163.878 Y209.001 E10.54038
G1 X163.769 Y207.746 E10.56552
G1 X163.757 Y207.131 E10.57779
G1 X163.756 Y143.174 E11.85412
G1 X163.766 Y142.371 E11.87015
G1 X163.818 Y141.469 E11.88818
G1 X163.95 Y140.576 E11.90619
G1 X164.16 Y139.698 E11.92421
G1 X164.447 Y138.841 E11.94224
G1 X164.809 Y138.014 E11.96026
G1 X165.242 Y137.222 E11.97827
G1 X165.744 Y136.471 E11.9963
G1 X166.311 Y135.767 E12.01434
G1 F1500 E5.51434
G1 F300 Z0.32
;MESH:Pin 2(2 tane).STL
G0 F6000 X175.229 Y207.271 Z0.32
;TYPE:WALL-OUTER
G1 F300 Z0.12
G1 F1500 E12.01434
G1 F1048 X174.772 Y207.271 E12.02478
G1 X174.771 Y142.729 E13.49955
G1 X175.228 Y142.729 E13.50999
G1 X175.229 Y207.271 E14.98476
G1 F1500 E8.48476
G1 F300 Z0.32
;MESH:NONMESH
G0 F6000 X166.311 Y135.767 Z0.32
;TIME_ELAPSED:44.824448
;LAYER:1
M106 S85
G0 F9000 X166.311 Y135.767 Z0.44
;TYPE:SKIRT
G1 F300 Z0.24
G1 F1500 E14.98476
G1 F1200 X166.937 Y135.117 E15.00276
G1 X167.618 Y134.524 E15.02078
G1 X168.35 Y133.994 E15.03882
G1 X169.125 Y133.531 E15.05684
G1 X169.938 Y133.138 E15.07486
G1 X170.783 Y132.818 E15.09289
G1 X171.652 Y132.575 E15.11089
G1 X172.54 Y132.409 E15.12892
G1 X173.678 Y132.313 E15.15171
G1 X174.285 Y132.3 E15.16383
G1 X175.336 Y132.3 E15.1848
G1 X176.18 Y132.311 E15.20165
G1 X177.082 Y132.364 E15.21968
G1 X177.975 Y132.496 E15.23769
G1 X178.853 Y132.707 E15.25571
G1 X179.709 Y132.995 E15.27374
G1 X180.536 Y133.357 E15.29175
G1 X181.328 Y133.792 E15.30978
G1 X182.079 Y134.294 E15.32781
G1 X182.782 Y134.861 E15.34583
G1 X183.432 Y135.488 E15.36386
G1 X184.024 Y136.17 E15.38188
G1 X184.554 Y136.901 E15.3999
G1 X185.016 Y137.677 E15.41792
G1 X185.409 Y138.49 E15.43594
G1 X185.727 Y139.335 E15.45396
G1 X185.97 Y140.205 E15.47199
G1 X186.135 Y141.093 E15.49001
G1 X186.23 Y142.219 E15.51256
G1 X186.243 Y142.825 E15.52466
G1 X186.244 Y206.775 E16.80085
G1 X186.234 Y207.619 E16.81769
G1 X186.183 Y208.521 E16.83572
G1 X186.052 Y209.414 E16.85373
G1 X185.843 Y210.293 E16.87176
G1 X185.556 Y211.149 E16.88978
G1 X185.195 Y211.977 E16.90781
G1 X184.763 Y212.77 E16.92583
G1 X184.262 Y213.521 E16.94384
G1 X183.696 Y214.225 E16.96187
G1 X183.07 Y214.877 E16.97991
G1 X182.389 Y215.47 E16.99793
G1 X181.659 Y216.001 E17.01594
G1 X180.884 Y216.465 E17.03397
G1 X180.071 Y216.858 E17.05199
G1 X179.227 Y217.179 E17.07001
G1 X178.357 Y217.423 E17.08804
G1 X177.47 Y217.59 E17.10605
G1 X176.322 Y217.687 E17.12904
G1 X175.663 Y217.7 E17.1422
G1 X173.914 Y217.691 E17.1771
G1 X173.012 Y217.646 E17.19512
G1 X172.117 Y217.522 E17.21315
G1 X171.237 Y217.319 E17.23118
G1 X170.378 Y217.039 E17.24921
G1 X169.548 Y216.684 E17.26722
G1 X168.752 Y216.258 E17.28524
G1 X167.997 Y215.762 E17.30327
G1 X167.289 Y215.202 E17.32128
G1 X166.633 Y214.581 E17.33931
G1 X166.035 Y213.904 E17.35733
G1 X165.498 Y213.178 E17.37535
G1 X165.029 Y212.406 E17.39338
G1 X164.629 Y211.597 E17.41139
G1 X164.302 Y210.755 E17.42942
G1 X164.051 Y209.887 E17.44745
G1 X163.878 Y209.001 E17.46546
G1 X163.769 Y207.746 E17.4906
G1 X163.757 Y207.131 E17.50288
G1 X163.756 Y143.174 E18.77921
G1 X163.766 Y142.371 E18.79523
G1 X163.818 Y141.469 E18.81326
G1 X163.95 Y140.576 E18.83128
G1 X164.16 Y139.698 E18.84929
G1 X164.447 Y138.841 E18.86733
G1 X164.809 Y138.014 E18.88535
G1 X165.242 Y137.222 E18.90336
G1 X165.744 Y136.471 E18.92139
G1 X166.311 Y135.767 E18.93942
G1 F1500 E12.43942
G1 F300 Z0.44
;MESH:Pin 2(2 tane).STL
G0 F9000 X175.206 Y206.894 Z0.44
;TYPE:WALL-INNER
G1 F300 Z0.24
G1 F1500 E18.93942
G1 F1747.6 X175.205 Y143.106 E20.25057
G1 X174.794 Y143.106 E20.25902
G1 X174.795 Y206.894 E21.57017
G1 X175.206 Y206.894 E21.57862
G0 F9000 X174.389 Y207.3
;TYPE:WALL-OUTER
G1 F1800 X175.612 Y207.3 E21.60302
G1 X175.611 Y142.7 E22.89218
G1 X174.388 Y142.7 E22.91659
G1 X174.389 Y207.3 E24.20575
G1 F1500 E17.70575
G1 F300 Z0.44
;MESH:NONMESH
G0 F9000 X166.311 Y135.767 Z0.44
;TIME_ELAPSED:66.324147
;LAYER:2
M106 S170
G0 F12000 X166.311 Y135.767 Z0.56
;TYPE:SKIRT
G1 F300 Z0.36
G1 F1500 E24.20575
G1 F1200 X166.937 Y135.117 E24.22376
G1 X167.618 Y134.524 E24.24178
G1 X168.35 Y133.994 E24.25982
G1 X169.125 Y133.531 E24.27783
G1 X169.938 Y133.138 E24.29585
G1 X170.783 Y132.818 E24.31389
G1 X171.652 Y132.575 E24.33189
G1 X172.54 Y132.409 E24.34992
G1 X173.678 Y132.313 E24.37271
G1 X174.285 Y132.3 E24.38483
G1 X175.336 Y132.3 E24.4058
G1 X176.18 Y132.311 E24.42265
G1 X177.082 Y132.364 E24.44068
G1 X177.975 Y132.496 E24.45869
G1 X178.853 Y132.707 E24.47671
G1 X179.709 Y132.995 E24.49474
G1 X180.536 Y133.357 E24.51275
G1 X181.328 Y133.792 E24.53078
G1 X182.079 Y134.294 E24.54881
G1 X182.782 Y134.861 E24.56683
G1 X183.432 Y135.488 E24.58486
G1 X184.024 Y136.17 E24.60288
G1 X184.554 Y136.901 E24.6209
G1 X185.016 Y137.677 E24.63892
G1 X185.409 Y138.49 E24.65694
G1 X185.727 Y139.335 E24.67496
G1 X185.97 Y140.205 E24.69298
G1 X186.135 Y141.093 E24.71101
G1 X186.23 Y142.219 E24.73356
G1 X186.243 Y142.825 E24.74565
G1 X186.244 Y206.775 E26.02185
G1 X186.234 Y207.619 E26.03869
G1 X186.183 Y208.521 E26.05672
G1 X186.052 Y209.414 E26.07473
G1 X185.843 Y210.293 E26.09276
G1 X185.556 Y211.149 E26.11078
G1 X185.195 Y211.977 E26.1288
G1 X184.763 Y212.77 E26.14683
G1 X184.262 Y213.521 E26.16484
G1 X183.696 Y214.225 E26.18287
G1 X183.07 Y214.877 E26.20091
G1 X182.389 Y215.47 E26.21893
G1 X181.659 Y216.001 E26.23694
G1 X180.884 Y216.465 E26.25497
G1 X180.071 Y216.858 E26.27299
G1 X179.227 Y217.179 E26.29101
G1 X178.357 Y217.423 E26.30904
G1 X177.47 Y217.59 E26.32705
G1 X176.322 Y217.687 E26.35004
G1 X175.663 Y217.7 E26.36319
G1 X173.914 Y217.691 E26.3981
G1 X173.012 Y217.646 E26.41612
G1 X172.117 Y217.522 E26.43415
G1 X171.237 Y217.319 E26.45218
G1 X170.378 Y217.039 E26.47021
G1 X169.548 Y216.684 E26.48822
G1 X168.752 Y216.258 E26.50624
G1 X167.997 Y215.762 E26.52426
G1 X167.289 Y215.202 E26.54228
G1 X166.633 Y214.581 E26.56031
G1 X166.035 Y213.904 E26.57833
G1 X165.498 Y213.178 E26.59635
G1 X165.029 Y212.406 E26.61438
G1 X164.629 Y211.597 E26.63239
G1 X164.302 Y210.755 E26.65041
G1 X164.051 Y209.887 E26.66845
G1 X163.878 Y209.001 E26.68646
G1 X163.769 Y207.746 E26.7116
G1 X163.757 Y207.131 E26.72388
G1 X163.756 Y143.174 E28.00021
G1 X163.766 Y142.371 E28.01623
G1 X163.818 Y141.469 E28.03426
G1 X163.95 Y140.576 E28.05228
G1 X164.16 Y139.698 E28.07029
G1 X164.447 Y138.841 E28.08833
G1 X164.809 Y138.014 E28.10634
G1 X165.242 Y137.222 E28.12436
G1 X165.744 Y136.471 E28.14238
G1 X166.311 Y135.767 E28.16042
G1 F1500 E21.66042
G1 F300 Z0.56
;MESH:Pin 2(2 tane).STL
G0 F12000 X175 Y143.543 Z0.56
;TYPE:WALL-INNER
G1 F300 Z0.36
G1 F1500 E28.16042
G1 F1967.2 X175 Y206.457 E29.69215
G0 F12000 X175.444 Y206.9
G1 F2400 X175.443 Y143.1 E30.96535
G1 X174.556 Y143.1 E30.98305
G1 X174.557 Y206.9 E32.25625
G1 X175.444 Y206.9 E32.27395
G0 F12000 X174.157 Y207.3
;TYPE:WALL-OUTER
G1 F2400 X175.844 Y207.3 E32.30762
G1 X175.843 Y142.7 E33.59678
G1 X174.156 Y142.7 E33.63045
G1 X174.157 Y207.3 E34.91961
;MESH:NONMESH
G0 F300 X174.157 Y207.3 Z0.48
G0 F12000 X175.211 Y206.49
;TIME_ELAPSED:86.383755
;LAYER:3
M106 S255
;TYPE:WALL-INNER
;MESH:Pin 2(2 tane).STL
G1 F2280.3 X175.21 Y143.51 E36.24243
G1 X174.789 Y143.51 E36.25127
G1 X174.79 Y206.49 E37.57409
G1 X175.211 Y206.49 E37.58293
G0 F12000 X175.621 Y206.9
G1 F2400 X175.62 Y143.1 E38.85613
G1 X174.379 Y143.1 E38.88089
G1 X174.38 Y206.9 E40.15409
G1 X175.621 Y206.9 E40.17886
G1 F1500 E33.67886
G1 F300 Z0.68
G0 F12000 X173.98 Y207.3 Z0.68
;TYPE:WALL-OUTER
G1 F300 Z0.48
G1 F1500 E40.17886
G1 F2400 X176.021 Y207.3 E40.21959
G1 X176.02 Y142.7 E41.50875
G1 X173.979 Y142.7 E41.54948
G1 X173.98 Y207.3 E42.83864
G1 F1500 E36.33864
G1 F300 Z0.68
;MESH:NONMESH
G0 F12000 X175.279 Y206.422 Z0.68
;TIME_ELAPSED:97.883006
;LAYER:4
;MESH:Pin 2(2 tane).STL
G0 X175.279 Y206.422 Z0.8
;TYPE:WALL-INNER
G1 F300 Z0.6
G1 F1500 E42.83864
G1 F1688.6 X175.278 Y143.578 E44.58501
G1 X174.721 Y143.578 E44.60048
G1 X174.722 Y206.422 E46.34685
G1 X175.279 Y206.422 E46.36232
G0 F12000 X174.244 Y206.9
G1 F2351.4 X175.757 Y206.9 E46.39252
G1 X175.756 Y143.1 E47.66572
G1 X174.243 Y143.1 E47.69591
G1 X174.244 Y206.9 E48.96911
G0 F12000 X173.844 Y207.3
;TYPE:WALL-OUTER
G1 F2351.4 X176.157 Y207.3 E49.01527
G1 X176.156 Y142.7 E50.30443
