;FLAVOR:Marlin
;TIME:277
;Filament used: 0.0556998m
;Layer height: 0.12
;MINX:163.106
;MINY:156
;MINZ:0.12
;MAXX:186.894
;MAXY:194
;MAXZ:3.08
;TARGET_MACHINE.NAME:Creality Ender-5 Plus
;Generated with Cura_SteamEngine 5.6.0
M140 S60
M105
M190 S60
M104 S210
M105
M109 S210
M82 ;absolute extrusion mode
M201 X500.00 Y500.00 Z100.00 E5000.00 ;Setup machine max acceleration
M203 X500.00 Y500.00 Z10.00 E50.00 ;Setup machine max feedrate
M204 P500.00 R1000.00 T500.00 ;Setup Print/Retract/Travel acceleration
M205 X8.00 Y8.00 Z0.40 E5.00 ;Setup Jerk
M220 S100 ;Reset Feedrate
M221 S100 ;Reset Flowrate

G28 ;Home
M420 S1 Z2 ;Enable ABL using saved Mesh and Fade Height

G92 E0 ;Reset Extruder
G1 Z2.0 F3000 ;Move Z Axis up
G1 X10.1 Y20 Z0.28 F5000.0 ;Move to start position
G1 X10.1 Y200.0 Z0.28 F1500.0 E15 ;Draw the first line
G1 X10.4 Y200.0 Z0.28 F5000.0 ;Move to side a little
G1 X10.4 Y20 Z0.28 F1500.0 E30 ;Draw the second line
G92 E0 ;Reset Extruder
G1 Z2.0 F3000 ;Move Z Axis up

G92 E0
G92 E0
G1 F1500 E-6.5
;LAYER_COUNT:25
;LAYER:0
M107
G1 F300 Z0.32
G0 F6000 X165.833 Y159.77 Z0.32
;TYPE:SKIRT
G1 F300 Z0.12
G1 F1500 E0
G1 F1200 X166.558 Y159.017 E0.02086
G1 X167.294 Y158.38 E0.04028
G1 X168.025 Y157.85 E0.0583
G1 X168.922 Y157.314 E0.07916
G1 X169.8 Y156.893 E0.09859
G1 X170.712 Y156.551 E0.11803
G1 X171.65 Y156.291 E0.13745
G1 X172.619 Y156.113 E0.15711
G1 X173.794 Y156.015 E0.18064
G1 X174.596 Y156 E0.19665
G1 X176.001 Y156.012 E0.22469
G1 X176.972 Y156.065 E0.24409
G1 X177.938 Y156.204 E0.26357
G1 X178.884 Y156.428 E0.28297
G1 X179.808 Y156.734 E0.30239
G1 X180.638 Y157.09 E0.32042
G1 X181.558 Y157.587 E0.34129
G1 X182.341 Y158.105 E0.36002
G1 X183.13 Y158.734 E0.38016
G1 X183.784 Y159.356 E0.39817
G1 X184.474 Y160.141 E0.41903
G1 X185.048 Y160.928 E0.43846
G1 X185.55 Y161.762 E0.45789
G1 X185.976 Y162.638 E0.47733
G1 X186.324 Y163.547 E0.49675
G1 X186.59 Y164.483 E0.51617
G1 X186.761 Y165.37 E0.5342
G1 X186.88 Y166.703 E0.56091
G1 X186.893 Y167.325 E0.57332
G1 X186.894 Y182.275 E0.87166
G1 X186.882 Y183.163 E0.88939
G1 X186.825 Y184.135 E0.90882
G1 X186.68 Y185.098 E0.92825
G1 X186.451 Y186.045 E0.9477
G1 X186.14 Y186.968 E0.96713
G1 X185.748 Y187.859 E0.98656
G1 X185.278 Y188.713 E1.00601
G1 X184.736 Y189.52 E1.02541
G1 X184.148 Y190.251 E1.04413
G1 X183.447 Y190.979 E1.0643
G1 X182.738 Y191.594 E1.08303
G1 X181.95 Y192.166 E1.10246
G1 X181.083 Y192.683 E1.12261
G1 X180.205 Y193.105 E1.14205
G1 X179.295 Y193.447 E1.16145
G1 X178.356 Y193.708 E1.1809
G1 X177.387 Y193.886 E1.20056
G1 X176.206 Y193.985 E1.22421
G1 X175.412 Y194 E1.24006
G1 X174.008 Y193.989 E1.26808
G1 X173.035 Y193.937 E1.28752
G1 X172.072 Y193.798 E1.30694
G1 X171.124 Y193.575 E1.32637
G1 X170.199 Y193.27 E1.34581
G1 X169.369 Y192.914 E1.36383
G1 X168.449 Y192.418 E1.38469
G1 X167.636 Y191.88 E1.40414
G1 X166.877 Y191.272 E1.42355
G1 X166.197 Y190.625 E1.44228
G1 X165.53 Y189.867 E1.46243
G1 X164.975 Y189.11 E1.48116
G1 X164.454 Y188.247 E1.50128
G1 X164.027 Y187.37 E1.52075
G1 X163.68 Y186.462 E1.54015
G1 X163.412 Y185.524 E1.55961
G1 X163.228 Y184.554 E1.57932
G1 X163.121 Y183.315 E1.60413
G1 X163.107 Y182.633 E1.61775
G1 X163.106 Y167.692 E1.91591
G1 X163.118 Y166.831 E1.93309
G1 X163.176 Y165.859 E1.95253
G1 X163.321 Y164.895 E1.97198
G1 X163.541 Y163.983 E1.9907
G1 X163.863 Y163.026 E2.01085
G1 X164.255 Y162.136 E2.03026
G1 X164.706 Y161.313 E2.04899
G1 X165.267 Y160.474 E2.06913
G1 X165.833 Y159.77 E2.08716
G0 F6000 X166.145 Y160.021
G1 F1200 X166.82 Y159.319 E2.10659
G1 X167.529 Y158.704 E2.12532
G1 X168.26 Y158.174 E2.14334
G1 X169.096 Y157.674 E2.16278
G1 X169.941 Y157.267 E2.1815
G1 X170.82 Y156.936 E2.20024
G1 X171.723 Y156.684 E2.21895
G1 X172.652 Y156.512 E2.2378
G1 X173.827 Y156.414 E2.26133
G1 X174.593 Y156.4 E2.27662
G1 X175.98 Y156.411 E2.3043
G1 X176.916 Y156.461 E2.32301
G1 X177.846 Y156.593 E2.34175
G1 X178.759 Y156.808 E2.36047
G1 X179.65 Y157.102 E2.37919
G1 X180.48 Y157.458 E2.39722
G1 X181.337 Y157.921 E2.41666
G1 X182.12 Y158.439 E2.43539
G1 X182.854 Y159.024 E2.45412
G1 X183.508 Y159.646 E2.47213
G1 X184.151 Y160.377 E2.49156
G1 X184.706 Y161.135 E2.51031
G1 X185.191 Y161.938 E2.52903
G1 X185.603 Y162.781 E2.54775
G1 X185.939 Y163.657 E2.56648
G1 X186.197 Y164.559 E2.5852
G1 X186.368 Y165.446 E2.60323
G1 X186.48 Y166.711 E2.62857
G1 X186.493 Y167.325 E2.64083
G1 X186.494 Y182.27 E2.93907
G1 X186.483 Y183.14 E2.95643
G1 X186.429 Y184.076 E2.97514
G1 X186.291 Y185.005 E2.99389
G1 X186.072 Y185.918 E3.01262
G1 X185.774 Y186.807 E3.03133
G1 X185.397 Y187.667 E3.05007
G1 X184.946 Y188.49 E3.0688
G1 X184.424 Y189.269 E3.08751
G1 X183.836 Y190 E3.10624
G1 X183.184 Y190.677 E3.12499
G1 X182.503 Y191.27 E3.14301
G1 X181.715 Y191.842 E3.16244
G1 X180.909 Y192.323 E3.18118
G1 X180.064 Y192.731 E3.1999
G1 X179.187 Y193.062 E3.21861
G1 X178.283 Y193.315 E3.23734
G1 X177.354 Y193.487 E3.2562
G1 X176.173 Y193.586 E3.27985
G1 X175.415 Y193.6 E3.29498
G1 X174.029 Y193.59 E3.32264
G1 X173.091 Y193.541 E3.34138
G1 X172.163 Y193.409 E3.36009
G1 X171.249 Y193.195 E3.37882
G1 X170.357 Y192.902 E3.39755
G1 X169.527 Y192.546 E3.41558
G1 X168.669 Y192.084 E3.43502
G1 X167.886 Y191.567 E3.45375
G1 X167.153 Y190.982 E3.47246
G1 X166.473 Y190.335 E3.4912
G1 X165.853 Y189.63 E3.50993
G1 X165.298 Y188.873 E3.52866
G1 X164.813 Y188.071 E3.54737
G1 X164.4 Y187.227 E3.56612
G1 X164.064 Y186.352 E3.58482
G1 X163.805 Y185.449 E3.60357
G1 X163.627 Y184.52 E3.62245
G1 X163.52 Y183.281 E3.64726
G1 X163.507 Y182.633 E3.6602
G1 X163.506 Y167.697 E3.95826
G1 X163.517 Y166.854 E3.97509
G1 X163.572 Y165.918 E3.9938
G1 X163.71 Y164.989 E4.01254
G1 X163.93 Y164.077 E4.03126
G1 X164.229 Y163.187 E4.05
G1 X164.606 Y162.328 E4.06872
G1 X165.057 Y161.505 E4.08745
G1 X165.579 Y160.725 E4.10618
G1 X166.145 Y160.021 E4.1242
G0 F6000 X166.457 Y160.272
G1 F1200 X167.083 Y159.621 E4.14223
G1 X167.764 Y159.028 E4.16025
G1 X168.495 Y158.498 E4.17827
G1 X169.27 Y158.034 E4.19629
G1 X170.083 Y157.641 E4.21431
G1 X170.928 Y157.321 E4.23234
G1 X171.797 Y157.077 E4.25036
G1 X172.685 Y156.911 E4.26838
G1 X173.86 Y156.813 E4.29191
G1 X174.59 Y156.8 E4.30648
G1 X175.959 Y156.81 E4.33381
G1 X176.86 Y156.857 E4.35181
G1 X177.755 Y156.983 E4.36985
G1 X178.634 Y157.188 E4.38786
G1 X179.492 Y157.47 E4.40588
G1 X180.322 Y157.826 E4.42391
G1 X181.117 Y158.255 E4.44193
G1 X181.871 Y158.752 E4.45995
G1 X182.578 Y159.314 E4.47798
G1 X183.232 Y159.936 E4.49599
G1 X183.829 Y160.614 E4.51402
G1 X184.364 Y161.342 E4.53205
G1 X184.832 Y162.114 E4.55006
G1 X185.23 Y162.925 E4.56809
G1 X185.555 Y163.767 E4.5861
G1 X185.804 Y164.635 E4.60412
G1 X185.975 Y165.522 E4.62215
G1 X186.08 Y166.72 E4.64615
G1 X186.093 Y167.325 E4.65822
G1 X186.094 Y182.265 E4.95637
G1 X186.084 Y183.117 E4.97337
G1 X186.033 Y184.018 E4.99138
G1 X185.902 Y184.912 E5.00941
G1 X185.693 Y185.791 E5.02744
G1 X185.407 Y186.647 E5.04545
G1 X185.046 Y187.475 E5.06348
G1 X184.613 Y188.268 E5.08151
G1 X184.112 Y189.019 E5.09953
G1 X183.547 Y189.723 E5.11754
G1 X182.921 Y190.375 E5.13558
G1 X182.24 Y190.968 E5.1536
G1 X181.51 Y191.499 E5.17161
G1 X180.735 Y191.963 E5.18964
G1 X179.922 Y192.357 E5.20767
G1 X179.078 Y192.677 E5.22568
G1 X178.209 Y192.922 E5.2437
G1 X177.321 Y193.088 E5.26173
G1 X176.14 Y193.187 E5.28538
G1 X175.418 Y193.2 E5.29979
G1 X174.049 Y193.191 E5.32711
G1 X173.147 Y193.145 E5.34513
G1 X172.253 Y193.019 E5.36315
G1 X171.373 Y192.815 E5.38118
G1 X170.515 Y192.534 E5.39919
G1 X169.685 Y192.178 E5.41722
G1 X168.889 Y191.75 E5.43525
G1 X168.135 Y191.254 E5.45326
G1 X167.428 Y190.692 E5.47129
G1 X166.773 Y190.07 E5.48931
G1 X166.175 Y189.393 E5.50734
G1 X165.64 Y188.666 E5.52535
G1 X165.172 Y187.894 E5.54337
G1 X164.773 Y187.083 E5.5614
G1 X164.448 Y186.241 E5.57942
G1 X164.198 Y185.373 E5.59744
G1 X164.026 Y184.486 E5.61547
G1 X163.919 Y183.247 E5.64029
G1 X163.907 Y182.633 E5.65255
G1 X163.906 Y167.702 E5.95051
G1 X163.916 Y166.877 E5.96697
G1 X163.968 Y165.976 E5.98498
G1 X164.099 Y165.082 E6.00302
G1 X164.309 Y164.204 E6.02103
G1 X164.595 Y163.347 E6.03906
G1 X164.957 Y162.52 E6.05708
G1 X165.39 Y161.727 E6.07511
G1 X165.891 Y160.976 E6.09312
G1 X166.457 Y160.272 E6.11115
G1 F1500 E-0.38885
G1 F300 Z0.32
;MESH:Pin 1(7 tane).STL
G0 F6000 X175.201 Y182.8 Z0.32
;TYPE:WALL-OUTER
G1 F300 Z0.12
G1 F1500 E6.11115
G1 F1197 X174.8 Y182.8 E6.11917
G1 X174.799 Y167.2 E6.43127
G1 X175.2 Y167.2 E6.43929
G1 X175.201 Y182.8 E6.75138
G1 F1500 E0.25138
G1 F300 Z0.32
;MESH:NONMESH
G0 F6000 X166.457 Y160.272 Z0.32
;TIME_ELAPSED:23.414059
;LAYER:1
M106 S85
G0 F9000 X166.457 Y160.272 Z0.44
;TYPE:SKIRT
G1 F300 Z0.24
G1 F1500 E6.75138
G1 F931 X167.083 Y159.621 E6.7694
G1 X167.764 Y159.028 E6.78742
G1 X168.495 Y158.498 E6.80544
G1 X169.27 Y158.034 E6.82347
G1 X170.083 Y157.641 E6.84149
G1 X170.928 Y157.321 E6.85952
G1 X171.797 Y157.077 E6.87753
G1 X172.685 Y156.911 E6.89556
G1 X173.86 Y156.813 E6.91909
G1 X174.59 Y156.8 E6.93366
G1 X175.959 Y156.81 E6.96098
G1 X176.86 Y156.857 E6.97899
G1 X177.755 Y156.983 E6.99702
G1 X178.634 Y157.188 E7.01504
G1 X179.492 Y157.47 E7.03306
G1 X180.322 Y157.826 E7.05108
G1 X181.117 Y158.255 E7.06911
G1 X181.871 Y158.752 E7.08713
G1 X182.578 Y159.314 E7.10516
G1 X183.232 Y159.936 E7.12317
G1 X183.829 Y160.614 E7.14119
G1 X184.364 Y161.342 E7.15922
G1 X184.832 Y162.114 E7.17724
G1 X185.23 Y162.925 E7.19527
G1 X185.555 Y163.767 E7.21328
G1 X185.804 Y164.635 E7.2313
G1 X185.975 Y165.522 E7.24933
G1 X186.08 Y166.72 E7.27333
G1 X186.093 Y167.325 E7.2854
G1 X186.094 Y182.265 E7.58355
G1 X186.084 Y183.117 E7.60055
G1 X186.033 Y184.018 E7.61856
G1 X185.902 Y184.912 E7.63659
G1 X185.693 Y185.791 E7.65462
G1 X185.407 Y186.647 E7.67263
G1 X185.046 Y187.475 E7.69066
G1 X184.613 Y188.268 E7.70869
G1 X184.112 Y189.019 E7.7267
G1 X183.547 Y189.723 E7.74472
G1 X182.921 Y190.375 E7.76275
G1 X182.24 Y190.968 E7.78078
G1 X181.51 Y191.499 E7.79879
G1 X180.735 Y191.963 E7.81682
G1 X179.922 Y192.357 E7.83484
G1 X179.078 Y192.677 E7.85286
G1 X178.209 Y192.922 E7.87088
G1 X177.321 Y193.088 E7.8889
G1 X176.14 Y193.187 E7.91255
G1 X175.418 Y193.2 E7.92696
G1 X174.049 Y193.191 E7.95429
G1 X173.147 Y193.145 E7.97231
G1 X172.253 Y193.019 E7.99033
G1 X171.373 Y192.815 E8.00835
G1 X170.515 Y192.534 E8.02637
G1 X169.685 Y192.178 E8.04439
G1 X168.889 Y191.75 E8.06243
G1 X168.135 Y191.254 E8.08044
G1 X167.428 Y190.692 E8.09846
G1 X166.773 Y190.07 E8.11649
G1 X166.175 Y189.393 E8.13452
G1 X165.64 Y188.666 E8.15253
G1 X165.172 Y187.894 E8.17054
G1 X164.773 Y187.083 E8.18858
G1 X164.448 Y186.241 E8.20659
G1 X164.198 Y185.373 E8.22462
G1 X164.026 Y184.486 E8.24265
G1 X163.919 Y183.247 E8.26747
G1 X163.907 Y182.633 E8.27972
G1 X163.906 Y167.702 E8.57769
G1 X163.916 Y166.877 E8.59415
G1 X163.968 Y165.976 E8.61216
G1 X164.099 Y165.082 E8.63019
G1 X164.309 Y164.204 E8.64821
G1 X164.595 Y163.347 E8.66624
G1 X164.957 Y162.52 E8.68425
G1 X165.39 Y161.727 E8.70228
G1 X165.891 Y160.976 E8.7203
G1 X166.457 Y160.272 E8.73833
G1 F1500 E2.23833
G1 F300 Z0.44
;MESH:Pin 1(7 tane).STL
G0 F9000 X175 Y167.709 Z0.44
;TYPE:WALL-INNER
G1 F300 Z0.24
G1 F1500 E8.73833
G1 F600.6 X175 Y182.291 E9.18938
G0 F9000 X174.491 Y182.8
;TYPE:WALL-OUTER
G1 F931 X175.51 Y182.8 E9.20971
G1 X175.509 Y167.2 E9.52103
G1 X174.49 Y167.2 E9.54136
G1 X174.491 Y182.8 E9.85268
G1 F1500 E3.35268
G1 F300 Z0.44
;MESH:NONMESH
G0 F9000 X166.457 Y160.272 Z0.44
;TIME_ELAPSED:35.177159
;LAYER:2
M106 S255
G0 F12000 X166.457 Y160.272 Z0.56
;TYPE:SKIRT
G1 F300 Z0.36
G1 F1500 E9.85268
G1 F1035.5 X167.083 Y159.621 E9.8707
G1 X167.764 Y159.028 E9.88872
G1 X168.495 Y158.498 E9.90674
G1 X169.27 Y158.034 E9.92476
G1 X170.083 Y157.641 E9.94279
G1 X170.928 Y157.321 E9.96082
G1 X171.797 Y157.077 E9.97883
G1 X172.685 Y156.911 E9.99686
G1 X173.86 Y156.813 E10.02039
G1 X174.59 Y156.8 E10.03496
G1 X175.959 Y156.81 E10.06228
G1 X176.86 Y156.857 E10.08028
G1 X177.755 Y156.983 E10.09832
G1 X178.634 Y157.188 E10.11633
G1 X179.492 Y157.47 E10.13436
G1 X180.322 Y157.826 E10.15238
G1 X181.117 Y158.255 E10.17041
G1 X181.871 Y158.752 E10.18843
G1 X182.578 Y159.314 E10.20645
G1 X183.232 Y159.936 E10.22446
G1 X183.829 Y160.614 E10.24249
G1 X184.364 Y161.342 E10.26052
G1 X184.832 Y162.114 E10.27854
G1 X185.23 Y162.925 E10.29656
G1 X185.555 Y163.767 E10.31457
G1 X185.804 Y164.635 E10.3326
G1 X185.975 Y165.522 E10.35062
G1 X186.08 Y166.72 E10.37462
G1 X186.093 Y167.325 E10.3867
G1 X186.094 Y182.265 E10.68484
G1 X186.084 Y183.117 E10.70184
G1 X186.033 Y184.018 E10.71985
G1 X185.902 Y184.912 E10.73789
G1 X185.693 Y185.791 E10.75592
G1 X185.407 Y186.647 E10.77393
G1 X185.046 Y187.475 E10.79195
G1 X184.613 Y188.268 E10.80998
G1 X184.112 Y189.019 E10.828
G1 X183.547 Y189.723 E10.84601
G1 X182.921 Y190.375 E10.86405
G1 X182.24 Y190.968 E10.88207
G1 X181.51 Y191.499 E10.90009
G1 X180.735 Y191.963 E10.91811
G1 X179.922 Y192.357 E10.93614
G1 X179.078 Y192.677 E10.95415
G1 X178.209 Y192.922 E10.97217
G1 X177.321 Y193.088 E10.9902
G1 X176.14 Y193.187 E11.01385
G1 X175.418 Y193.2 E11.02826
G1 X174.049 Y193.191 E11.05558
G1 X173.147 Y193.145 E11.0736
G1 X172.253 Y193.019 E11.09162
G1 X171.373 Y192.815 E11.10965
G1 X170.515 Y192.534 E11.12767
G1 X169.685 Y192.178 E11.14569
G1 X168.889 Y191.75 E11.16372
G1 X168.135 Y191.254 E11.18174
G1 X167.428 Y190.692 E11.19976
G1 X166.773 Y190.07 E11.21778
G1 X166.175 Y189.393 E11.23581
G1 X165.64 Y188.666 E11.25382
G1 X165.172 Y187.894 E11.27184
G1 X164.773 Y187.083 E11.28988
G1 X164.448 Y186.241 E11.30789
G1 X164.198 Y185.373 E11.32591
G1 X164.026 Y184.486 E11.34394
G1 X163.919 Y183.247 E11.36876
G1 X163.907 Y182.633 E11.38102
G1 X163.906 Y167.702 E11.67898
G1 X163.916 Y166.877 E11.69545
G1 X163.968 Y165.976 E11.71346
G1 X164.099 Y165.082 E11.73149
G1 X164.309 Y164.204 E11.7495
G1 X164.595 Y163.347 E11.76753
G1 X164.957 Y162.52 E11.78555
G1 X165.39 Y161.727 E11.80358
G1 X165.891 Y160.976 E11.8216
G1 X166.457 Y160.272 E11.83962
G1 F1500 E5.33962
G1 F300 Z0.56
;MESH:Pin 1(7 tane).STL
G0 F12000 X174.754 Y182.353 Z0.56
;TYPE:WALL-INNER
G1 F300 Z0.36
G1 F1500 E11.83962
G1 F838.4 X175.247 Y182.353 E11.85177
G1 X175.246 Y167.647 E12.21421
G1 X174.753 Y167.647 E12.22636
G1 X174.754 Y182.353 E12.5888
G0 F12000 X174.307 Y182.8
;TYPE:WALL-OUTER
G1 F1035.5 X175.694 Y182.8 E12.61648
G1 X175.693 Y167.2 E12.9278
G1 X174.306 Y167.2 E12.95548
G1 X174.307 Y182.8 E13.26679
G1 F1500 E6.76679
G1 F300 Z0.56
;MESH:NONMESH
G0 F12000 X175 Y168.033 Z0.56
;TIME_ELAPSED:46.912510
;LAYER:3
;MESH:Pin 1(7 tane).STL
G0 X175 Y168.033 Z0.68
;TYPE:WALL-INNER
G1 F300 Z0.48
G1 F1500 E13.26679
G1 F512.8 X175 Y181.967 E13.59213
G0 F12000 X175.434 Y182.4
G1 F600 X175.433 Y167.6 E13.88748
G1 X174.566 Y167.6 E13.90478
G1 X174.567 Y182.4 E14.20013
G1 X175.434 Y182.4 E14.21744
G0 F12000 X174.167 Y182.8
;TYPE:WALL-OUTER
G1 F600 X175.834 Y182.8 E14.2507
G1 X175.833 Y167.2 E14.56202
G1 X174.166 Y167.2 E14.59528
G1 X174.167 Y182.8 E14.9066
;MESH:NONMESH
G0 F300 X174.167 Y182.8 Z0.6
G0 F12000 X175.175 Y182.025
;TIME_ELAPSED:55.659257
;LAYER:4
;TYPE:WALL-INNER
;MESH:Pin 1(7 tane).STL
G1 F685.7 X175.174 Y167.975 E15.15193
G1 X174.825 Y167.975 E15.15803
G1 X174.826 Y182.025 E15.40336
G1 X175.175 Y182.025 E15.40946
G0 F12000 X175.55 Y182.4
G1 F600 X175.549 Y167.6 E15.70481
G1 X174.45 Y167.6 E15.72674
G1 X174.451 Y182.4 E16.02209
G1 X175.55 Y182.4 E16.04402
G1 F1500 E9.54402
G1 F300 Z0.8
G0 F12000 X174.051 Y182.8 Z0.8
;TYPE:WALL-OUTER
G1 F300 Z0.6
G1 F1500 E16.04402
G1 F600 X175.95 Y182.8 E16.08192
G1 X175.949 Y167.2 E16.39323
G1 X174.05 Y167.2 E16.43113
G1 X174.051 Y182.8 E16.74244
;MESH:NONMESH
G0 F300 X174.051 Y182.8 Z0.72
G0 F12000 X175.219 Y181.981
;TIME_ELAPSED:65.643364
;LAYER:5
;TYPE:WALL-INNER
;MESH:Pin 1(7 tane).STL
G1 F547.9 X175.218 Y168.019 E17.04754
G1 X174.781 Y168.019 E17.05709
G1 X174.782 Y181.981 E17.36219
G1 X175.219 Y181.981 E17.37173
G0 F12000 X174.363 Y182.4
G1 F600 X175.638 Y182.4 E17.39718
G1 X175.637 Y167.6 E17.69253
G1 X174.362 Y167.6 E17.71797
G1 X174.363 Y182.4 E18.01332
G0 F12000 X173.963 Y182.8
;TYPE:WALL-OUTER
G1 F600 X176.038 Y182.8 E18.05473
G1 X176.037 Y167.2 E18.36605
G1 X173.962 Y167.2 E18.40746
