;FLAVOR:Marlin
;TIME:16304
;Filament used: 9.96647m
;Layer height: 0.12
;MINX:109.7
;MINY:114.683
;MINZ:0.12
;MAXX:239.16
;MAXY:232.701
;MAXZ:45.96
;TARGET_MACHINE.NAME:Creality Ender-5 Plus
;Generated with Cura_SteamEngine 5.6.0
M140 S60
M105
M190 S60
M104 S200
M105
M109 S200
M82 ;absolute extrusion mode
M201 X500.00 Y500.00 Z100.00 E5000.00 ;Setup machine max acceleration
M203 X500.00 Y500.00 Z10.00 E50.00 ;Setup machine max feedrate
M204 P500.00 R1000.00 T500.00 ;Setup Print/Retract/Travel acceleration
M205 X8.00 Y8.00 Z0.40 E5.00 ;Setup Jerk
M220 S100 ;Reset Feedrate
M221 S100 ;Reset Flowrate

G28 ;Home
M420 S1 Z2 ;Enable ABL using saved Mesh and Fade Height

G92 E0 ;Reset Extruder
G1 Z2.0 F3000 ;Move Z Axis up
G1 X10.1 Y20 Z0.28 F5000.0 ;Move to start position
G1 X10.1 Y200.0 Z0.28 F1500.0 E15 ;Draw the first line
G1 X10.4 Y200.0 Z0.28 F5000.0 ;Move to side a little
G1 X10.4 Y20 Z0.28 F1500.0 E30 ;Draw the second line
G92 E0 ;Reset Extruder
G1 Z2.0 F3000 ;Move Z Axis up

G92 E0
G92 E0
G1 F1500 E-6.5
;LAYER_COUNT:383
;LAYER:0
M107
G0 F6000 X112.78 Y122.658 Z0.12
;TYPE:SKIRT
G1 F1500 E0
G1 F1200 X114.803 Y121.451 E0.04701
G1 X116.521 Y121.169 E0.08175
G1 X140.83 Y121.102 E0.56687
G1 X141.166 Y119.734 E0.59498
G1 X142.219 Y117.706 E0.64058
G1 X143.78 Y116.247 E0.68322
G1 X145.803 Y115.04 E0.73023
G1 X147.521 Y114.758 E0.76497
G1 X232.214 Y114.683 E2.45512
G1 X234.11 Y115.149 E2.49408
G1 X236.138 Y116.202 E2.53968
G1 X237.597 Y117.763 E2.58232
G1 X238.804 Y119.786 E2.62933
G1 X239.086 Y121.504 E2.66407
G1 X239.16 Y133.326 E2.9
G1 X238.692 Y135.234 E2.9392
G1 X237.641 Y137.26 E2.98475
G1 X236.08 Y138.719 E3.02739
G1 X234.057 Y139.926 E3.0744
G1 X232.339 Y140.208 E3.10915
G1 X162.3 Y140.283 E4.50685
G1 X162.3 Y151.933 E4.73934
G1 X232.214 Y151.933 E6.13455
G1 X234.11 Y152.399 E6.17351
G1 X236.138 Y153.452 E6.21911
G1 X237.597 Y155.013 E6.26175
G1 X238.804 Y157.036 E6.30876
G1 X239.086 Y158.754 E6.34351
G1 X239.16 Y170.576 E6.57943
G1 X238.692 Y172.484 E6.61864
G1 X237.641 Y174.51 E6.66418
G1 X236.08 Y175.969 E6.70682
G1 X234.057 Y177.176 E6.75383
G1 X232.339 Y177.458 E6.78858
G1 X147.647 Y177.533 E8.4787
G1 X145.751 Y177.067 E8.51766
G1 X143.723 Y176.014 E8.56326
G1 X142.246 Y174.435 E8.60641
G1 X141.303 Y172.841 E8.64337
G1 X140.999 Y172.093 E8.65948
G1 X140.852 Y171.123 E8.67906
G1 X116.647 Y171.123 E9.1621
G1 X114.751 Y170.657 E9.20106
G1 X112.723 Y169.604 E9.24666
G1 X111.264 Y168.043 E9.2893
G1 X110.057 Y166.02 E9.33631
G1 X109.775 Y164.302 E9.37106
G1 X109.7 Y128.041 E10.09468
G1 X110.166 Y126.145 E10.13365
G1 X111.219 Y124.117 E10.17925
G1 X112.78 Y122.658 E10.22189
G0 F6000 X113.019 Y122.982
G1 F1200 X114.943 Y121.834 E10.2666
G1 X116.586 Y121.564 E10.29983
G1 X141.143 Y121.501 E10.78989
G1 X141.542 Y119.877 E10.82326
G1 X142.542 Y117.951 E10.86657
G1 X144.019 Y116.571 E10.90691
G1 X145.943 Y115.423 E10.95162
G1 X147.586 Y115.153 E10.98485
G1 X232.168 Y115.083 E12.67277
G1 X233.967 Y115.525 E12.70974
G1 X235.893 Y116.525 E12.75305
G1 X237.273 Y118.002 E12.79339
G1 X238.421 Y119.926 E12.8381
G1 X238.691 Y121.569 E12.87133
G1 X238.76 Y133.281 E13.10506
G1 X238.316 Y135.091 E13.14225
G1 X237.318 Y137.015 E13.1855
G1 X235.841 Y138.395 E13.22584
G1 X233.917 Y139.543 E13.27055
G1 X232.274 Y139.813 E13.30378
G1 X161.9 Y139.883 E14.70817
G1 X161.9 Y152.333 E14.95662
G1 X232.168 Y152.333 E16.35889
G1 X233.967 Y152.775 E16.39586
G1 X235.893 Y153.775 E16.43917
G1 X237.273 Y155.252 E16.47951
G1 X238.421 Y157.176 E16.52422
G1 X238.691 Y158.819 E16.55745
G1 X238.76 Y170.531 E16.79118
G1 X238.316 Y172.341 E16.82837
G1 X237.318 Y174.265 E16.87162
G1 X235.841 Y175.645 E16.91196
G1 X233.917 Y176.793 E16.95667
G1 X232.274 Y177.063 E16.9899
G1 X147.693 Y177.133 E18.67781
G1 X145.894 Y176.691 E18.71477
G1 X143.968 Y175.691 E18.75808
G1 X142.57 Y174.196 E18.79893
G1 X141.674 Y172.69 E18.8339
G1 X141.388 Y171.986 E18.84906
G1 X141.197 Y170.723 E18.87455
G1 X116.693 Y170.723 E19.36356
G1 X114.894 Y170.281 E19.40053
G1 X112.968 Y169.281 E19.44383
G1 X111.588 Y167.804 E19.48417
G1 X110.44 Y165.88 E19.52888
G1 X110.17 Y164.237 E19.56211
G1 X110.1 Y128.087 E20.28352
G1 X110.542 Y126.288 E20.32049
G1 X111.542 Y124.362 E20.3638
G1 X113.019 Y122.982 E20.40414
G0 F6000 X113.261 Y123.303
G1 F1200 X115.081 Y122.217 E20.44643
G1 X116.651 Y121.959 E20.47819
G1 X141.5 Y121.9 E20.97408
G1 X141.512 Y121.674 E20.97859
G1 X141.919 Y120.019 E21.0126
G1 X142.865 Y118.196 E21.05359
G1 X144.261 Y116.892 E21.09171
G1 X146.081 Y115.806 E21.13401
G1 X147.651 Y115.548 E21.16576
G1 X232.121 Y115.483 E22.85145
G1 X233.825 Y115.902 E22.88647
G1 X235.648 Y116.848 E22.92745
G1 X236.952 Y118.244 E22.96557
G1 X238.038 Y120.064 E23.00787
G1 X238.296 Y121.634 E23.03962
G1 X238.36 Y133.236 E23.27115
G1 X237.94 Y134.948 E23.30633
G1 X236.995 Y136.77 E23.34729
G1 X235.599 Y138.074 E23.38541
G1 X233.779 Y139.16 E23.42771
G1 X232.209 Y139.418 E23.45946
G1 X161.5 Y139.483 E24.87054
G1 X161.5 Y152.733 E25.13495
G1 X232.121 Y152.733 E26.54427
G1 X233.825 Y153.152 E26.57929
G1 X235.648 Y154.098 E26.62028
G1 X236.952 Y155.494 E26.6584
G1 X238.038 Y157.314 E26.70069
G1 X238.296 Y158.884 E26.73244
G1 X238.36 Y170.486 E26.96398
G1 X237.94 Y172.198 E26.99916
G1 X236.995 Y174.02 E27.04012
G1 X235.599 Y175.324 E27.07824
G1 X233.779 Y176.41 E27.12053
G1 X232.209 Y176.668 E27.15228
G1 X147.74 Y176.733 E28.83795
G1 X146.036 Y176.314 E28.87297
G1 X144.213 Y175.368 E28.91396
G1 X142.894 Y173.957 E28.9525
G1 X142.018 Y172.485 E28.98669
G1 X141.778 Y171.884 E28.9996
G1 X141.542 Y170.323 E29.03111
G1 X116.74 Y170.323 E29.52606
G1 X115.036 Y169.904 E29.56108
G1 X113.213 Y168.958 E29.60206
G1 X111.909 Y167.562 E29.64018
G1 X110.823 Y165.742 E29.68248
G1 X110.565 Y164.172 E29.71423
G1 X110.5 Y128.134 E30.43341
G1 X110.919 Y126.43 E30.46843
G1 X111.865 Y124.607 E30.50941
G1 X113.261 Y123.303 E30.54754
G0 F6000 X113.503 Y123.624
G1 F1200 X115.219 Y122.6 E30.58741
G1 X116.716 Y122.354 E30.61769
G1 X141.9 Y122.299 E31.12026
G1 X141.9 Y121.769 E31.13084
G1 X142.295 Y120.162 E31.16387
G1 X143.188 Y118.441 E31.20256
G1 X144.503 Y117.213 E31.23846
G1 X146.219 Y116.189 E31.27834
G1 X147.716 Y115.943 E31.30862
G1 X232.075 Y115.883 E32.99209
G1 X233.682 Y116.278 E33.02512
G1 X235.403 Y117.171 E33.06381
G1 X236.631 Y118.486 E33.09971
G1 X237.655 Y120.202 E33.13959
G1 X237.901 Y121.699 E33.16987
G1 X237.96 Y133.191 E33.39921
G1 X237.564 Y134.805 E33.43237
G1 X236.672 Y136.525 E33.47104
G1 X235.357 Y137.753 E33.50694
G1 X233.641 Y138.777 E33.54682
G1 X232.144 Y139.023 E33.57709
G1 X161.1 Y139.083 E34.99485
G1 X161.1 Y153.133 E35.27524
G1 X232.075 Y153.133 E36.69162
G1 X233.682 Y153.528 E36.72464
G1 X235.403 Y154.421 E36.76334
G1 X236.631 Y155.736 E36.79924
G1 X237.655 Y157.452 E36.83912
G1 X237.901 Y158.949 E36.8694
G1 X237.96 Y170.441 E37.09873
G1 X237.564 Y172.055 E37.1319
G1 X236.672 Y173.775 E37.17056
G1 X235.357 Y175.003 E37.20647
G1 X233.641 Y176.027 E37.24635
G1 X232.144 Y176.273 E37.27662
G1 X147.786 Y176.333 E38.96008
G1 X146.179 Y175.938 E38.9931
G1 X144.458 Y175.045 E39.0318
G1 X143.218 Y173.718 E39.06804
G1 X142.362 Y172.28 E39.10144
G1 X142.167 Y171.78 E39.11215
G1 X141.937 Y170.254 E39.14294
G1 X141.929 Y169.923 E39.14955
G1 X116.786 Y169.923 E39.65131
G1 X115.179 Y169.528 E39.68433
G1 X113.458 Y168.635 E39.72302
G1 X112.23 Y167.32 E39.75893
G1 X111.206 Y165.604 E39.79881
G1 X110.96 Y164.107 E39.82908
G1 X110.9 Y128.18 E40.54604
G1 X111.295 Y126.573 E40.57907
G1 X112.188 Y124.852 E40.61776
G1 X113.503 Y123.624 E40.65367
G0 F6000 X113.745 Y123.945
G1 F1200 X115.357 Y122.983 E40.69113
G1 X116.781 Y122.749 E40.71993
G1 X142.3 Y122.698 E41.22919
G1 X142.3 Y121.815 E41.24681
G1 X142.671 Y120.305 E41.27784
G1 X143.511 Y118.686 E41.31424
G1 X144.745 Y117.534 E41.34793
G1 X146.357 Y116.572 E41.38539
G1 X147.781 Y116.338 E41.41419
G1 X232.029 Y116.283 E43.09545
G1 X233.539 Y116.654 E43.12648
G1 X235.158 Y117.494 E43.16288
G1 X236.31 Y118.728 E43.19656
G1 X237.272 Y120.34 E43.23403
G1 X237.506 Y121.764 E43.26283
G1 X237.56 Y133.146 E43.48997
G1 X237.188 Y134.662 E43.52112
G1 X236.349 Y136.28 E43.55749
G1 X235.115 Y137.432 E43.59118
G1 X233.503 Y138.394 E43.62864
G1 X232.079 Y138.628 E43.65744
G1 X160.7 Y138.683 E45.08189
G1 X160.7 Y153.533 E45.37823
G1 X232.029 Y153.533 E46.80168
G1 X233.539 Y153.904 E46.83271
G1 X235.158 Y154.744 E46.86911
G1 X236.31 Y155.978 E46.9028
G1 X237.272 Y157.59 E46.94026
G1 X237.506 Y159.014 E46.96906
G1 X237.56 Y170.396 E47.1962
G1 X237.188 Y171.912 E47.22735
G1 X236.349 Y173.53 E47.26372
G1 X235.115 Y174.682 E47.29741
G1 X233.503 Y175.644 E47.33488
G1 X232.079 Y175.878 E47.36367
G1 X147.832 Y175.933 E49.04491
G1 X146.322 Y175.562 E49.07594
G1 X144.703 Y174.722 E49.11234
G1 X143.542 Y173.479 E49.14629
G1 X142.706 Y172.075 E49.1789
G1 X142.557 Y171.68 E49.18732
G1 X142.333 Y170.194 E49.21731
G1 X142.323 Y169.523 E49.2307
G1 X116.832 Y169.523 E49.7394
G1 X115.322 Y169.152 E49.77043
G1 X113.703 Y168.312 E49.80683
G1 X112.551 Y167.078 E49.84052
G1 X111.589 Y165.466 E49.87798
G1 X111.355 Y164.042 E49.90678
G1 X111.3 Y128.226 E50.62153
G1 X111.671 Y126.716 E50.65256
G1 X112.511 Y125.097 E50.68896
G1 X113.745 Y123.945 E50.72265
G0 F6000 X113.987 Y124.266
G1 F1200 X115.495 Y123.366 E50.75769
G1 X116.846 Y123.144 E50.78501
G1 X142.7 Y123.097 E51.30096
G1 X142.7 Y121.862 E51.32561
G1 X143.048 Y120.447 E51.35468
G1 X143.834 Y118.931 E51.38876
G1 X144.987 Y117.855 E51.42023
G1 X146.495 Y116.955 E51.45528
G1 X147.846 Y116.733 E51.4826
G1 X231.982 Y116.683 E53.16163
G1 X233.397 Y117.031 E53.19071
G1 X234.913 Y117.817 E53.22479
G1 X235.989 Y118.97 E53.25626
G1 X236.889 Y120.478 E53.2913
G1 X237.111 Y121.829 E53.31863
G1 X237.16 Y133.101 E53.54357
G1 X236.812 Y134.519 E53.57271
G1 X236.026 Y136.035 E53.60679
G1 X234.873 Y137.111 E53.63826
G1 X233.365 Y138.011 E53.67331
G1 X232.014 Y138.233 E53.70063
G1 X160.3 Y138.283 E55.13176
G1 X160.3 Y153.933 E55.44407
G1 X231.982 Y153.933 E56.87456
G1 X233.397 Y154.281 E56.90364
G1 X234.913 Y155.067 E56.93772
G1 X235.989 Y156.22 E56.96919
G1 X236.889 Y157.728 E57.00424
G1 X237.111 Y159.079 E57.03156
G1 X237.16 Y170.351 E57.25651
G1 X236.812 Y171.769 E57.28565
G1 X236.026 Y173.285 E57.31972
G1 X234.873 Y174.361 E57.3512
G1 X233.365 Y175.261 E57.38624
G1 X232.014 Y175.483 E57.41356
G1 X147.879 Y175.533 E59.09257
G1 X146.464 Y175.185 E59.12165
G1 X144.948 Y174.399 E59.15573
G1 X143.866 Y173.24 E59.18737
G1 X143.05 Y171.87 E59.21919
G1 X142.947 Y171.581 E59.22531
G1 X142.729 Y170.134 E59.25452
G1 X142.719 Y169.123 E59.27469
G1 X116.879 Y169.123 E59.79036
G1 X115.464 Y168.775 E59.81944
G1 X113.948 Y167.989 E59.85351
G1 X112.872 Y166.836 E59.88499
G1 X111.972 Y165.328 E59.92003
G1 X111.75 Y163.977 E59.94735
G1 X111.7 Y128.273 E60.65987
G1 X112.048 Y126.858 E60.68895
G1 X112.834 Y125.342 E60.72302
G1 X113.987 Y124.266 E60.7545
G0 F6000 X114.229 Y124.587
G1 F1200 X115.633 Y123.749 E60.78713
G1 X116.911 Y123.539 E60.81297
G1 X143.1 Y123.496 E61.3356
G1 X143.1 Y121.908 E61.36729
G1 X143.424 Y120.59 E61.39438
G1 X144.157 Y119.176 E61.42616
G1 X145.229 Y118.176 E61.45542
G1 X146.633 Y117.338 E61.48805
G1 X147.911 Y117.128 E61.51389
G1 X231.936 Y117.083 E63.1907
G1 X233.254 Y117.407 E63.21779
G1 X234.668 Y118.14 E63.24957
G1 X235.668 Y119.212 E63.27883
G1 X236.506 Y120.616 E63.31146
G1 X236.716 Y121.894 E63.3373
G1 X236.76 Y133.056 E63.56006
G1 X236.436 Y134.376 E63.58718
G1 X235.703 Y135.79 E63.61896
G1 X234.631 Y136.79 E63.64822
G1 X233.227 Y137.628 E63.68085
G1 X231.949 Y137.838 E63.70669
G1 X159.9 Y137.883 E65.14451
G1 X159.9 Y154.333 E65.47279
G1 X231.936 Y154.333 E66.91034
G1 X233.254 Y154.657 E66.93743
G1 X234.668 Y155.39 E66.96921
G1 X235.668 Y156.462 E66.99847
G1 X236.506 Y157.866 E67.0311
G1 X236.716 Y159.144 E67.05695
G1 X236.76 Y170.306 E67.2797
G1 X236.436 Y171.626 E67.30682
G1 X235.703 Y173.04 E67.3386
G1 X234.631 Y174.04 E67.36786
G1 X233.227 Y174.878 E67.40049
G1 X231.949 Y175.088 E67.42634
G1 X147.925 Y175.133 E69.10313
G1 X146.607 Y174.809 E69.13021
G1 X145.193 Y174.076 E69.16199
G1 X144.19 Y173.001 E69.19134
G1 X143.394 Y171.665 E69.22237
G1 X143.343 Y171.521 E69.22542
G1 X143.125 Y170.074 E69.25462
G1 X143.116 Y168.723 E69.28158
G1 X116.925 Y168.723 E69.80425
G1 X115.607 Y168.399 E69.83134
G1 X114.193 Y167.666 E69.86312
G1 X113.193 Y166.594 E69.89238
G1 X112.355 Y165.19 E69.92501
G1 X112.145 Y163.912 E69.95085
G1 X112.1 Y128.319 E70.66115
G1 X112.424 Y127.001 E70.68824
G1 X113.157 Y125.587 E70.72002
G1 X114.229 Y124.587 E70.74927
G0 F6000 X114.474 Y124.906
G1 F1200 X115.771 Y124.132 E70.77942
G1 X116.976 Y123.934 E70.80379
G1 X143.5 Y123.895 E71.3331
G1 X143.5 Y121.954 E71.37184
G1 X143.8 Y120.733 E71.39693
G1 X144.479 Y119.423 E71.42637
G1 X145.474 Y118.495 E71.45353
G1 X146.771 Y117.721 E71.48367
G1 X147.976 Y117.523 E71.50804
G1 X231.89 Y117.483 E73.18263
G1 X233.111 Y117.783 E73.20772
G1 X234.421 Y118.462 E73.23717
G1 X235.349 Y119.457 E73.26432
G1 X236.123 Y120.754 E73.29446
G1 X236.321 Y121.959 E73.31883
G1 X236.36 Y133.011 E73.53939
G1 X236.06 Y134.233 E73.5645
G1 X235.381 Y135.543 E73.59394
G1 X234.386 Y136.471 E73.62109
G1 X233.089 Y137.245 E73.65124
G1 X231.884 Y137.443 E73.67561
G1 X159.5 Y137.483 E75.12011
G1 X159.5 Y154.733 E75.46435
G1 X231.89 Y154.733 E76.90897
G1 X233.111 Y155.033 E76.93406
G1 X234.421 Y155.712 E76.96351
G1 X235.349 Y156.707 E76.99066
G1 X236.123 Y158.004 E77.0208
G1 X236.321 Y159.209 E77.04517
G1 X236.36 Y170.261 E77.26573
G1 X236.06 Y171.483 E77.29084
G1 X235.381 Y172.793 E77.32028
G1 X234.386 Y173.721 E77.34743
G1 X233.089 Y174.495 E77.37758
G1 X231.884 Y174.693 E77.40194
G1 X147.971 Y174.733 E79.07652
G1 X146.75 Y174.433 E79.10161
G1 X145.44 Y173.754 E79.13106
G1 X144.512 Y172.759 E79.15821
G1 X143.738 Y171.46 E79.18838
G1 X143.525 Y170.071 E79.21643
G1 X143.514 Y168.323 E79.25131
G1 X116.971 Y168.323 E79.78101
G1 X115.75 Y168.023 E79.8061
G1 X114.44 Y167.344 E79.83554
G1 X113.512 Y166.349 E79.86269
G1 X112.738 Y165.052 E79.89284
G1 X112.54 Y163.847 E79.9172
G1 X112.5 Y128.365 E80.62529
G1 X112.8 Y127.144 E80.65038
G1 X113.479 Y125.834 E80.67982
G1 X114.474 Y124.906 E80.70698
G0 F6000 X114.716 Y125.228
G1 F1200 X115.911 Y124.515 E80.73475
G1 X117.041 Y124.329 E80.7576
G1 X143.9 Y124.294 E81.2936
G1 X143.9 Y122 E81.33938
G1 X144.176 Y120.876 E81.36248
G1 X144.801 Y119.67 E81.38958
G1 X145.716 Y118.817 E81.41455
G1 X146.911 Y118.104 E81.44232
G1 X148.041 Y117.918 E81.46517
G1 X231.844 Y117.883 E83.13755
G1 X232.968 Y118.159 E83.16065
G1 X234.174 Y118.784 E83.18775
G1 X235.027 Y119.699 E83.21272
G1 X235.74 Y120.894 E83.24049
G1 X235.926 Y122.024 E83.26334
G1 X235.96 Y132.966 E83.4817
G1 X235.684 Y134.09 E83.5048
G1 X235.059 Y135.296 E83.53191
G1 X234.144 Y136.149 E83.55687
G1 X232.949 Y136.862 E83.58464
G1 X231.819 Y137.048 E83.60749
G1 X159.1 Y137.083 E85.05868
G1 X159.1 Y155.133 E85.41889
G1 X231.844 Y155.133 E86.87057
G1 X232.968 Y155.409 E86.89367
G1 X234.174 Y156.034 E86.92078
G1 X235.027 Y156.949 E86.94574
G1 X235.74 Y158.144 E86.97351
G1 X235.926 Y159.274 E86.99636
G1 X235.96 Y170.216 E87.21472
G1 X235.684 Y171.34 E87.23782
G1 X235.059 Y172.546 E87.26493
G1 X234.144 Y173.399 E87.28989
G1 X232.949 Y174.112 E87.31766
G1 X231.819 Y174.298 E87.34051
G1 X148.017 Y174.333 E89.01287
G1 X146.893 Y174.057 E89.03597
G1 X145.687 Y173.432 E89.06308
G1 X144.834 Y172.517 E89.08804
G1 X144.121 Y171.321 E89.11583
G1 X143.925 Y170.068 E89.14114
G1 X143.911 Y167.923 E89.18394
G1 X117.017 Y167.923 E89.72064
G1 X115.893 Y167.647 E89.74374
G1 X114.687 Y167.022 E89.77085
G1 X113.834 Y166.107 E89.79581
G1 X113.121 Y164.912 E89.82358
G1 X112.935 Y163.782 E89.84643
G1 X112.9 Y128.411 E90.5523
G1 X113.176 Y127.287 E90.5754
G1 X113.801 Y126.081 E90.60251
G1 X114.716 Y125.228 E90.62747
G0 F6000 X114.958 Y125.55
G1 F1200 X116.051 Y124.898 E90.65287
G1 X117.106 Y124.724 E90.67421
G1 X144.3 Y124.694 E91.21689
G1 X144.3 Y122.047 E91.26972
G1 X144.553 Y121.018 E91.29086
G1 X145.123 Y119.917 E91.3156
G1 X145.958 Y119.139 E91.33838
G1 X147.051 Y118.487 E91.36378
G1 X148.106 Y118.313 E91.38511
