;FLAVOR:Marlin
;TIME:25176
;Filament used: 18.4459m
;Layer height: 0.12
;MINX:124.7
;MINY:137.2
;MINZ:0.12
;MAXX:225.3
;MAXY:216
;MAXZ:53.04
;TARGET_MACHINE.NAME:Creality Ender-5 Plus
;Generated with Cura_SteamEngine 5.6.0
M140 S60
M105
M190 S60
M104 S200
M105
M109 S200
M82 ;absolute extrusion mode
M201 X500.00 Y500.00 Z100.00 E5000.00 ;Setup machine max acceleration
M203 X500.00 Y500.00 Z10.00 E50.00 ;Setup machine max feedrate
M204 P500.00 R1000.00 T500.00 ;Setup Print/Retract/Travel acceleration
M205 X8.00 Y8.00 Z0.40 E5.00 ;Setup Jerk
M220 S100 ;Reset Feedrate
M221 S100 ;Reset Flowrate

G28 ;Home
M420 S1 Z2 ;Enable ABL using saved Mesh and Fade Height

G92 E0 ;Reset Extruder
G1 Z2.0 F3000 ;Move Z Axis up
G1 X10.1 Y20 Z0.28 F5000.0 ;Move to start position
G1 X10.1 Y200.0 Z0.28 F1500.0 E15 ;Draw the first line
G1 X10.4 Y200.0 Z0.28 F5000.0 ;Move to side a little
G1 X10.4 Y20 Z0.28 F1500.0 E30 ;Draw the second line
G92 E0 ;Reset Extruder
G1 Z2.0 F3000 ;Move Z Axis up

G92 E0
G92 E0
G1 F1500 E-6.5
;LAYER_COUNT:442
;LAYER:0
M107
G0 F6000 X127.78 Y138.764 Z0.12
;TYPE:SKIRT
G1 F1500 E0
G1 F1200 X129.803 Y137.557 E0.04701
G1 X131.521 Y137.275 E0.08175
G1 X218.353 Y137.2 E1.81458
G1 X220.249 Y137.666 E1.85354
G1 X222.277 Y138.719 E1.89915
G1 X223.736 Y140.28 E1.94179
G1 X224.943 Y142.303 E1.9888
G1 X225.225 Y144.021 E2.02354
G1 X225.3 Y205.853 E3.25746
G1 X224.834 Y207.749 E3.29643
G1 X223.781 Y209.777 E3.34203
G1 X222.22 Y211.236 E3.38467
G1 X220.197 Y212.443 E3.43168
G1 X218.479 Y212.725 E3.46642
G1 X195.931 Y212.8 E3.91639
G1 X195.365 Y213.186 E3.93007
G1 X193.722 Y214.37 E3.97048
G1 X191.805 Y215.431 E4.01421
G1 X189.407 Y216 E4.06339
G1 X186.203 Y215.992 E4.12733
G1 X184.712 Y215.584 E4.15818
G1 X182.711 Y214.911 E4.20031
G1 X180.743 Y213.364 E4.25026
G1 X180.078 Y212.8 E4.26766
G1 X170.031 Y212.8 E4.46816
G1 X169.457 Y213.192 E4.48203
G1 X167.822 Y214.37 E4.52225
G1 X165.905 Y215.431 E4.56597
G1 X163.507 Y216 E4.61516
G1 X160.303 Y215.992 E4.67909
G1 X158.812 Y215.584 E4.70994
G1 X156.811 Y214.911 E4.75207
G1 X154.843 Y213.364 E4.80203
G1 X154.178 Y212.8 E4.81943
G1 X131.647 Y212.8 E5.26906
G1 X129.751 Y212.334 E5.30802
G1 X127.723 Y211.281 E5.35362
G1 X126.264 Y209.72 E5.39626
G1 X125.057 Y207.697 E5.44327
G1 X124.775 Y205.979 E5.47802
G1 X124.7 Y144.147 E6.71194
G1 X125.166 Y142.251 E6.75091
G1 X126.219 Y140.223 E6.79651
G1 X127.78 Y138.764 E6.83915
G0 F6000 X128.019 Y139.088
G1 F1200 X129.943 Y137.94 E6.88386
G1 X131.586 Y137.67 E6.91709
G1 X218.307 Y137.6 E8.6477
G1 X220.106 Y138.042 E8.68467
G1 X222.032 Y139.042 E8.72797
G1 X223.412 Y140.519 E8.76831
G1 X224.56 Y142.443 E8.81302
G1 X224.83 Y144.086 E8.84625
G1 X224.9 Y205.807 E10.07796
G1 X224.458 Y207.606 E10.11493
G1 X223.458 Y209.532 E10.15824
G1 X221.981 Y210.912 E10.19857
G1 X220.057 Y212.06 E10.24329
G1 X218.414 Y212.33 E10.27651
G1 X195.808 Y212.4 E10.72764
G1 X195.131 Y212.862 E10.744
G1 X193.528 Y214.02 E10.78346
G1 X191.658 Y215.055 E10.82611
G1 X189.362 Y215.6 E10.87321
G1 X186.257 Y215.592 E10.93517
G1 X184.84 Y215.205 E10.96448
G1 X182.902 Y214.553 E11.00529
G1 X181.002 Y213.059 E11.05352
G1 X180.225 Y212.4 E11.07386
G1 X169.907 Y212.4 E11.27976
G1 X169.231 Y212.862 E11.2961
G1 X167.628 Y214.02 E11.33557
G1 X165.758 Y215.055 E11.37822
G1 X163.462 Y215.6 E11.42531
G1 X160.357 Y215.592 E11.48727
G1 X158.94 Y215.205 E11.51659
G1 X157.002 Y214.553 E11.55739
G1 X155.102 Y213.059 E11.60563
G1 X154.325 Y212.4 E11.62596
G1 X131.693 Y212.4 E12.07761
G1 X129.894 Y211.958 E12.11457
G1 X127.968 Y210.958 E12.15788
G1 X126.588 Y209.481 E12.19822
G1 X125.44 Y207.557 E12.24293
G1 X125.17 Y205.914 E12.27616
G1 X125.1 Y144.193 E13.50787
G1 X125.542 Y142.394 E13.54484
G1 X126.542 Y140.468 E13.58814
G1 X128.019 Y139.088 E13.62848
G0 F6000 X128.261 Y139.409
G1 F1200 X130.081 Y138.323 E13.67078
G1 X131.651 Y138.065 E13.70253
G1 X218.26 Y138 E15.43091
G1 X219.964 Y138.419 E15.46592
G1 X221.787 Y139.365 E15.50691
G1 X223.091 Y140.761 E15.54503
G1 X224.177 Y142.581 E15.58733
G1 X224.435 Y144.151 E15.61908
G1 X224.5 Y205.76 E16.84855
G1 X224.081 Y207.464 E16.88357
G1 X223.135 Y209.287 E16.92456
G1 X221.739 Y210.591 E16.96268
G1 X219.919 Y211.677 E17.00497
G1 X218.349 Y211.935 E17.03673
G1 X195.684 Y212 E17.48903
G1 X194.896 Y212.538 E17.50807
G1 X193.334 Y213.67 E17.54657
G1 X191.511 Y214.679 E17.58815
G1 X189.317 Y215.2 E17.63315
G1 X186.311 Y215.192 E17.69314
G1 X184.968 Y214.826 E17.72092
G1 X183.096 Y214.196 E17.76033
G1 X181.261 Y212.754 E17.80691
G1 X180.372 Y212 E17.83017
G1 X169.784 Y212 E18.04147
G1 X168.996 Y212.538 E18.06051
G1 X167.434 Y213.67 E18.099
G1 X165.611 Y214.679 E18.14058
G1 X163.417 Y215.2 E18.18558
G1 X160.411 Y215.192 E18.24557
G1 X159.068 Y214.826 E18.27335
G1 X157.196 Y214.196 E18.31277
G1 X155.361 Y212.754 E18.35934
G1 X154.472 Y212 E18.3826
G1 X131.74 Y212 E18.83625
G1 X130.036 Y211.581 E18.87126
G1 X128.213 Y210.635 E18.91225
G1 X126.909 Y209.239 E18.95037
G1 X125.823 Y207.419 E18.99267
G1 X125.565 Y205.849 E19.02442
G1 X125.5 Y144.24 E20.25389
G1 X125.919 Y142.536 E20.28891
G1 X126.865 Y140.713 E20.3299
G1 X128.261 Y139.409 E20.36802
G0 F6000 X128.503 Y139.73
G1 F1200 X130.219 Y138.706 E20.4079
G1 X131.716 Y138.46 E20.43817
G1 X218.214 Y138.4 E22.16433
G1 X219.821 Y138.795 E22.19736
G1 X221.542 Y139.688 E22.23605
G1 X222.77 Y141.003 E22.27196
G1 X223.794 Y142.719 E22.31183
G1 X224.04 Y144.216 E22.34211
G1 X224.1 Y205.714 E23.56937
G1 X223.705 Y207.321 E23.60239
G1 X222.812 Y209.042 E23.64109
G1 X221.497 Y210.27 E23.67699
G1 X219.781 Y211.294 E23.71687
G1 X218.284 Y211.54 E23.74714
G1 X195.56 Y211.6 E24.20063
G1 X194.661 Y212.214 E24.22235
G1 X193.099 Y213.346 E24.26085
G1 X191.366 Y214.302 E24.30035
G1 X189.271 Y214.8 E24.34332
G1 X186.365 Y214.792 E24.40131
G1 X185.095 Y214.447 E24.42758
G1 X183.29 Y213.84 E24.46558
G1 X181.52 Y212.449 E24.5105
G1 X180.519 Y211.6 E24.5367
G1 X169.66 Y211.6 E24.7534
G1 X168.761 Y212.214 E24.77513
G1 X167.199 Y213.346 E24.81362
G1 X165.466 Y214.302 E24.85312
G1 X163.371 Y214.8 E24.89609
G1 X160.465 Y214.792 E24.95408
G1 X159.195 Y214.447 E24.98035
G1 X157.39 Y213.84 E25.01835
G1 X155.62 Y212.449 E25.06327
G1 X154.619 Y211.6 E25.08947
G1 X131.786 Y211.6 E25.54513
G1 X130.179 Y211.205 E25.57815
G1 X128.458 Y210.312 E25.61684
G1 X127.23 Y208.997 E25.65275
G1 X126.206 Y207.281 E25.69263
G1 X125.96 Y205.784 E25.7229
G1 X125.9 Y144.286 E26.95016
G1 X126.295 Y142.679 E26.98318
G1 X127.188 Y140.958 E27.02188
G1 X128.503 Y139.73 E27.05778
G0 F6000 X128.745 Y140.051
G1 F1200 X130.357 Y139.089 E27.09524
G1 X131.781 Y138.855 E27.12404
G1 X218.168 Y138.8 E28.84799
G1 X219.678 Y139.171 E28.87902
G1 X221.297 Y140.011 E28.91542
G1 X222.449 Y141.245 E28.94911
G1 X223.411 Y142.857 E28.98657
G1 X223.645 Y144.281 E29.01537
G1 X223.7 Y205.668 E30.24041
G1 X223.329 Y207.178 E30.27144
G1 X222.489 Y208.797 E30.30784
G1 X221.255 Y209.949 E30.34153
G1 X219.643 Y210.911 E30.37899
G1 X218.219 Y211.145 E30.40779
G1 X195.437 Y211.2 E30.86243
G1 X194.426 Y211.89 E30.88686
G1 X192.864 Y213.022 E30.92535
G1 X191.221 Y213.926 E30.96278
G1 X189.226 Y214.4 E31.0037
G1 X186.419 Y214.392 E31.05971
G1 X185.222 Y214.068 E31.08446
G1 X183.482 Y213.483 E31.1211
G1 X181.779 Y212.144 E31.16433
G1 X180.666 Y211.2 E31.19345
G1 X169.536 Y211.2 E31.41556
G1 X168.526 Y211.89 E31.43997
G1 X166.964 Y213.022 E31.47847
G1 X165.321 Y213.926 E31.51589
G1 X163.326 Y214.4 E31.55681
G1 X160.519 Y214.392 E31.61283
G1 X159.322 Y214.068 E31.63758
G1 X157.582 Y213.483 E31.67421
G1 X155.879 Y212.144 E31.71744
G1 X154.766 Y211.2 E31.74657
G1 X131.832 Y211.2 E32.20424
G1 X130.322 Y210.829 E32.23527
G1 X128.703 Y209.989 E32.27167
G1 X127.551 Y208.755 E32.30536
G1 X126.589 Y207.143 E32.34282
G1 X126.355 Y205.719 E32.37162
G1 X126.3 Y144.332 E33.59666
G1 X126.671 Y142.822 E33.62769
G1 X127.511 Y141.203 E33.66409
G1 X128.745 Y140.051 E33.69778
G0 F6000 X128.987 Y140.372
G1 F1200 X130.495 Y139.472 E33.73283
G1 X131.846 Y139.25 E33.76015
G1 X218.121 Y139.2 E35.48186
G1 X219.536 Y139.548 E35.51094
G1 X221.052 Y140.334 E35.54502
G1 X222.128 Y141.487 E35.57649
G1 X223.028 Y142.995 E35.61154
G1 X223.25 Y144.346 E35.63886
G1 X223.3 Y205.621 E36.86167
G1 X222.952 Y207.036 E36.89075
G1 X222.166 Y208.552 E36.92482
G1 X221.013 Y209.628 E36.9563
G1 X219.505 Y210.528 E36.99134
G1 X218.154 Y210.75 E37.01866
G1 X195.314 Y210.8 E37.47446
G1 X194.191 Y211.566 E37.50159
G1 X192.629 Y212.698 E37.54009
G1 X191.075 Y213.55 E37.57545
G1 X189.181 Y214 E37.6143
G1 X186.472 Y213.992 E37.66836
G1 X185.35 Y213.689 E37.69156
G1 X183.676 Y213.126 E37.7268
G1 X182.038 Y211.839 E37.76837
G1 X180.813 Y210.8 E37.80043
G1 X169.413 Y210.8 E38.02793
G1 X168.291 Y211.566 E38.05504
G1 X166.729 Y212.698 E38.09353
G1 X165.175 Y213.55 E38.1289
G1 X163.281 Y214 E38.16775
G1 X160.572 Y213.992 E38.22181
G1 X159.45 Y213.689 E38.245
G1 X157.776 Y213.126 E38.28025
G1 X156.138 Y211.839 E38.32182
G1 X154.913 Y210.8 E38.35388
G1 X131.879 Y210.8 E38.81354
G1 X130.464 Y210.452 E38.84262
G1 X128.948 Y209.666 E38.8767
G1 X127.872 Y208.513 E38.90817
G1 X126.972 Y207.005 E38.94322
G1 X126.75 Y205.654 E38.97054
G1 X126.7 Y144.379 E40.19335
G1 X127.048 Y142.964 E40.22243
G1 X127.834 Y141.448 E40.25651
G1 X128.987 Y140.372 E40.28798
G0 F6000 X129.229 Y140.693
G1 F1200 X130.633 Y139.855 E40.32061
G1 X131.911 Y139.645 E40.34646
G1 X218.075 Y139.6 E42.06595
G1 X219.393 Y139.924 E42.09304
G1 X220.807 Y140.657 E42.12482
G1 X221.807 Y141.729 E42.15408
G1 X222.645 Y143.133 E42.18671
G1 X222.855 Y144.411 E42.21255
G1 X222.9 Y205.575 E43.43315
G1 X222.576 Y206.893 E43.46023
G1 X221.843 Y208.307 E43.49202
G1 X220.771 Y209.307 E43.52127
G1 X219.367 Y210.145 E43.5539
G1 X218.089 Y210.355 E43.57975
G1 X195.162 Y210.4 E44.03728
G1 X195.06 Y210.492 E44.04002
G1 X193.966 Y211.235 E44.06641
G1 X192.437 Y212.347 E44.10414
G1 X190.929 Y213.174 E44.13846
G1 X189.136 Y213.6 E44.17524
G1 X186.525 Y213.592 E44.22735
G1 X185.477 Y213.31 E44.24901
G1 X183.868 Y212.769 E44.28288
G1 X182.297 Y211.534 E44.32276
G1 X181.228 Y210.627 E44.35074
G1 X180.94 Y210.4 E44.35805
G1 X169.262 Y210.4 E44.5911
G1 X169.163 Y210.489 E44.59376
G1 X168.066 Y211.235 E44.62023
G1 X166.537 Y212.347 E44.65796
G1 X165.029 Y213.174 E44.69228
G1 X163.236 Y213.6 E44.72906
G1 X160.625 Y213.592 E44.78117
G1 X159.577 Y213.31 E44.80282
G1 X157.968 Y212.769 E44.8367
G1 X156.397 Y211.534 E44.87658
G1 X155.328 Y210.627 E44.90456
G1 X155.04 Y210.4 E44.91187
G1 X131.925 Y210.4 E45.37316
G1 X130.607 Y210.076 E45.40024
G1 X129.193 Y209.343 E45.43203
G1 X128.193 Y208.271 E45.46128
G1 X127.355 Y206.867 E45.49391
G1 X127.145 Y205.589 E45.51976
G1 X127.1 Y144.425 E46.74035
G1 X127.424 Y143.107 E46.76744
G1 X128.157 Y141.693 E46.79922
G1 X129.229 Y140.693 E46.82848
G0 F6000 X129.474 Y141.012
G1 F1200 X130.771 Y140.238 E46.85862
G1 X131.976 Y140.04 E46.88299
G1 X218.029 Y140 E48.60027
G1 X219.25 Y140.3 E48.62536
G1 X220.56 Y140.979 E48.65481
G1 X221.488 Y141.974 E48.68196
G1 X222.262 Y143.271 E48.7121
G1 X222.46 Y144.476 E48.73647
G1 X222.5 Y205.529 E49.95485
G1 X222.2 Y206.75 E49.97994
G1 X221.521 Y208.06 E50.00939
G1 X220.526 Y208.988 E50.03654
G1 X219.229 Y209.762 E50.06668
G1 X218.024 Y209.96 E50.09105
G1 X194.996 Y210 E50.5506
G1 X194.835 Y210.161 E50.55514
G1 X193.741 Y210.904 E50.58153
G1 X192.202 Y212.023 E50.61951
G1 X190.783 Y212.798 E50.65177
G1 X189.091 Y213.2 E50.68648
G1 X186.578 Y213.192 E50.73663
G1 X185.605 Y212.931 E50.75673
G1 X184.062 Y212.412 E50.78922
G1 X182.556 Y211.229 E50.82744
G1 X181.487 Y210.322 E50.85541
G1 X181.078 Y210 E50.8658
G1 X169.096 Y210 E51.10491
G1 X168.938 Y210.158 E51.10937
G1 X167.841 Y210.904 E51.13585
G1 X166.302 Y212.023 E51.17382
G1 X164.883 Y212.798 E51.20609
G1 X163.191 Y213.2 E51.24079
G1 X160.678 Y213.192 E51.29094
G1 X159.705 Y212.931 E51.31105
G1 X158.162 Y212.412 E51.34353
G1 X156.656 Y211.229 E51.38175
G1 X155.587 Y210.322 E51.40973
G1 X155.178 Y210 E51.42012
G1 X131.971 Y210 E51.88324
G1 X130.75 Y209.7 E51.90833
G1 X129.44 Y209.021 E51.93777
G1 X128.512 Y208.026 E51.96492
G1 X127.738 Y206.729 E51.99507
G1 X127.54 Y205.524 E52.01944
G1 X127.5 Y144.471 E53.23781
G1 X127.8 Y143.25 E53.26291
G1 X128.479 Y141.94 E53.29235
G1 X129.474 Y141.012 E53.3195
G0 F6000 X129.716 Y141.334
G1 F1200 X130.911 Y140.621 E53.34727
G1 X132.041 Y140.435 E53.37013
G1 X217.983 Y140.4 E55.08519
G1 X219.107 Y140.676 E55.10829
G1 X220.313 Y141.301 E55.1354
G1 X221.166 Y142.216 E55.16036
G1 X221.879 Y143.411 E55.18813
G1 X222.065 Y144.541 E55.21098
G1 X222.1 Y205.483 E56.42715
G1 X221.824 Y206.607 E56.45024
G1 X221.199 Y207.813 E56.47735
G1 X220.284 Y208.666 E56.50231
G1 X219.089 Y209.379 E56.53008
G1 X217.959 Y209.565 E56.55294
G1 X194.818 Y209.6 E57.01474
G1 X194.61 Y209.83 E57.02093
G1 X193.516 Y210.573 E57.04732
G1 X192.01 Y211.672 E57.08453
G1 X190.637 Y212.422 E57.11575
G1 X189.046 Y212.8 E57.14838
G1 X186.629 Y212.792 E57.19662
G1 X185.732 Y212.552 E57.21515
G1 X184.256 Y212.056 E57.24622
G1 X182.815 Y210.924 E57.28279
G1 X181.746 Y210.017 E57.31077
G1 X181.216 Y209.6 E57.32422
G1 X168.918 Y209.6 E57.56964
G1 X168.713 Y209.827 E57.57575
G1 X167.616 Y210.573 E57.60222
G1 X166.11 Y211.672 E57.63943
G1 X164.737 Y212.422 E57.67065
G1 X163.146 Y212.8 E57.70328
G1 X160.729 Y212.792 E57.75152
G1 X159.832 Y212.552 E57.77005
G1 X158.356 Y212.056 E57.80112
G1 X156.915 Y210.924 E57.83769
G1 X155.846 Y210.017 E57.86567
G1 X155.316 Y209.6 E57.87912
G1 X132.017 Y209.6 E58.34408
G1 X130.893 Y209.324 E58.36718
G1 X129.687 Y208.699 E58.39429
G1 X128.834 Y207.784 E58.41925
G1 X128.121 Y206.589 E58.44702
G1 X127.935 Y205.459 E58.46987
G1 X127.9 Y144.517 E59.68604
G1 X128.176 Y143.393 E59.70913
G1 X128.801 Y142.187 E59.73624
G1 X129.716 Y141.334 E59.7612
G0 F6000 X129.958 Y141.656
G1 F1200 X131.051 Y141.004 E59.7866
G1 X132.106 Y140.83 E59.80794
G1 X217.936 Y140.8 E61.52077
G1 X218.965 Y141.053 E61.54192
G1 X220.066 Y141.623 E61.56666
G1 X220.844 Y142.458 E61.58943
G1 X221.496 Y143.551 E61.61483
G1 X221.67 Y144.606 E61.63617
G1 X221.7 Y205.436 E62.8501
G1 X221.447 Y206.465 E62.87124
G1 X220.877 Y207.566 E62.89599
G1 X220.042 Y208.344 E62.91876
G1 X218.949 Y208.996 E62.94416
G1 X217.894 Y209.17 E62.9655
G1 X194.64 Y209.2 E63.42956
G1 X194.346 Y209.525 E63.4383
G1 X193.291 Y210.242 E63.46376
G1 X191.818 Y211.321 E63.5002
G1 X190.491 Y212.046 E63.53037
G1 X189.001 Y212.4 E63.56093
G1 X186.68 Y212.392 E63.60725
G1 X185.859 Y212.173 E63.62421
G1 X184.448 Y211.699 E63.65391
G1 X183.074 Y210.619 E63.68879
G1 X182.005 Y209.712 E63.71677
G1 X181.552 Y209.355 E63.72828
G1 X181.411 Y209.2 E63.73246
G1 X168.74 Y209.2 E63.98532
G1 X168.449 Y209.523 E63.994
G1 X167.391 Y210.242 E64.01953
G1 X165.918 Y211.321 E64.05596
G1 X164.591 Y212.046 E64.08614
G1 X163.101 Y212.4 E64.1167
G1 X160.78 Y212.392 E64.16302
G1 X159.959 Y212.173 E64.17998
G1 X158.548 Y211.699 E64.20968
G1 X157.174 Y210.619 E64.24456
G1 X156.105 Y209.712 E64.27254
G1 X155.652 Y209.355 E64.28405
G1 X155.511 Y209.2 E64.28823
G1 X132.064 Y209.2 E64.75614
G1 X131.035 Y208.947 E64.77728
G1 X129.934 Y208.377 E64.80203
G1 X129.156 Y207.542 E64.8248
G1 X128.504 Y206.449 E64.8502
G1 X128.33 Y205.394 E64.87154
G1 X128.3 Y144.564 E66.08547
G1 X128.553 Y143.535 E66.10661
G1 X129.123 Y142.434 E66.13135
G1 X129.958 Y141.656 E66.15413
G0 F6000 X130.2 Y141.978
G1 F1200 X131.191 Y141.387 E66.17716
G1 X132.171 Y141.225 E66.19698
G1 X217.89 Y141.2 E67.90759
G1 X218.822 Y141.429 E67.92675
G1 X219.819 Y141.945 E67.94915
G1 X220.522 Y142.7 E67.96974
G1 X221.113 Y143.691 E67.99276
G1 X221.275 Y144.671 E68.01258
G1 X221.3 Y205.39 E69.2243
G1 X221.071 Y206.322 E69.24345
G1 X220.555 Y207.319 E69.26585
G1 X219.8 Y208.022 E69.28644
G1 X218.809 Y208.613 E69.30947
G1 X217.829 Y208.775 E69.32929
G1 X194.462 Y208.8 E69.7956
G1 X194.082 Y209.221 E69.80692
G1 X193.066 Y209.911 E69.83143
G1 X191.626 Y210.97 E69.8671
G1 X190.345 Y211.67 E69.89623
G1 X188.956 Y212 E69.92472
G1 X186.735 Y211.992 E69.96904
G1 X185.962 Y211.786 E69.98501
G1 X184.642 Y211.342 E70.0128
G1 X183.333 Y210.314 E70.04602
G1 X182.264 Y209.407 E70.07399
