;FLAVOR:Marlin
;TIME:22737
;Filament used: 17.5899m
;Layer height: 0.12
;MINX:124.7
;MINY:137.2
;MINZ:0.12
;MAXX:225.3
;MAXY:212.8
;MAXZ:50.04
;TARGET_MACHINE.NAME:Creality Ender-5 Plus
;Generated with Cura_SteamEngine 5.6.0
M140 S60
M105
M190 S60
M104 S200
M105
M109 S200
M82 ;absolute extrusion mode
M201 X500.00 Y500.00 Z100.00 E5000.00 ;Setup machine max acceleration
M203 X500.00 Y500.00 Z10.00 E50.00 ;Setup machine max feedrate
M204 P500.00 R1000.00 T500.00 ;Setup Print/Retract/Travel acceleration
M205 X8.00 Y8.00 Z0.40 E5.00 ;Setup Jerk
M220 S100 ;Reset Feedrate
M221 S100 ;Reset Flowrate

G28 ;Home
M420 S1 Z2 ;Enable ABL using saved Mesh and Fade Height

G92 E0 ;Reset Extruder
G1 Z2.0 F3000 ;Move Z Axis up
G1 X10.1 Y20 Z0.28 F5000.0 ;Move to start position
G1 X10.1 Y200.0 Z0.28 F1500.0 E15 ;Draw the first line
G1 X10.4 Y200.0 Z0.28 F5000.0 ;Move to side a little
G1 X10.4 Y20 Z0.28 F1500.0 E30 ;Draw the second line
G92 E0 ;Reset Extruder
G1 Z2.0 F3000 ;Move Z Axis up

G92 E0
G92 E0
G1 F1500 E-6.5
;LAYER_COUNT:417
;LAYER:0
M107
G0 F6000 X127.78 Y138.764 Z0.12
;TYPE:SKIRT
G1 F1500 E0
G1 F1200 X129.803 Y137.557 E0.04701
G1 X131.521 Y137.275 E0.08175
G1 X218.353 Y137.2 E1.81458
G1 X220.249 Y137.666 E1.85354
G1 X222.277 Y138.719 E1.89915
G1 X223.736 Y140.28 E1.94179
G1 X224.943 Y142.303 E1.9888
G1 X225.225 Y144.021 E2.02354
G1 X225.3 Y205.853 E3.25746
G1 X224.834 Y207.749 E3.29643
G1 X223.781 Y209.777 E3.34203
G1 X222.22 Y211.236 E3.38467
G1 X220.197 Y212.443 E3.43168
G1 X218.479 Y212.725 E3.46642
G1 X131.647 Y212.8 E5.19925
G1 X129.751 Y212.334 E5.23821
G1 X127.723 Y211.281 E5.28381
G1 X126.264 Y209.72 E5.32645
G1 X125.057 Y207.697 E5.37346
G1 X124.775 Y205.979 E5.40821
G1 X124.7 Y144.147 E6.64213
G1 X125.166 Y142.251 E6.6811
G1 X126.219 Y140.223 E6.7267
G1 X127.78 Y138.764 E6.76934
G0 F6000 X128.019 Y139.088
G1 F1200 X129.943 Y137.94 E6.81405
G1 X131.586 Y137.67 E6.84728
G1 X218.307 Y137.6 E8.57789
G1 X220.106 Y138.042 E8.61486
G1 X222.032 Y139.042 E8.65816
G1 X223.412 Y140.519 E8.6985
G1 X224.56 Y142.443 E8.74321
G1 X224.83 Y144.086 E8.77644
G1 X224.9 Y205.807 E10.00815
G1 X224.458 Y207.606 E10.04512
G1 X223.458 Y209.532 E10.08843
G1 X221.981 Y210.912 E10.12876
G1 X220.057 Y212.06 E10.17348
G1 X218.414 Y212.33 E10.2067
G1 X131.693 Y212.4 E11.93732
G1 X129.894 Y211.958 E11.97428
G1 X127.968 Y210.958 E12.01759
G1 X126.588 Y209.481 E12.05793
G1 X125.44 Y207.557 E12.10264
G1 X125.17 Y205.914 E12.13587
G1 X125.1 Y144.193 E13.36758
G1 X125.542 Y142.394 E13.40455
G1 X126.542 Y140.468 E13.44785
G1 X128.019 Y139.088 E13.48819
G0 F6000 X128.261 Y139.409
G1 F1200 X130.081 Y138.323 E13.53049
G1 X131.651 Y138.065 E13.56224
G1 X218.26 Y138 E15.29062
G1 X219.964 Y138.419 E15.32563
G1 X221.787 Y139.365 E15.36662
G1 X223.091 Y140.761 E15.40474
G1 X224.177 Y142.581 E15.44704
G1 X224.435 Y144.151 E15.47879
G1 X224.5 Y205.76 E16.70826
G1 X224.081 Y207.464 E16.74328
G1 X223.135 Y209.287 E16.78427
G1 X221.739 Y210.591 E16.82239
G1 X219.919 Y211.677 E16.86468
G1 X218.349 Y211.935 E16.89644
G1 X131.74 Y212 E18.62481
G1 X130.036 Y211.581 E18.65983
G1 X128.213 Y210.635 E18.70082
G1 X126.909 Y209.239 E18.73894
G1 X125.823 Y207.419 E18.78123
G1 X125.565 Y205.849 E18.81298
G1 X125.5 Y144.24 E20.04246
G1 X125.919 Y142.536 E20.07748
G1 X126.865 Y140.713 E20.11846
G1 X128.261 Y139.409 E20.15659
G0 F6000 X128.503 Y139.73
G1 F1200 X130.219 Y138.706 E20.19646
G1 X131.716 Y138.46 E20.22674
G1 X218.214 Y138.4 E21.9529
G1 X219.821 Y138.795 E21.98593
G1 X221.542 Y139.688 E22.02462
G1 X222.77 Y141.003 E22.06052
G1 X223.794 Y142.719 E22.1004
G1 X224.04 Y144.216 E22.13068
G1 X224.1 Y205.714 E23.35794
G1 X223.705 Y207.321 E23.39096
G1 X222.812 Y209.042 E23.42965
G1 X221.497 Y210.27 E23.46556
G1 X219.781 Y211.294 E23.50544
G1 X218.284 Y211.54 E23.53571
G1 X131.786 Y211.6 E25.26187
G1 X130.179 Y211.205 E25.2949
G1 X128.458 Y210.312 E25.33359
G1 X127.23 Y208.997 E25.3695
G1 X126.206 Y207.281 E25.40937
G1 X125.96 Y205.784 E25.43965
G1 X125.9 Y144.286 E26.66691
G1 X126.295 Y142.679 E26.69993
G1 X127.188 Y140.958 E26.73862
G1 X128.503 Y139.73 E26.77453
G0 F6000 X128.745 Y140.051
G1 F1200 X130.357 Y139.089 E26.81199
G1 X131.781 Y138.855 E26.84079
G1 X218.168 Y138.8 E28.56474
G1 X219.678 Y139.171 E28.59577
G1 X221.297 Y140.011 E28.63217
G1 X222.449 Y141.245 E28.66585
G1 X223.411 Y142.857 E28.70332
G1 X223.645 Y144.281 E28.73212
G1 X223.7 Y205.668 E29.95716
G1 X223.329 Y207.178 E29.98819
G1 X222.489 Y208.797 E30.02459
G1 X221.255 Y209.949 E30.05828
G1 X219.643 Y210.911 E30.09574
G1 X218.219 Y211.145 E30.12454
G1 X131.832 Y211.2 E31.84848
G1 X130.322 Y210.829 E31.87951
G1 X128.703 Y209.989 E31.91591
G1 X127.551 Y208.755 E31.9496
G1 X126.589 Y207.143 E31.98706
G1 X126.355 Y205.719 E32.01586
G1 X126.3 Y144.332 E33.24091
G1 X126.671 Y142.822 E33.27194
G1 X127.511 Y141.203 E33.30834
G1 X128.745 Y140.051 E33.34202
G0 F6000 X128.987 Y140.372
G1 F1200 X130.495 Y139.472 E33.37707
G1 X131.846 Y139.25 E33.40439
G1 X218.121 Y139.2 E35.1261
G1 X219.536 Y139.548 E35.15518
G1 X221.052 Y140.334 E35.18926
G1 X222.128 Y141.487 E35.22073
G1 X223.028 Y142.995 E35.25578
G1 X223.25 Y144.346 E35.2831
G1 X223.3 Y205.621 E36.50591
G1 X222.952 Y207.036 E36.53499
G1 X222.166 Y208.552 E36.56907
G1 X221.013 Y209.628 E36.60054
G1 X219.505 Y210.528 E36.63559
G1 X218.154 Y210.75 E36.66291
G1 X131.879 Y210.8 E38.38462
G1 X130.464 Y210.452 E38.4137
G1 X128.948 Y209.666 E38.44778
G1 X127.872 Y208.513 E38.47925
G1 X126.972 Y207.005 E38.5143
G1 X126.75 Y205.654 E38.54162
G1 X126.7 Y144.379 E39.76443
G1 X127.048 Y142.964 E39.79351
G1 X127.834 Y141.448 E39.82758
G1 X128.987 Y140.372 E39.85906
G0 F6000 X129.229 Y140.693
G1 F1200 X130.633 Y139.855 E39.89169
G1 X131.911 Y139.645 E39.91753
G1 X218.075 Y139.6 E41.63703
G1 X219.393 Y139.924 E41.66411
G1 X220.807 Y140.657 E41.6959
G1 X221.807 Y141.729 E41.72515
G1 X222.645 Y143.133 E41.75778
G1 X222.855 Y144.411 E41.78363
G1 X222.9 Y205.575 E43.00422
G1 X222.576 Y206.893 E43.03131
G1 X221.843 Y208.307 E43.06309
G1 X220.771 Y209.307 E43.09235
G1 X219.367 Y210.145 E43.12498
G1 X218.089 Y210.355 E43.15082
G1 X131.925 Y210.4 E44.87032
G1 X130.607 Y210.076 E44.8974
G1 X129.193 Y209.343 E44.92919
G1 X128.193 Y208.271 E44.95844
G1 X127.355 Y206.867 E44.99107
G1 X127.145 Y205.589 E45.01692
G1 X127.1 Y144.425 E46.23751
G1 X127.424 Y143.107 E46.2646
G1 X128.157 Y141.693 E46.29638
G1 X129.229 Y140.693 E46.32564
G0 F6000 X129.474 Y141.012
G1 F1200 X130.771 Y140.238 E46.35578
G1 X131.976 Y140.04 E46.38015
G1 X218.029 Y140 E48.09743
G1 X219.25 Y140.3 E48.12252
G1 X220.56 Y140.979 E48.15197
G1 X221.488 Y141.974 E48.17912
G1 X222.262 Y143.271 E48.20926
G1 X222.46 Y144.476 E48.23363
G1 X222.5 Y205.529 E49.45201
G1 X222.2 Y206.75 E49.4771
G1 X221.521 Y208.06 E49.50655
G1 X220.526 Y208.988 E49.5337
G1 X219.229 Y209.762 E49.56384
G1 X218.024 Y209.96 E49.58821
G1 X131.971 Y210 E51.30549
G1 X130.75 Y209.7 E51.33058
G1 X129.44 Y209.021 E51.36003
G1 X128.512 Y208.026 E51.38718
G1 X127.738 Y206.729 E51.41732
G1 X127.54 Y205.524 E51.44169
G1 X127.5 Y144.471 E52.66007
G1 X127.8 Y143.25 E52.68516
G1 X128.479 Y141.94 E52.7146
G1 X129.474 Y141.012 E52.74176
G0 F6000 X129.716 Y141.334
G1 F1200 X130.911 Y140.621 E52.76953
G1 X132.041 Y140.435 E52.79238
G1 X217.983 Y140.4 E54.50745
G1 X219.107 Y140.676 E54.53054
G1 X220.313 Y141.301 E54.55765
G1 X221.166 Y142.216 E54.58261
G1 X221.879 Y143.411 E54.61038
G1 X222.065 Y144.541 E54.63324
G1 X222.1 Y205.483 E55.8494
G1 X221.824 Y206.607 E55.8725
G1 X221.199 Y207.813 E55.8996
G1 X220.284 Y208.666 E55.92457
G1 X219.089 Y209.379 E55.95234
G1 X217.959 Y209.565 E55.97519
G1 X132.017 Y209.6 E57.69026
G1 X130.893 Y209.324 E57.71335
G1 X129.687 Y208.699 E57.74046
G1 X128.834 Y207.784 E57.76543
G1 X128.121 Y206.589 E57.79319
G1 X127.935 Y205.459 E57.81605
G1 X127.9 Y144.517 E59.03221
G1 X128.176 Y143.393 E59.05531
G1 X128.801 Y142.187 E59.08242
G1 X129.716 Y141.334 E59.10738
G0 F6000 X129.958 Y141.656
G1 F1200 X131.051 Y141.004 E59.13278
G1 X132.106 Y140.83 E59.15412
G1 X217.936 Y140.8 E60.86695
G1 X218.965 Y141.053 E60.88809
G1 X220.066 Y141.623 E60.91283
G1 X220.844 Y142.458 E60.93561
G1 X221.496 Y143.551 E60.96101
G1 X221.67 Y144.606 E60.98235
G1 X221.7 Y205.436 E62.19627
G1 X221.447 Y206.465 E62.21742
G1 X220.877 Y207.566 E62.24216
G1 X220.042 Y208.344 E62.26494
G1 X218.949 Y208.996 E62.29034
G1 X217.894 Y209.17 E62.31167
G1 X132.064 Y209.2 E64.0245
G1 X131.035 Y208.947 E64.04565
G1 X129.934 Y208.377 E64.07039
G1 X129.156 Y207.542 E64.09317
G1 X128.504 Y206.449 E64.11857
G1 X128.33 Y205.394 E64.1399
G1 X128.3 Y144.564 E65.35383
G1 X128.553 Y143.535 E65.37498
G1 X129.123 Y142.434 E65.39972
G1 X129.958 Y141.656 E65.4225
G0 F6000 X130.2 Y141.978
G1 F1200 X131.191 Y141.387 E65.44552
G1 X132.171 Y141.225 E65.46534
G1 X217.89 Y141.2 E67.17596
G1 X218.822 Y141.429 E67.19511
G1 X219.819 Y141.945 E67.21752
G1 X220.522 Y142.7 E67.2381
G1 X221.113 Y143.691 E67.26113
G1 X221.275 Y144.671 E67.28095
G1 X221.3 Y205.39 E68.49266
G1 X221.071 Y206.322 E68.51182
G1 X220.555 Y207.319 E68.53422
G1 X219.8 Y208.022 E68.55481
G1 X218.809 Y208.613 E68.57783
G1 X217.829 Y208.775 E68.59766
G1 X132.11 Y208.8 E70.30827
G1 X131.178 Y208.571 E70.32742
G1 X130.181 Y208.055 E70.34983
G1 X129.478 Y207.3 E70.37041
G1 X128.887 Y206.309 E70.39344
G1 X128.725 Y205.329 E70.41326
G1 X128.7 Y144.61 E71.62497
G1 X128.929 Y143.678 E71.64413
G1 X129.445 Y142.681 E71.66653
G1 X130.2 Y141.978 E71.68712
G0 F6000 X130.439 Y142.302
G1 F1200 X131.331 Y141.77 E71.70784
G1 X132.236 Y141.62 E71.72615
G1 X217.844 Y141.6 E73.43455
G1 X218.679 Y141.805 E73.45171
G1 X219.574 Y142.268 E73.47182
G1 X220.198 Y142.939 E73.4901
G1 X220.73 Y143.831 E73.51083
G1 X220.88 Y144.736 E73.52914
G1 X220.9 Y205.344 E74.73863
G1 X220.695 Y206.179 E74.75579
G1 X220.232 Y207.074 E74.7759
G1 X219.561 Y207.698 E74.79419
G1 X218.669 Y208.23 E74.81491
G1 X217.764 Y208.38 E74.83322
G1 X132.156 Y208.4 E76.54162
G1 X131.321 Y208.195 E76.55878
G1 X130.426 Y207.732 E76.57889
G1 X129.802 Y207.061 E76.59717
G1 X129.27 Y206.169 E76.6179
G1 X129.12 Y205.264 E76.63621
G1 X129.1 Y144.656 E77.84571
G1 X129.305 Y143.821 E77.86286
G1 X129.768 Y142.926 E77.88297
G1 X130.439 Y142.302 E77.90126
G0 F6000 X130.678 Y142.626
G1 F1200 X131.471 Y142.153 E77.91969
G1 X132.302 Y142.015 E77.9365
G1 X217.798 Y142 E79.64266
G1 X218.536 Y142.181 E79.65782
G1 X219.329 Y142.591 E79.67564
G1 X219.874 Y143.178 E79.69162
G1 X220.347 Y143.971 E79.71005
G1 X220.485 Y144.802 E79.72686
G1 X220.5 Y205.298 E80.93413
G1 X220.319 Y206.036 E80.94929
G1 X219.909 Y206.829 E80.9671
G1 X219.322 Y207.374 E80.98309
G1 X218.529 Y207.847 E81.00152
G1 X217.698 Y207.985 E81.01833
G1 X132.202 Y208 E82.72449
G1 X131.464 Y207.819 E82.73966
G1 X130.671 Y207.409 E82.75747
G1 X130.126 Y206.822 E82.77346
G1 X129.653 Y206.029 E82.79188
G1 X129.515 Y205.198 E82.80869
G1 X129.5 Y144.702 E84.01596
G1 X129.681 Y143.964 E84.03112
G1 X130.091 Y143.171 E84.04893
G1 X130.678 Y142.626 E84.06492
G0 F6000 X130.917 Y142.95
G1 F1200 X131.611 Y142.536 E84.08105
G1 X132.368 Y142.41 E84.09636
G1 X217.748 Y142.4 E85.80021
G1 X218.397 Y142.559 E85.81355
G1 X219.084 Y142.914 E85.82898
G1 X219.55 Y143.417 E85.84266
G1 X219.964 Y144.111 E85.85879
G1 X220.09 Y144.868 E85.8741
G1 X220.1 Y205.248 E87.07905
G1 X219.941 Y205.897 E87.09238
G1 X219.586 Y206.584 E87.10782
G1 X219.083 Y207.05 E87.1215
G1 X218.389 Y207.464 E87.13763
G1 X217.632 Y207.59 E87.15294
G1 X132.252 Y207.6 E88.85679
G1 X131.603 Y207.441 E88.87013
G1 X130.916 Y207.086 E88.88556
G1 X130.45 Y206.583 E88.89924
G1 X130.036 Y205.889 E88.91537
G1 X129.91 Y205.132 E88.93068
G1 X129.9 Y144.752 E90.13563
G1 X130.059 Y144.103 E90.14897
G1 X130.414 Y143.416 E90.1644
G1 X130.917 Y142.95 E90.17808
G0 F6000 X131.156 Y143.274
G1 F1200 X131.751 Y142.919 E90.19191
G1 X132.434 Y142.805 E90.20573
G1 X217.698 Y142.8 E91.90726
G1 X218.258 Y142.937 E91.91877
G1 X218.838 Y143.237 E91.9318
G1 X219.226 Y143.656 E91.94319
G1 X219.581 Y144.251 E91.95702
G1 X219.695 Y144.934 E91.97084
G1 X219.7 Y205.198 E93.17347
G1 X219.563 Y205.758 E93.18498
G1 X219.263 Y206.338 E93.19801
G1 X218.844 Y206.726 E93.20941
G1 X218.249 Y207.081 E93.22323
G1 X217.566 Y207.195 E93.23705
G1 X132.302 Y207.2 E94.93859
G1 X131.742 Y207.063 E94.95009
G1 X131.162 Y206.763 E94.96312
G1 X130.774 Y206.344 E94.97452
G1 X130.419 Y205.749 E94.98834
G1 X130.305 Y205.066 E95.00216
G1 X130.3 Y144.802 E96.2048
G1 X130.437 Y144.242 E96.2163
G1 X130.737 Y143.662 E96.22933
G1 X131.156 Y143.274 E96.24073
G0 F6000 X131.398 Y143.595
G1 F1200 X131.889 Y143.302 E96.25214
G1 X132.5 Y143.2 E96.2645
G1 X217.648 Y143.2 E97.96372
G1 X218.119 Y143.315 E97.9734
G1 X218.592 Y143.56 E97.98403
G1 X218.905 Y143.898 E97.99322
G1 X219.198 Y144.389 E98.00463
G1 X219.3 Y145 E98.01699
G1 X219.3 Y205.148 E99.21731
G1 X219.185 Y205.619 E99.22699
G1 X218.94 Y206.092 E99.23762
G1 X218.602 Y206.405 E99.24681
G1 X218.111 Y206.698 E99.25822
G1 X217.5 Y206.8 E99.27058
G1 X132.352 Y206.8 E100.9698
G1 X131.881 Y206.685 E100.97948
G1 X131.408 Y206.44 E100.99011
G1 X131.095 Y206.102 E100.9993
G1 X130.802 Y205.611 E101.01071
G1 X130.7 Y205 E101.02307
G1 X130.7 Y144.852 E102.22339
G1 X130.815 Y144.381 E102.23307
G1 X131.06 Y143.908 E102.2437
G1 X131.398 Y143.595 E102.25289
G0 F6000 X131.64 Y143.916
G1 F1200 X131.383 Y144.154 E102.25988
G1 X131.193 Y144.52 E102.26811
G1 X131.1 Y144.902 E102.27596
G1 X131.1 Y205 E103.47528
G1 X131.185 Y205.473 E103.48487
G1 X131.416 Y205.86 E103.49386
G1 X131.654 Y206.117 E103.50085
G1 X132.02 Y206.307 E103.50908
G1 X132.402 Y206.4 E103.51693
G1 X217.5 Y206.4 E105.21515
G1 X217.973 Y206.315 E105.22474
G1 X218.36 Y206.084 E105.23373
G1 X218.617 Y205.846 E105.24072
G1 X218.807 Y205.48 E105.24895
G1 X218.9 Y205.098 E105.2568
G1 X218.9 Y145 E106.45612
G1 X218.815 Y144.527 E106.46571
G1 X218.584 Y144.14 E106.4747
G1 X218.346 Y143.883 E106.48169
G1 X217.98 Y143.693 E106.48992
G1 X217.598 Y143.6 E106.49777
G1 X132.5 Y143.6 E108.19599
G1 X132.027 Y143.685 E108.20558
G1 X131.64 Y143.916 E108.21458
G0 F6000 X131.845 Y144.26
G1 F1200 X132.172 Y144.065 E108.22218
G1 X132.5 Y144 E108.22885
G1 X217.549 Y144 E109.92609
G1 X217.838 Y144.07 E109.93203
G1 X218.101 Y144.207 E109.93794
G1 X218.24 Y144.345 E109.94185
G1 X218.435 Y144.672 E109.94945
G1 X218.5 Y145 E109.95612
G1 X218.5 Y205.049 E111.15447
G1 X218.43 Y205.338 E111.1604
G1 X218.293 Y205.601 E111.16632
G1 X218.155 Y205.74 E111.17023
G1 X217.828 Y205.935 E111.17783
G1 X217.5 Y206 E111.1845
G1 X132.451 Y206 E112.88174
G1 X132.162 Y205.93 E112.88768
G1 X131.899 Y205.793 E112.8936
G1 X131.76 Y205.655 E112.8975
G1 X131.565 Y205.328 E112.9051
G1 X131.5 Y205 E112.91177
G1 X131.5 Y144.951 E114.11012
G1 X131.57 Y144.662 E114.11605
G1 X131.707 Y144.399 E114.12197
G1 X131.845 Y144.26 E114.12588
G0 F6000 X132.339 Y144.881
G1 F1200 X132.5 Y144.8 E114.12947
G1 X217.5 Y144.8 E115.82574
G1 X217.619 Y144.839 E115.82824
G1 X217.7 Y145 E115.83184
G1 X217.7 Y205 E117.0292
G1 X217.661 Y205.119 E117.0317
G1 X217.5 Y205.2 E117.0353
G1 X132.5 Y205.2 E118.73156
G1 X132.381 Y205.161 E118.73406
G1 X132.3 Y205 E118.73766
G1 X132.3 Y145 E119.93503
G1 X132.339 Y144.881 E119.93752
G0 F6000 X132.05 Y144.604
G1 F1200 X132.32 Y144.443 E119.9438
G1 X132.5 Y144.4 E119.94749
G1 X217.5 Y144.4 E121.64376
G1 X217.744 Y144.459 E121.64877
G1 X217.896 Y144.55 E121.6523
G1 X218.057 Y144.82 E121.65858
G1 X218.1 Y145 E121.66227
G1 X218.1 Y205 E122.85963
G1 X218.041 Y205.244 E122.86464
G1 X217.95 Y205.396 E122.86818
G1 X217.68 Y205.557 E122.87445
G1 X217.5 Y205.6 E122.87815
G1 X132.5 Y205.6 E124.57441
G1 X132.256 Y205.541 E124.57942
G1 X132.104 Y205.45 E124.58296
G1 X131.943 Y205.18 E124.58923
G1 X131.9 Y205 E124.59292
G1 X131.9 Y145 E125.79029
G1 X131.959 Y144.756 E125.7953
G1 X132.05 Y144.604 E125.79883
G1 F1500 E119.29883
;MESH:dans eden led yeni.STL
G0 F6000 X138.69 Y190.176
G0 X140.397 Y190.808
G0 X140.9 Y191.089
G0 X141.347 Y191.452
G0 X141.727 Y191.883
G0 X142.029 Y192.372
G0 X142.244 Y192.907
G0 X142.364 Y193.469
G0 X142.389 Y194.043
G0 X142.317 Y194.614
G0 X142.148 Y195.164
