;FLAVOR:Marlin
;TIME:14399
;Filament used: 11.8996m
;Layer height: 0.12
;MINX:127.2
;MINY:137.2
;MINZ:0.12
;MAXX:222.8
;MAXY:212.8
;MAXZ:39.96
;TARGET_MACHINE.NAME:Creality Ender-5 Plus
;Generated with Cura_SteamEngine 5.6.0
M140 S60
M105
M190 S60
M104 S200
M105
M109 S200
M82 ;absolute extrusion mode
M201 X500.00 Y500.00 Z100.00 E5000.00 ;Setup machine max acceleration
M203 X500.00 Y500.00 Z10.00 E50.00 ;Setup machine max feedrate
M204 P500.00 R1000.00 T500.00 ;Setup Print/Retract/Travel acceleration
M205 X8.00 Y8.00 Z0.40 E5.00 ;Setup Jerk
M220 S100 ;Reset Feedrate
M221 S100 ;Reset Flowrate

G28 ;Home
M420 S1 Z2 ;Enable ABL using saved Mesh and Fade Height

G92 E0 ;Reset Extruder
G1 Z2.0 F3000 ;Move Z Axis up
G1 X10.1 Y20 Z0.28 F5000.0 ;Move to start position
G1 X10.1 Y200.0 Z0.28 F1500.0 E15 ;Draw the first line
G1 X10.4 Y200.0 Z0.28 F5000.0 ;Move to side a little
G1 X10.4 Y20 Z0.28 F1500.0 E30 ;Draw the second line
G92 E0 ;Reset Extruder
G1 Z2.0 F3000 ;Move Z Axis up

G92 E0
G92 E0
G1 F1500 E-6.5
;LAYER_COUNT:333
;LAYER:0
M107
G0 F6000 X130.28 Y138.764 Z0.12
;TYPE:SKIRT
G1 F1500 E0
G1 F1200 X132.303 Y137.557 E0.04701
G1 X134.021 Y137.275 E0.08175
G1 X215.853 Y137.2 E1.7148
G1 X217.749 Y137.666 E1.75376
G1 X219.777 Y138.719 E1.79936
G1 X221.236 Y140.28 E1.842
G1 X222.443 Y142.303 E1.88902
G1 X222.725 Y144.021 E1.92376
G1 X222.8 Y205.853 E3.15768
G1 X222.334 Y207.749 E3.19665
G1 X221.281 Y209.777 E3.24225
G1 X219.72 Y211.236 E3.28489
G1 X217.697 Y212.443 E3.3319
G1 X215.979 Y212.725 E3.36664
G1 X134.147 Y212.8 E4.99969
G1 X132.251 Y212.334 E5.03865
G1 X130.223 Y211.281 E5.08425
G1 X128.764 Y209.72 E5.12689
G1 X127.557 Y207.697 E5.1739
G1 X127.275 Y205.979 E5.20865
G1 X127.2 Y144.147 E6.44257
G1 X127.666 Y142.251 E6.48153
G1 X128.719 Y140.223 E6.52714
G1 X130.28 Y138.764 E6.56978
G0 F6000 X130.519 Y139.088
G1 F1200 X132.443 Y137.94 E6.61449
G1 X134.086 Y137.67 E6.64771
G1 X215.807 Y137.6 E8.27855
G1 X217.606 Y138.042 E8.31551
G1 X219.532 Y139.042 E8.35882
G1 X220.912 Y140.519 E8.39916
G1 X222.06 Y142.443 E8.44387
G1 X222.33 Y144.086 E8.4771
G1 X222.4 Y205.807 E9.70881
G1 X221.958 Y207.606 E9.74578
G1 X220.958 Y209.532 E9.78908
G1 X219.481 Y210.912 E9.82942
G1 X217.557 Y212.06 E9.87413
G1 X215.914 Y212.33 E9.90736
G1 X134.193 Y212.4 E11.53819
G1 X132.394 Y211.958 E11.57516
G1 X130.468 Y210.958 E11.61847
G1 X129.088 Y209.481 E11.65881
G1 X127.94 Y207.557 E11.70352
G1 X127.67 Y205.914 E11.73675
G1 X127.6 Y144.193 E12.96846
G1 X128.042 Y142.394 E13.00543
G1 X129.042 Y140.468 E13.04873
G1 X130.519 Y139.088 E13.08907
G0 F6000 X130.761 Y139.409
G1 F1200 X132.581 Y138.323 E13.13137
G1 X134.151 Y138.065 E13.16312
G1 X215.76 Y138 E14.79171
G1 X217.464 Y138.419 E14.82673
G1 X219.287 Y139.365 E14.86772
G1 X220.591 Y140.761 E14.90584
G1 X221.677 Y142.581 E14.94813
G1 X221.935 Y144.151 E14.97989
G1 X222 Y205.76 E16.20936
G1 X221.581 Y207.464 E16.24438
G1 X220.635 Y209.287 E16.28537
G1 X219.239 Y210.591 E16.32349
G1 X217.419 Y211.677 E16.36578
G1 X215.849 Y211.935 E16.39753
G1 X134.24 Y212 E18.02613
G1 X132.536 Y211.581 E18.06115
G1 X130.713 Y210.635 E18.10213
G1 X129.409 Y209.239 E18.14026
G1 X128.323 Y207.419 E18.18255
G1 X128.065 Y205.849 E18.2143
G1 X128 Y144.24 E19.44378
G1 X128.419 Y142.536 E19.4788
G1 X129.365 Y140.713 E19.51978
G1 X130.761 Y139.409 E19.5579
G0 F6000 X131.003 Y139.73
G1 F1200 X132.719 Y138.706 E19.59778
G1 X134.216 Y138.46 E19.62806
G1 X215.714 Y138.4 E21.25444
G1 X217.321 Y138.795 E21.28746
G1 X219.042 Y139.688 E21.32616
G1 X220.27 Y141.003 E21.36206
G1 X221.294 Y142.719 E21.40194
G1 X221.54 Y144.216 E21.43221
G1 X221.6 Y205.714 E22.65947
G1 X221.205 Y207.321 E22.6925
G1 X220.312 Y209.042 E22.73119
G1 X218.997 Y210.27 E22.7671
G1 X217.281 Y211.294 E22.80697
G1 X215.784 Y211.54 E22.83725
G1 X134.286 Y211.6 E24.46363
G1 X132.679 Y211.205 E24.49665
G1 X130.958 Y210.312 E24.53535
G1 X129.73 Y208.997 E24.57125
G1 X128.706 Y207.281 E24.61113
G1 X128.46 Y205.784 E24.64141
G1 X128.4 Y144.286 E25.86867
G1 X128.795 Y142.679 E25.90169
G1 X129.688 Y140.958 E25.94038
G1 X131.003 Y139.73 E25.97629
G0 F6000 X131.245 Y140.051
G1 F1200 X132.857 Y139.089 E26.01375
G1 X134.281 Y138.855 E26.04255
G1 X215.668 Y138.8 E27.66671
G1 X217.178 Y139.171 E27.69774
G1 X218.797 Y140.011 E27.73414
G1 X219.949 Y141.245 E27.76783
G1 X220.911 Y142.857 E27.80529
G1 X221.145 Y144.281 E27.83409
G1 X221.2 Y205.668 E29.05914
G1 X220.829 Y207.178 E29.09017
G1 X219.989 Y208.797 E29.12657
G1 X218.755 Y209.949 E29.16025
G1 X217.143 Y210.911 E29.19772
G1 X215.719 Y211.145 E29.22651
G1 X134.332 Y211.2 E30.85068
G1 X132.822 Y210.829 E30.88171
G1 X131.203 Y209.989 E30.91811
G1 X130.051 Y208.755 E30.9518
G1 X129.089 Y207.143 E30.98926
G1 X128.855 Y205.719 E31.01806
G1 X128.8 Y144.332 E32.2431
G1 X129.171 Y142.822 E32.27413
G1 X130.011 Y141.203 E32.31053
G1 X131.245 Y140.051 E32.34422
G0 F6000 X131.487 Y140.372
G1 F1200 X132.995 Y139.472 E32.37927
G1 X134.346 Y139.25 E32.40659
G1 X215.621 Y139.2 E34.02852
G1 X217.036 Y139.548 E34.0576
G1 X218.552 Y140.334 E34.09168
G1 X219.628 Y141.487 E34.12315
G1 X220.528 Y142.995 E34.1582
G1 X220.75 Y144.346 E34.18552
G1 X220.8 Y205.621 E35.40833
G1 X220.452 Y207.036 E35.43741
G1 X219.666 Y208.552 E35.47148
G1 X218.513 Y209.628 E35.50296
G1 X217.005 Y210.528 E35.538
G1 X215.654 Y210.75 E35.56532
G1 X134.379 Y210.8 E37.18726
G1 X132.964 Y210.452 E37.21633
G1 X131.448 Y209.666 E37.25041
G1 X130.372 Y208.513 E37.28188
G1 X129.472 Y207.005 E37.31693
G1 X129.25 Y205.654 E37.34425
G1 X129.2 Y144.379 E38.56706
G1 X129.548 Y142.964 E38.59614
G1 X130.334 Y141.448 E38.63022
G1 X131.487 Y140.372 E38.66169
G0 F6000 X131.729 Y140.693
G1 F1200 X133.133 Y139.855 E38.69432
G1 X134.411 Y139.645 E38.72017
G1 X215.575 Y139.6 E40.33988
G1 X216.893 Y139.924 E40.36697
G1 X218.307 Y140.657 E40.39875
G1 X219.307 Y141.729 E40.42801
G1 X220.145 Y143.133 E40.46064
G1 X220.355 Y144.411 E40.48648
G1 X220.4 Y205.575 E41.70708
G1 X220.076 Y206.893 E41.73416
G1 X219.343 Y208.307 E41.76595
G1 X218.271 Y209.307 E41.7952
G1 X216.867 Y210.145 E41.82783
G1 X215.589 Y210.355 E41.85368
G1 X134.425 Y210.4 E43.47339
G1 X133.107 Y210.076 E43.50048
G1 X131.693 Y209.343 E43.53226
G1 X130.693 Y208.271 E43.56152
G1 X129.855 Y206.867 E43.59415
G1 X129.645 Y205.589 E43.61999
G1 X129.6 Y144.425 E44.84059
G1 X129.924 Y143.107 E44.86767
G1 X130.657 Y141.693 E44.89946
G1 X131.729 Y140.693 E44.92871
G0 F6000 X131.974 Y141.012
G1 F1200 X133.271 Y140.238 E44.95885
G1 X134.476 Y140.04 E44.98322
G1 X215.529 Y140 E46.60072
G1 X216.75 Y140.3 E46.62582
G1 X218.06 Y140.979 E46.65526
G1 X218.988 Y141.974 E46.68241
G1 X219.762 Y143.271 E46.71255
G1 X219.96 Y144.476 E46.73692
G1 X220 Y205.529 E47.9553
G1 X219.7 Y206.75 E47.98039
G1 X219.021 Y208.06 E48.00984
G1 X218.026 Y208.988 E48.03699
G1 X216.729 Y209.762 E48.06713
G1 X215.524 Y209.96 E48.0915
G1 X134.471 Y210 E49.709
G1 X133.25 Y209.7 E49.73409
G1 X131.94 Y209.021 E49.76354
G1 X131.012 Y208.026 E49.79069
G1 X130.238 Y206.729 E49.82083
G1 X130.04 Y205.524 E49.8452
G1 X130 Y144.471 E51.06358
G1 X130.3 Y143.25 E51.08867
G1 X130.979 Y141.94 E51.11812
G1 X131.974 Y141.012 E51.14527
G0 F6000 X132.216 Y141.334
G1 F1200 X133.411 Y140.621 E51.17304
G1 X134.541 Y140.435 E51.19589
G1 X215.483 Y140.4 E52.81118
G1 X216.607 Y140.676 E52.83428
G1 X217.813 Y141.301 E52.86138
G1 X218.666 Y142.216 E52.88635
G1 X219.379 Y143.411 E52.91412
G1 X219.565 Y144.541 E52.93697
G1 X219.6 Y205.483 E54.15313
G1 X219.324 Y206.607 E54.17623
G1 X218.699 Y207.813 E54.20334
G1 X217.784 Y208.666 E54.2283
G1 X216.589 Y209.379 E54.25607
G1 X215.459 Y209.565 E54.27893
G1 X134.517 Y209.6 E55.89421
G1 X133.393 Y209.324 E55.91731
G1 X132.187 Y208.699 E55.94441
G1 X131.334 Y207.784 E55.96938
G1 X130.621 Y206.589 E55.99715
G1 X130.435 Y205.459 E56.02
G1 X130.4 Y144.517 E57.23617
G1 X130.676 Y143.393 E57.25926
G1 X131.301 Y142.187 E57.28637
G1 X132.216 Y141.334 E57.31133
G0 F6000 X132.458 Y141.656
G1 F1200 X133.551 Y141.004 E57.33673
G1 X134.606 Y140.83 E57.35807
G1 X215.436 Y140.8 E58.97112
G1 X216.465 Y141.053 E58.99227
G1 X217.566 Y141.623 E59.01701
G1 X218.344 Y142.458 E59.03978
G1 X218.996 Y143.551 E59.06518
G1 X219.17 Y144.606 E59.08652
G1 X219.2 Y205.436 E60.30045
G1 X218.947 Y206.465 E60.32159
G1 X218.377 Y207.566 E60.34634
G1 X217.542 Y208.344 E60.36911
G1 X216.449 Y208.996 E60.39451
G1 X215.394 Y209.17 E60.41585
G1 X134.564 Y209.2 E62.0289
G1 X133.535 Y208.947 E62.05004
G1 X132.434 Y208.377 E62.07478
G1 X131.656 Y207.542 E62.09756
G1 X131.004 Y206.449 E62.12296
G1 X130.83 Y205.394 E62.1443
G1 X130.8 Y144.564 E63.35822
G1 X131.053 Y143.535 E63.37937
G1 X131.623 Y142.434 E63.40411
G1 X132.458 Y141.656 E63.42689
G0 F6000 X132.7 Y141.978
G1 F1200 X133.691 Y141.387 E63.44991
G1 X134.671 Y141.225 E63.46974
G1 X215.39 Y141.2 E65.08057
G1 X216.322 Y141.429 E65.09972
G1 X217.319 Y141.945 E65.12213
G1 X218.022 Y142.7 E65.14271
G1 X218.613 Y143.691 E65.16574
G1 X218.775 Y144.671 E65.18556
G1 X218.8 Y205.39 E66.39728
G1 X218.571 Y206.322 E66.41643
G1 X218.055 Y207.319 E66.43883
G1 X217.3 Y208.022 E66.45942
G1 X216.309 Y208.613 E66.48244
G1 X215.329 Y208.775 E66.50227
G1 X134.61 Y208.8 E68.1131
G1 X133.678 Y208.571 E68.13225
G1 X132.681 Y208.055 E68.15466
G1 X131.978 Y207.3 E68.17524
G1 X131.387 Y206.309 E68.19827
G1 X131.225 Y205.329 E68.21809
G1 X131.2 Y144.61 E69.42981
G1 X131.429 Y143.678 E69.44896
G1 X131.945 Y142.681 E69.47136
G1 X132.7 Y141.978 E69.49195
G0 F6000 X132.939 Y142.302
G1 F1200 X133.831 Y141.77 E69.51268
G1 X134.736 Y141.62 E69.53098
G1 X215.344 Y141.6 E71.1396
G1 X216.179 Y141.805 E71.15676
G1 X217.074 Y142.268 E71.17687
G1 X217.698 Y142.939 E71.19515
G1 X218.23 Y143.831 E71.21588
G1 X218.38 Y144.736 E71.23419
G1 X218.4 Y205.344 E72.44369
G1 X218.195 Y206.179 E72.46084
G1 X217.732 Y207.074 E72.48095
G1 X217.061 Y207.698 E72.49924
G1 X216.169 Y208.23 E72.51997
G1 X215.264 Y208.38 E72.53827
G1 X134.656 Y208.4 E74.14689
G1 X133.821 Y208.195 E74.16405
G1 X132.926 Y207.732 E74.18416
G1 X132.302 Y207.061 E74.20245
G1 X131.77 Y206.169 E74.22317
G1 X131.62 Y205.264 E74.24148
G1 X131.6 Y144.656 E75.45098
G1 X131.805 Y143.821 E75.46813
G1 X132.268 Y142.926 E75.48824
G1 X132.939 Y142.302 E75.50653
G0 F6000 X132.591 Y143.171
G1 F1200 X133.178 Y142.626 E75.52251
G1 X133.971 Y142.153 E75.54094
G1 X134.802 Y142.015 E75.55775
G1 X215.298 Y142 E77.16414
G1 X216.036 Y142.181 E77.1793
G1 X216.829 Y142.591 E77.19712
G1 X217.374 Y143.178 E77.2131
G1 X217.847 Y143.971 E77.23153
G1 X217.985 Y144.802 E77.24834
G1 X218 Y205.298 E78.4556
G1 X217.819 Y206.036 E78.47076
G1 X217.409 Y206.829 E78.48858
G1 X216.822 Y207.374 E78.50456
G1 X216.029 Y207.847 E78.52299
G1 X215.198 Y207.985 E78.5398
G1 X134.702 Y208 E80.14619
G1 X133.964 Y207.819 E80.16135
G1 X133.171 Y207.409 E80.17917
G1 X132.626 Y206.822 E80.19515
G1 X132.153 Y206.029 E80.21358
G1 X132.015 Y205.198 E80.23039
G1 X132 Y144.702 E81.43765
G1 X132.181 Y143.964 E81.45281
G1 X132.591 Y143.171 E81.47063
G0 F6000 X132.914 Y143.416
G1 F1200 X133.417 Y142.95 E81.48431
G1 X134.111 Y142.536 E81.50044
G1 X134.868 Y142.41 E81.51575
G1 X215.248 Y142.4 E83.11982
G1 X215.897 Y142.559 E83.13316
G1 X216.584 Y142.914 E83.14859
G1 X217.05 Y143.417 E83.16227
G1 X217.464 Y144.111 E83.1784
G1 X217.59 Y144.868 E83.19372
G1 X217.6 Y205.248 E84.39866
G1 X217.441 Y205.897 E84.412
G1 X217.086 Y206.584 E84.42743
G1 X216.583 Y207.05 E84.44111
G1 X215.889 Y207.464 E84.45724
G1 X215.132 Y207.59 E84.47255
G1 X134.752 Y207.6 E86.07662
G1 X134.103 Y207.441 E86.08996
G1 X133.416 Y207.086 E86.10539
G1 X132.95 Y206.583 E86.11907
G1 X132.536 Y205.889 E86.1352
G1 X132.41 Y205.132 E86.15052
G1 X132.4 Y144.752 E87.35546
G1 X132.559 Y144.103 E87.3688
G1 X132.914 Y143.416 E87.38423
G0 F6000 X133.237 Y143.662
G1 F1200 X133.656 Y143.274 E87.39563
G1 X134.251 Y142.919 E87.40945
G1 X134.934 Y142.805 E87.42327
G1 X215.198 Y142.8 E89.02503
G1 X215.758 Y142.937 E89.03653
G1 X216.338 Y143.237 E89.04956
G1 X216.726 Y143.656 E89.06096
G1 X217.081 Y144.251 E89.07479
G1 X217.195 Y144.934 E89.0886
G1 X217.2 Y205.198 E90.29124
G1 X217.063 Y205.758 E90.30274
G1 X216.763 Y206.338 E90.31577
G1 X216.344 Y206.726 E90.32717
G1 X215.749 Y207.081 E90.341
G1 X215.066 Y207.195 E90.35482
G1 X134.802 Y207.2 E91.95657
G1 X134.242 Y207.063 E91.96808
G1 X133.662 Y206.763 E91.98111
G1 X133.274 Y206.344 E91.9925
G1 X132.919 Y205.749 E92.00633
G1 X132.805 Y205.066 E92.02015
G1 X132.8 Y144.802 E93.22278
G1 X132.937 Y144.242 E93.23429
G1 X133.237 Y143.662 E93.24732
G0 F6000 X133.56 Y143.908
G1 F1200 X133.898 Y143.595 E93.25651
G1 X134.389 Y143.302 E93.26792
G1 X135 Y143.2 E93.28028
G1 X215.148 Y143.2 E94.87972
G1 X215.619 Y143.315 E94.8894
G1 X216.092 Y143.56 E94.90003
G1 X216.405 Y143.898 E94.90922
G1 X216.698 Y144.389 E94.92063
G1 X216.8 Y145 E94.93299
G1 X216.8 Y205.148 E96.13331
G1 X216.685 Y205.619 E96.14299
G1 X216.44 Y206.092 E96.15362
G1 X216.102 Y206.405 E96.16281
G1 X215.611 Y206.698 E96.17422
G1 X215 Y206.8 E96.18658
G1 X134.852 Y206.8 E97.78602
G1 X134.381 Y206.685 E97.7957
G1 X133.908 Y206.44 E97.80633
G1 X133.595 Y206.102 E97.81552
G1 X133.302 Y205.611 E97.82693
G1 X133.2 Y205 E97.83929
G1 X133.2 Y144.852 E99.03961
G1 X133.315 Y144.381 E99.04929
G1 X133.56 Y143.908 E99.05992
G0 F6000 X133.883 Y144.154
G1 F1200 X133.693 Y144.52 E99.06815
G1 X133.6 Y144.902 E99.07599
G1 X133.6 Y205 E100.27531
G1 X133.685 Y205.473 E100.2849
G1 X133.916 Y205.86 E100.2939
G1 X134.154 Y206.117 E100.30089
G1 X134.52 Y206.307 E100.30912
G1 X134.902 Y206.4 E100.31696
G1 X215 Y206.4 E101.91541
G1 X215.473 Y206.315 E101.925
G1 X215.86 Y206.084 E101.93399
G1 X216.117 Y205.846 E101.94098
G1 X216.307 Y205.48 E101.94921
G1 X216.4 Y205.098 E101.95706
G1 X216.4 Y145 E103.15638
G1 X216.315 Y144.527 E103.16597
G1 X216.084 Y144.14 E103.17496
G1 X215.846 Y143.883 E103.18195
G1 X215.48 Y143.693 E103.19018
G1 X215.098 Y143.6 E103.19803
G1 X135 Y143.6 E104.79647
G1 X134.527 Y143.685 E104.80606
G1 X134.14 Y143.916 E104.81505
G1 X133.883 Y144.154 E104.82204
G0 F6000 X134.345 Y144.26
G1 F1200 X134.672 Y144.065 E104.82964
G1 X135 Y144 E104.83631
G1 X215.049 Y144 E106.43378
G1 X215.338 Y144.07 E106.43971
G1 X215.601 Y144.207 E106.44563
G1 X215.74 Y144.345 E106.44954
G1 X215.935 Y144.672 E106.45714
G1 X216 Y145 E106.46381
G1 X216 Y205.049 E107.66215
G1 X215.93 Y205.338 E107.66809
G1 X215.793 Y205.601 E107.67401
G1 X215.655 Y205.74 E107.67791
G1 X215.328 Y205.935 E107.68551
G1 X215 Y206 E107.69218
G1 X134.951 Y206 E109.28965
G1 X134.662 Y205.93 E109.29558
G1 X134.399 Y205.793 E109.3015
G1 X134.26 Y205.655 E109.30541
G1 X134.065 Y205.328 E109.31301
G1 X134 Y205 E109.31968
G1 X134 Y144.951 E110.51802
G1 X134.07 Y144.662 E110.52396
G1 X134.207 Y144.399 E110.52988
G1 X134.345 Y144.26 E110.53378
G0 F6000 X134.839 Y144.881
G1 F1200 X135 Y144.8 E110.53738
G1 X215 Y144.8 E112.13387
G1 X215.119 Y144.839 E112.13637
G1 X215.2 Y145 E112.13996
G1 X215.2 Y205 E113.33733
G1 X215.161 Y205.119 E113.33983
G1 X215 Y205.2 E113.34342
G1 X135 Y205.2 E114.93991
G1 X134.881 Y205.161 E114.94241
G1 X134.8 Y205 E114.94601
G1 X134.8 Y145 E116.14337
G1 X134.839 Y144.881 E116.14587
G0 F6000 X134.55 Y144.604
G1 F1200 X134.82 Y144.443 E116.15214
G1 X135 Y144.4 E116.15584
G1 X215 Y144.4 E117.75232
G1 X215.244 Y144.459 E117.75733
G1 X215.396 Y144.55 E117.76087
G1 X215.557 Y144.82 E117.76714
G1 X215.6 Y145 E117.77083
G1 X215.6 Y205 E118.9682
G1 X215.541 Y205.244 E118.97321
G1 X215.45 Y205.396 E118.97674
G1 X215.18 Y205.557 E118.98302
G1 X215 Y205.6 E118.98671
G1 X135 Y205.6 E120.5832
G1 X134.756 Y205.541 E120.58821
G1 X134.604 Y205.45 E120.59174
G1 X134.443 Y205.18 E120.59802
G1 X134.4 Y205 E120.60171
G1 X134.4 Y145 E121.79907
G1 X134.459 Y144.756 E121.80408
G1 X134.55 Y144.604 E121.80762
G1 F1500 E115.30762
;MESH:hareket sens??r?? yeni.STL
G0 F6000 X144.906 Y170.622
G0 X169.328 Y170.972
G0 X169.328 Y195.828
G0 X169.121 Y195.785
;TYPE:WALL-INNER
G1 F1500 E121.80762
G1 F1200 X168.838 Y195.942 E121.81408
G1 X168.62 Y196 E121.81858
G1 X144.881 Y196 E122.29232
G1 X144.677 Y195.947 E122.29652
G1 X144.402 Y195.803 E122.30272
