;FLAVOR:Marlin
;TIME:18770
;Filament used: 14.2315m
;Layer height: 0.12
;MINX:128.85
;MINY:136.7
;MINZ:0.12
;MAXX:224.145
;MAXY:213.3
;MAXZ:42
;TARGET_MACHINE.NAME:Creality Ender-5 Plus
;Generated with Cura_SteamEngine 5.6.0
M140 S60
M105
M190 S60
M104 S200
M105
M109 S200
M82 ;absolute extrusion mode
M201 X500.00 Y500.00 Z100.00 E5000.00 ;Setup machine max acceleration
M203 X500.00 Y500.00 Z10.00 E50.00 ;Setup machine max feedrate
M204 P500.00 R1000.00 T500.00 ;Setup Print/Retract/Travel acceleration
M205 X8.00 Y8.00 Z0.40 E5.00 ;Setup Jerk
M220 S100 ;Reset Feedrate
M221 S100 ;Reset Flowrate

G28 ;Home
M420 S1 Z2 ;Enable ABL using saved Mesh and Fade Height

G92 E0 ;Reset Extruder
G1 Z2.0 F3000 ;Move Z Axis up
G1 X10.1 Y20 Z0.28 F5000.0 ;Move to start position
G1 X10.1 Y200.0 Z0.28 F1500.0 E15 ;Draw the first line
G1 X10.4 Y200.0 Z0.28 F5000.0 ;Move to side a little
G1 X10.4 Y20 Z0.28 F1500.0 E30 ;Draw the second line
G92 E0 ;Reset Extruder
G1 Z2.0 F3000 ;Move Z Axis up

G92 E0
G92 E0
G1 F1500 E-6.5
;LAYER_COUNT:350
;LAYER:0
M107
G0 F6000 X130.369 Y139.723 Z0.12
;TYPE:SKIRT
G1 F1500 E0
G1 F1200 X131.93 Y138.264 E0.04264
G1 X133.953 Y137.057 E0.08965
G1 X135.671 Y136.775 E0.12439
G1 X214.203 Y136.7 E1.69159
G1 X216.099 Y137.166 E1.73055
G1 X218.137 Y138.224 E1.77637
G1 X219.557 Y139.746 E1.81791
G1 X219.707 Y139.981 E1.82348
G1 X219.987 Y140.16 E1.83011
G1 X222.175 Y142.253 E1.89053
G1 X223.174 Y144.105 E1.93253
G1 X223.922 Y145.918 E1.97166
G1 X224.145 Y148.171 E2.01684
G1 X224.138 Y150.915 E2.0716
G1 X223.536 Y153.285 E2.1204
G1 X222.945 Y154.537 E2.14803
G1 X221.344 Y156.706 E2.20183
G1 X221.15 Y156.875 E2.20696
G1 X221.15 Y206.353 E3.19435
G1 X220.684 Y208.249 E3.23331
G1 X219.631 Y210.277 E3.27892
G1 X218.07 Y211.736 E3.32156
G1 X216.047 Y212.943 E3.36857
G1 X214.329 Y213.225 E3.40331
G1 X135.797 Y213.3 E4.9705
G1 X133.901 Y212.834 E5.00946
G1 X131.873 Y211.781 E5.05507
G1 X130.414 Y210.22 E5.0977
G1 X129.207 Y208.197 E5.14472
G1 X128.925 Y206.479 E5.17946
G1 X128.85 Y143.647 E6.43334
G1 X129.316 Y141.751 E6.4723
G1 X130.369 Y139.723 E6.5179
G0 F6000 X130.692 Y139.968
G1 F1200 X132.169 Y138.588 E6.55824
G1 X134.093 Y137.44 E6.60295
G1 X135.736 Y137.17 E6.63618
G1 X214.157 Y137.1 E8.20116
G1 X215.956 Y137.542 E8.23813
G1 X217.89 Y138.546 E8.28161
G1 X219.264 Y140.019 E8.32181
G1 X219.414 Y140.272 E8.32768
G1 X219.71 Y140.449 E8.33456
G1 X221.853 Y142.499 E8.39375
G1 X222.804 Y144.258 E8.43365
G1 X223.53 Y146.017 E8.47163
G1 X223.745 Y148.17 E8.5148
G1 X223.738 Y150.864 E8.56857
G1 X223.158 Y153.148 E8.61559
G1 X222.6 Y154.33 E8.64168
G1 X221.022 Y156.468 E8.69471
G1 X220.75 Y156.68 E8.70159
G1 X220.75 Y206.307 E9.69195
G1 X220.308 Y208.106 E9.72892
G1 X219.308 Y210.032 E9.77222
G1 X217.831 Y211.412 E9.81256
G1 X215.907 Y212.56 E9.85727
G1 X214.264 Y212.83 E9.8905
G1 X135.843 Y212.9 E11.45548
G1 X134.044 Y212.458 E11.49245
G1 X132.118 Y211.458 E11.53575
G1 X130.738 Y209.981 E11.57609
G1 X129.59 Y208.057 E11.6208
G1 X129.32 Y206.414 E11.65403
G1 X129.25 Y143.693 E12.9057
G1 X129.692 Y141.894 E12.94267
G1 X130.692 Y139.968 E12.98597
G0 F6000 X131.015 Y140.213
G1 F1200 X132.411 Y138.909 E13.0241
G1 X134.231 Y137.823 E13.06639
G1 X135.801 Y137.565 E13.09814
G1 X214.11 Y137.5 E14.66088
G1 X215.814 Y137.919 E14.6959
G1 X217.643 Y138.868 E14.73702
G1 X218.942 Y140.261 E14.77503
G1 X219.126 Y140.57 E14.78221
G1 X219.434 Y140.738 E14.78921
G1 X221.529 Y142.742 E14.84706
G1 X222.434 Y144.411 E14.88495
G1 X223.138 Y146.117 E14.92178
G1 X223.345 Y148.169 E14.96294
G1 X223.338 Y150.812 E15.01568
G1 X222.779 Y153.012 E15.06098
G1 X222.255 Y154.123 E15.0855
G1 X220.7 Y156.23 E15.13776
G1 X220.35 Y156.469 E15.14621
G1 X220.35 Y206.26 E16.13985
G1 X219.931 Y207.964 E16.17486
G1 X218.985 Y209.787 E16.21585
G1 X217.589 Y211.091 E16.25397
G1 X215.769 Y212.177 E16.29627
G1 X214.199 Y212.435 E16.32802
G1 X135.89 Y212.5 E17.89076
G1 X134.186 Y212.081 E17.92578
G1 X132.363 Y211.135 E17.96676
G1 X131.059 Y209.739 E18.00489
G1 X129.973 Y207.919 E18.04718
G1 X129.715 Y206.349 E18.07893
G1 X129.65 Y143.74 E19.32836
G1 X130.069 Y142.036 E19.36338
G1 X131.015 Y140.213 E19.40437
G0 F6000 X131.338 Y140.458
G1 F1200 X132.653 Y139.23 E19.44027
G1 X134.369 Y138.206 E19.48015
G1 X135.866 Y137.96 E19.51043
G1 X214.064 Y137.9 E21.07095
G1 X215.671 Y138.295 E21.10398
G1 X217.398 Y139.191 E21.1428
G1 X218.62 Y140.501 E21.17855
G1 X218.845 Y140.881 E21.18737
G1 X219.158 Y141.027 E21.19426
G1 X221.208 Y142.988 E21.25087
G1 X222.064 Y144.564 E21.28666
G1 X222.746 Y146.216 E21.32233
G1 X222.945 Y148.168 E21.36149
G1 X222.938 Y150.761 E21.41323
G1 X222.401 Y152.875 E21.45676
G1 X221.91 Y153.917 E21.47975
G1 X220.417 Y155.939 E21.52991
G1 X219.95 Y156.258 E21.54119
G1 X219.95 Y206.214 E22.53812
G1 X219.555 Y207.821 E22.57114
G1 X218.662 Y209.542 E22.60983
G1 X217.347 Y210.77 E22.64574
G1 X215.631 Y211.794 E22.68562
G1 X214.134 Y212.04 E22.71589
G1 X135.936 Y212.1 E24.27642
G1 X134.329 Y211.705 E24.30944
G1 X132.608 Y210.812 E24.34814
G1 X131.38 Y209.497 E24.38404
G1 X130.356 Y207.781 E24.42392
G1 X130.11 Y206.284 E24.45419
G1 X130.05 Y143.786 E25.70141
G1 X130.445 Y142.179 E25.73443
G1 X131.338 Y140.458 E25.77313
G0 F6000 X131.661 Y140.703
G1 F1200 X132.895 Y139.551 E25.80682
G1 X134.507 Y138.589 E25.84428
G1 X135.931 Y138.355 E25.87308
G1 X214.018 Y138.3 E27.43139
G1 X215.528 Y138.671 E27.46242
G1 X217.151 Y139.513 E27.49891
G1 X218.299 Y140.744 E27.5325
G1 X218.563 Y141.19 E27.54284
G1 X218.927 Y141.36 E27.55086
G1 X220.886 Y143.234 E27.60496
G1 X221.712 Y144.755 E27.6395
G1 X222.354 Y146.314 E27.67314
G1 X222.545 Y148.167 E27.71032
G1 X222.538 Y150.71 E27.76107
G1 X222.023 Y152.738 E27.80282
G1 X221.563 Y153.713 E27.82434
G1 X220.136 Y155.647 E27.8723
G1 X219.55 Y156.047 E27.88646
G1 X219.55 Y206.168 E28.88668
G1 X219.179 Y207.678 E28.91771
G1 X218.339 Y209.297 E28.95411
G1 X217.105 Y210.449 E28.9878
G1 X215.493 Y211.411 E29.02526
G1 X214.069 Y211.645 E29.05406
G1 X135.982 Y211.7 E30.61237
G1 X134.472 Y211.329 E30.6434
G1 X132.853 Y210.489 E30.6798
G1 X131.701 Y209.255 E30.71348
G1 X130.739 Y207.643 E30.75095
G1 X130.505 Y206.219 E30.77974
G1 X130.45 Y143.832 E32.02475
G1 X130.821 Y142.322 E32.05578
G1 X131.661 Y140.703 E32.09217
G0 F6000 X131.984 Y140.948
G1 F1200 X133.137 Y139.872 E32.12365
G1 X134.645 Y138.972 E32.15869
G1 X135.996 Y138.75 E32.18601
G1 X213.971 Y138.7 E33.74209
G1 X215.386 Y139.048 E33.77117
G1 X216.904 Y139.835 E33.80529
G1 X217.978 Y140.987 E33.83672
G1 X218.281 Y141.499 E33.8486
G1 X218.698 Y141.694 E33.85778
G1 X220.563 Y143.478 E33.90929
G1 X221.36 Y144.946 E33.94262
G1 X221.962 Y146.412 E33.97425
G1 X222.145 Y148.166 E34.00944
G1 X222.138 Y150.659 E34.05919
G1 X221.645 Y152.601 E34.09917
G1 X221.218 Y153.507 E34.11916
G1 X219.853 Y155.356 E34.16503
G1 X219.15 Y155.836 E34.18201
G1 X219.15 Y206.121 E35.18551
G1 X218.802 Y207.536 E35.21458
G1 X218.016 Y209.052 E35.24866
G1 X216.863 Y210.128 E35.28013
G1 X215.355 Y211.028 E35.31518
G1 X214.004 Y211.25 E35.3425
G1 X136.029 Y211.3 E36.89858
G1 X134.614 Y210.952 E36.92766
G1 X133.098 Y210.166 E36.96174
G1 X132.022 Y209.013 E36.99321
G1 X131.122 Y207.505 E37.02825
G1 X130.9 Y206.154 E37.05558
G1 X130.85 Y143.879 E38.29834
G1 X131.198 Y142.464 E38.32742
G1 X131.984 Y140.948 E38.3615
G0 F6000 X132.307 Y141.193
G1 F1200 X133.379 Y140.193 E38.39075
G1 X134.783 Y139.355 E38.42338
G1 X136.061 Y139.145 E38.44923
G1 X213.925 Y139.1 E40.00309
G1 X215.243 Y139.424 E40.03018
G1 X216.657 Y140.157 E40.06196
G1 X217.657 Y141.23 E40.09123
G1 X218 Y141.809 E40.10466
G1 X218.468 Y142.028 E40.11497
G1 X220.243 Y143.726 E40.16399
G1 X220.99 Y145.098 E40.19517
G1 X221.57 Y146.51 E40.22563
G1 X221.745 Y148.165 E40.25884
G1 X221.738 Y150.608 E40.30759
G1 X221.267 Y152.464 E40.34581
G1 X220.871 Y153.303 E40.36432
G1 X219.571 Y155.065 E40.40802
G1 X218.75 Y155.625 E40.42785
G1 X218.75 Y206.075 E41.43463
G1 X218.426 Y207.393 E41.46172
G1 X217.693 Y208.807 E41.4935
G1 X216.621 Y209.807 E41.52276
G1 X215.217 Y210.645 E41.55539
G1 X213.939 Y210.855 E41.58123
G1 X136.075 Y210.9 E43.1351
G1 X134.757 Y210.576 E43.16218
G1 X133.343 Y209.843 E43.19396
G1 X132.343 Y208.771 E43.22322
G1 X131.505 Y207.367 E43.25585
G1 X131.295 Y206.089 E43.2817
G1 X131.25 Y143.925 E44.52225
G1 X131.574 Y142.607 E44.54933
G1 X132.307 Y141.193 E44.58112
G0 F6000 X132.629 Y141.44
G1 F1200 X133.624 Y140.512 E44.60827
G1 X134.921 Y139.738 E44.63841
G1 X136.126 Y139.54 E44.66278
G1 X213.879 Y139.5 E46.21442
G1 X215.1 Y139.8 E46.23951
G1 X216.41 Y140.479 E46.26896
G1 X217.336 Y141.473 E46.29607
G1 X217.719 Y142.119 E46.31106
G1 X218.24 Y142.363 E46.32254
G1 X219.921 Y143.971 E46.36896
G1 X220.62 Y145.25 E46.39805
G1 X221.178 Y146.608 E46.42735
G1 X221.345 Y148.164 E46.45858
G1 X221.338 Y150.557 E46.50633
G1 X220.889 Y152.327 E46.54277
G1 X220.526 Y153.096 E46.55974
G1 X219.287 Y154.775 E46.60138
G1 X218.35 Y155.414 E46.62402
G1 X218.35 Y206.029 E47.63409
G1 X218.05 Y207.25 E47.65919
G1 X217.371 Y208.56 E47.68863
G1 X216.376 Y209.488 E47.71578
G1 X215.079 Y210.262 E47.74593
G1 X213.874 Y210.46 E47.77029
G1 X136.121 Y210.5 E49.32194
G1 X134.9 Y210.2 E49.34703
G1 X133.59 Y209.521 E49.37648
G1 X132.662 Y208.526 E49.40363
G1 X131.888 Y207.229 E49.43377
G1 X131.69 Y206.024 E49.45814
G1 X131.65 Y143.971 E50.69647
G1 X131.95 Y142.75 E50.72157
G1 X132.629 Y141.44 E50.75101
G0 F6000 X132.951 Y141.687
G1 F1200 X133.866 Y140.834 E50.77597
G1 X135.061 Y140.121 E50.80374
G1 X136.191 Y139.935 E50.8266
G1 X213.833 Y139.9 E52.37603
G1 X214.957 Y140.176 E52.39913
G1 X216.163 Y140.801 E52.42623
G1 X217.015 Y141.716 E52.45118
G1 X217.438 Y142.429 E52.46773
G1 X218.01 Y142.697 E52.48033
G1 X219.6 Y144.218 E52.52424
G1 X220.25 Y145.402 E52.5512
G1 X220.786 Y146.706 E52.57933
G1 X220.945 Y148.163 E52.60858
G1 X220.938 Y150.506 E52.65534
G1 X220.511 Y152.19 E52.69001
G1 X220.181 Y152.889 E52.70543
G1 X219.003 Y154.485 E52.74502
G1 X217.95 Y155.203 E52.77045
G1 X217.95 Y205.983 E53.78382
G1 X217.674 Y207.107 E53.80692
G1 X217.049 Y208.313 E53.83403
G1 X216.134 Y209.166 E53.85899
G1 X214.939 Y209.879 E53.88676
G1 X213.809 Y210.065 E53.90961
G1 X136.167 Y210.1 E55.45905
G1 X135.043 Y209.824 E55.48214
G1 X133.837 Y209.199 E55.50925
G1 X132.984 Y208.284 E55.53421
G1 X132.271 Y207.089 E55.56198
G1 X132.085 Y205.959 E55.58484
G1 X132.05 Y144.017 E56.82096
G1 X132.326 Y142.893 E56.84405
G1 X132.951 Y141.687 E56.87116
G0 F6000 X133.273 Y141.934
G1 F1200 X134.108 Y141.156 E56.89394
G1 X135.201 Y140.504 E56.91933
G1 X136.256 Y140.33 E56.94067
G1 X213.786 Y140.3 E58.48787
G1 X214.815 Y140.553 E58.50901
G1 X215.916 Y141.123 E58.53375
G1 X216.694 Y141.959 E58.55654
G1 X217.157 Y142.739 E58.57465
G1 X217.78 Y143.031 E58.58838
G1 X219.278 Y144.464 E58.62975
G1 X219.899 Y145.595 E58.6555
G1 X220.394 Y146.804 E58.68157
G1 X220.545 Y148.162 E58.70883
G1 X220.538 Y150.455 E58.75459
G1 X220.133 Y152.053 E58.78749
G1 X219.836 Y152.682 E58.80137
G1 X218.719 Y154.195 E58.8389
G1 X217.55 Y154.992 E58.86714
G1 X217.55 Y205.936 E59.88378
G1 X217.297 Y206.965 E59.90493
G1 X216.727 Y208.066 E59.92967
G1 X215.892 Y208.844 E59.95244
G1 X214.799 Y209.496 E59.97784
G1 X213.744 Y209.67 E59.99918
G1 X136.214 Y209.7 E61.54637
G1 X135.185 Y209.447 E61.56752
G1 X134.084 Y208.877 E61.59226
G1 X133.306 Y208.042 E61.61504
G1 X132.654 Y206.949 E61.64044
G1 X132.48 Y205.894 E61.66177
G1 X132.45 Y144.064 E62.89566
G1 X132.703 Y143.035 E62.9168
G1 X133.273 Y141.934 E62.94155
G0 F6000 X133.595 Y142.181
G1 F1200 X134.35 Y141.478 E62.96213
G1 X135.341 Y140.887 E62.98516
G1 X136.321 Y140.725 E63.00498
G1 X213.74 Y140.7 E64.54996
G1 X214.672 Y140.929 E64.56911
G1 X215.669 Y141.445 E64.59152
G1 X216.372 Y142.2 E64.6121
G1 X216.804 Y142.926 E64.62896
G1 X216.853 Y143.038 E64.6314
G1 X217.55 Y143.365 E64.64677
G1 X218.956 Y144.71 E64.6856
G1 X219.548 Y145.788 E64.71014
G1 X220.003 Y146.904 E64.73419
G1 X220.145 Y148.161 E64.75943
G1 X220.138 Y150.404 E64.8042
G1 X219.755 Y151.916 E64.83532
G1 X219.491 Y152.475 E64.84766
G1 X218.437 Y153.903 E64.88308
G1 X217.15 Y154.78 E64.91416
G1 X217.15 Y205.89 E65.93411
G1 X216.921 Y206.822 E65.95327
G1 X216.405 Y207.819 E65.97567
G1 X215.65 Y208.522 E65.99626
G1 X214.659 Y209.113 E66.01928
G1 X213.679 Y209.275 E66.0391
G1 X136.26 Y209.3 E67.58408
G1 X135.328 Y209.071 E67.60324
G1 X134.331 Y208.555 E67.62564
G1 X133.628 Y207.8 E67.64623
G1 X133.037 Y206.809 E67.66925
G1 X132.875 Y205.829 E67.68908
G1 X132.85 Y144.11 E68.92074
G1 X133.079 Y143.178 E68.9399
G1 X133.595 Y142.181 E68.9623
G0 F6000 X133.918 Y142.426
G1 F1200 X134.589 Y141.802 E68.98059
G1 X135.481 Y141.27 E69.00131
G1 X136.386 Y141.12 E69.01962
G1 X213.694 Y141.1 E70.56238
G1 X214.529 Y141.305 E70.57954
G1 X215.424 Y141.768 E70.59965
G1 X216.048 Y142.439 E70.61794
G1 X216.46 Y143.131 E70.63401
G1 X216.533 Y143.33 E70.63824
G1 X217.32 Y143.699 E70.65558
G1 X218.634 Y144.956 E70.69187
G1 X219.197 Y145.981 E70.71521
G1 X219.612 Y147.006 E70.73728
G1 X219.745 Y148.16 E70.76046
G1 X219.738 Y150.353 E70.80422
G1 X219.377 Y151.779 E70.83358
G1 X219.146 Y152.268 E70.84437
G1 X218.155 Y153.611 E70.87768
G1 X216.998 Y154.399 E70.90562
G1 X216.75 Y154.527 E70.91118
G1 X216.75 Y205.844 E71.93527
G1 X216.545 Y206.679 E71.95243
G1 X216.082 Y207.574 E71.97254
G1 X215.411 Y208.198 E71.99082
G1 X214.519 Y208.73 E72.01155
G1 X213.614 Y208.88 E72.02986
G1 X136.306 Y208.9 E73.57262
G1 X135.471 Y208.695 E73.58978
G1 X134.576 Y208.232 E73.60989
G1 X133.952 Y207.561 E73.62818
G1 X133.42 Y206.669 E73.6489
G1 X133.27 Y205.764 E73.66721
G1 X133.25 Y144.156 E74.89666
G1 X133.455 Y143.321 E74.91382
G1 X133.918 Y142.426 E74.93393
G0 F6000 X134.241 Y142.671
G1 F1200 X134.828 Y142.126 E74.94991
G1 X135.621 Y141.653 E74.96834
G1 X136.452 Y141.515 E74.98515
G1 X213.648 Y141.5 E76.52568
G1 X214.386 Y141.681 E76.54085
G1 X215.179 Y142.091 E76.55866
G1 X215.724 Y142.678 E76.57465
G1 X216.116 Y143.336 E76.58993
G1 X216.203 Y143.617 E76.5958
G1 X217.092 Y144.034 E76.6154
G1 X218.313 Y145.202 E76.64912
G1 X218.826 Y146.131 E76.67029
G1 X219.221 Y147.107 E76.69131
G1 X219.345 Y148.159 E76.71244
G1 X219.338 Y150.302 E76.75521
G1 X218.999 Y151.642 E76.78279
G1 X218.801 Y152.062 E76.79206
G1 X217.873 Y153.319 E76.82324
G1 X216.773 Y154.068 E76.8498
G1 X216.35 Y154.279 E76.85923
G1 X216.35 Y205.798 E77.88735
G1 X216.169 Y206.536 E77.90251
G1 X215.759 Y207.329 E77.92033
G1 X215.172 Y207.874 E77.93631
G1 X214.379 Y208.347 E77.95474
G1 X213.548 Y208.485 E77.97155
G1 X136.352 Y208.5 E79.51208
G1 X135.614 Y208.319 E79.52724
G1 X134.821 Y207.909 E79.54506
G1 X134.276 Y207.322 E79.56104
G1 X133.803 Y206.529 E79.57947
G1 X133.665 Y205.698 E79.59628
G1 X133.65 Y144.202 E80.8235
G1 X133.831 Y143.464 E80.83866
G1 X134.241 Y142.671 E80.85648
G0 F6000 X134.564 Y142.916
G1 F1200 X135.067 Y142.45 E80.87016
G1 X135.761 Y142.036 E80.88629
G1 X136.518 Y141.91 E80.9016
G1 X213.598 Y141.9 E82.43982
G1 X214.247 Y142.059 E82.45315
G1 X214.934 Y142.414 E82.46859
G1 X215.4 Y142.917 E82.48227
G1 X215.772 Y143.541 E82.49677
G1 X215.861 Y143.898 E82.50411
G1 X216.864 Y144.369 E82.52622
G1 X217.991 Y145.447 E82.55734
G1 X218.455 Y146.281 E82.57639
G1 X218.83 Y147.208 E82.59635
G1 X218.945 Y148.158 E82.61544
G1 X218.938 Y150.251 E82.65721
G1 X218.621 Y151.506 E82.68304
G1 X218.456 Y151.856 E82.69076
G1 X217.591 Y153.027 E82.71982
G1 X216.548 Y153.737 E82.745
G1 X215.95 Y154.03 E82.75829
G1 X215.95 Y205.748 E83.79037
G1 X215.791 Y206.397 E83.80371
G1 X215.436 Y207.084 E83.81914
G1 X214.933 Y207.55 E83.83282
G1 X214.239 Y207.964 E83.84895
G1 X213.482 Y208.09 E83.86427
G1 X136.402 Y208.1 E85.40248
G1 X135.753 Y207.941 E85.41581
G1 X135.066 Y207.586 E85.43125
G1 X134.6 Y207.083 E85.44493
G1 X134.186 Y206.389 E85.46106
G1 X134.06 Y205.632 E85.47637
G1 X134.05 Y144.252 E86.70128
G1 X134.209 Y143.603 E86.71461
G1 X134.564 Y142.916 E86.73004
G0 F6000 X134.887 Y143.162
G1 F1200 X135.306 Y142.774 E86.74144
G1 X135.901 Y142.419 E86.75526
G1 X136.584 Y142.305 E86.76908
G1 X213.548 Y142.3 E88.30498
G1 X214.108 Y142.437 E88.31649
G1 X214.688 Y142.737 E88.32952
