;FLAVOR:Marlin
;TIME:23103
;Filament used: 17.6651m
;Layer height: 0.12
;MINX:122.2
;MINY:137.2
;MINZ:0.12
;MAXX:227.8
;MAXY:216.018
;MAXZ:50.04
;TARGET_MACHINE.NAME:Creality Ender-5 Plus
;Generated with Cura_SteamEngine 5.6.0
M140 S60
M105
M190 S60
M104 S200
M105
M109 S200
M82 ;absolute extrusion mode
M201 X500.00 Y500.00 Z100.00 E5000.00 ;Setup machine max acceleration
M203 X500.00 Y500.00 Z10.00 E50.00 ;Setup machine max feedrate
M204 P500.00 R1000.00 T500.00 ;Setup Print/Retract/Travel acceleration
M205 X8.00 Y8.00 Z0.40 E5.00 ;Setup Jerk
M220 S100 ;Reset Feedrate
M221 S100 ;Reset Flowrate

G28 ;Home
M420 S1 Z2 ;Enable ABL using saved Mesh and Fade Height

G92 E0 ;Reset Extruder
G1 Z2.0 F3000 ;Move Z Axis up
G1 X10.1 Y20 Z0.28 F5000.0 ;Move to start position
G1 X10.1 Y200.0 Z0.28 F1500.0 E15 ;Draw the first line
G1 X10.4 Y200.0 Z0.28 F5000.0 ;Move to side a little
G1 X10.4 Y20 Z0.28 F1500.0 E30 ;Draw the second line
G92 E0 ;Reset Extruder
G1 Z2.0 F3000 ;Move Z Axis up

G92 E0
G92 E0
G1 F1500 E-6.5
;LAYER_COUNT:417
;LAYER:0
M107
G0 F6000 X125.28 Y138.764 Z0.12
;TYPE:SKIRT
G1 F1500 E0
G1 F1200 X127.303 Y137.557 E0.04701
G1 X129.021 Y137.275 E0.08175
G1 X220.853 Y137.2 E1.91436
G1 X222.749 Y137.666 E1.95332
G1 X224.777 Y138.719 E1.99893
G1 X226.236 Y140.28 E2.04157
G1 X227.443 Y142.303 E2.08858
G1 X227.725 Y144.021 E2.12332
G1 X227.8 Y205.853 E3.35724
G1 X227.334 Y207.749 E3.39621
G1 X226.281 Y209.777 E3.44181
G1 X224.711 Y211.245 E3.4847
G1 X222.896 Y212.326 E3.52686
G1 X222.559 Y212.464 E3.53413
G1 X220.669 Y212.75 E3.57227
G1 X214.306 Y212.79 E3.69926
G1 X212.835 Y213.639 E3.73315
G1 X211.984 Y214.169 E3.75316
G1 X210.829 Y214.933 E3.78079
G1 X208.766 Y215.673 E3.82453
G1 X207.346 Y216.018 E3.85369
G1 X203.915 Y215.914 E3.92219
G1 X202.609 Y215.677 E3.94868
G1 X201.43 Y215.344 E3.97313
G1 X199.417 Y214.249 E4.01886
G1 X198.92 Y214.025 E4.02974
G1 X197.778 Y213.677 E4.05356
G1 X196.179 Y212.8 E4.08996
G1 X129.147 Y212.8 E5.42765
G1 X127.251 Y212.334 E5.46662
G1 X125.223 Y211.281 E5.51222
G1 X123.764 Y209.72 E5.55486
G1 X122.557 Y207.697 E5.60187
G1 X122.275 Y205.979 E5.63661
G1 X122.2 Y144.147 E6.87054
G1 X122.666 Y142.251 E6.9095
G1 X123.719 Y140.223 E6.9551
G1 X125.28 Y138.764 E6.99774
G0 F6000 X125.519 Y139.088
G1 F1200 X127.443 Y137.94 E7.04245
G1 X129.086 Y137.67 E7.07568
G1 X220.807 Y137.6 E8.90607
G1 X222.606 Y138.042 E8.94304
G1 X224.532 Y139.042 E8.98635
G1 X225.912 Y140.519 E9.02669
G1 X227.06 Y142.443 E9.0714
G1 X227.33 Y144.086 E9.10463
G1 X227.4 Y205.807 E10.33634
G1 X226.958 Y207.606 E10.3733
G1 X225.958 Y209.532 E10.41661
G1 X224.472 Y210.921 E10.4572
G1 X222.691 Y211.982 E10.49857
G1 X222.448 Y212.077 E10.50378
G1 X220.666 Y212.35 E10.53976
G1 X214.198 Y212.391 E10.66884
G1 X212.624 Y213.299 E10.7051
G1 X211.763 Y213.835 E10.72534
G1 X210.645 Y214.575 E10.75209
G1 X208.672 Y215.284 E10.79393
G1 X207.304 Y215.616 E10.82203
G1 X203.986 Y215.52 E10.88827
G1 X202.68 Y215.283 E10.91476
G1 X201.58 Y214.97 E10.93758
G1 X199.588 Y213.887 E10.98283
G1 X199.059 Y213.649 E10.9944
G1 X197.93 Y213.305 E11.01796
G1 X196.425 Y212.485 E11.05216
G1 X196.306 Y212.4 E11.05508
G1 X129.193 Y212.4 E12.39439
G1 X127.394 Y211.958 E12.43136
G1 X125.468 Y210.958 E12.47467
G1 X124.088 Y209.481 E12.515
G1 X122.94 Y207.557 E12.55971
G1 X122.67 Y205.914 E12.59294
G1 X122.6 Y144.193 E13.82465
G1 X123.042 Y142.394 E13.86162
G1 X124.042 Y140.468 E13.90493
G1 X125.519 Y139.088 E13.94527
G0 F6000 X125.761 Y139.409
G1 F1200 X127.581 Y138.323 E13.98756
G1 X129.151 Y138.065 E14.01931
G1 X220.76 Y138 E15.84747
G1 X222.464 Y138.419 E15.88249
G1 X224.287 Y139.365 E15.92347
G1 X225.591 Y140.761 E15.9616
G1 X226.677 Y142.581 E16.00389
G1 X226.935 Y144.151 E16.03564
G1 X227 Y205.76 E17.26512
G1 X226.581 Y207.464 E17.30014
G1 X225.635 Y209.287 E17.34112
G1 X224.233 Y210.597 E17.37941
G1 X222.486 Y211.638 E17.42
G1 X222.343 Y211.689 E17.42303
G1 X220.663 Y211.95 E17.45695
G1 X214.066 Y211.992 E17.58861
G1 X213.971 Y212.063 E17.59097
G1 X212.413 Y212.959 E17.62684
G1 X211.542 Y213.501 E17.64731
G1 X210.462 Y214.216 E17.67316
G1 X208.578 Y214.895 E17.71313
G1 X207.262 Y215.214 E17.74015
G1 X203.998 Y215.12 E17.80531
G1 X202.79 Y214.898 E17.82982
G1 X201.729 Y214.596 E17.85184
G1 X199.759 Y213.525 E17.89658
G1 X199.197 Y213.273 E17.90888
G1 X198.082 Y212.933 E17.93214
G1 X196.616 Y212.134 E17.96546
G1 X196.442 Y212 E17.96984
G1 X129.24 Y212 E19.31093
G1 X127.536 Y211.581 E19.34595
G1 X125.713 Y210.635 E19.38693
G1 X124.409 Y209.239 E19.42505
G1 X123.323 Y207.419 E19.46735
G1 X123.065 Y205.849 E19.4991
G1 X123 Y144.24 E20.72858
G1 X123.419 Y142.536 E20.76359
G1 X124.365 Y140.713 E20.80458
G1 X125.761 Y139.409 E20.8427
G0 F6000 X126.003 Y139.73
G1 F1200 X127.719 Y138.706 E20.88258
G1 X129.216 Y138.46 E20.91286
G1 X220.714 Y138.4 E22.7388
G1 X222.321 Y138.795 E22.77182
G1 X224.042 Y139.688 E22.81051
G1 X225.27 Y141.003 E22.84642
G1 X226.294 Y142.719 E22.8863
G1 X226.54 Y144.216 E22.91657
G1 X226.6 Y205.714 E24.14383
G1 X226.205 Y207.321 E24.17686
G1 X225.312 Y209.042 E24.21555
G1 X223.994 Y210.273 E24.25154
G1 X222.281 Y211.294 E24.29134
G1 X220.66 Y211.55 E24.32409
G1 X213.922 Y211.593 E24.45855
G1 X213.772 Y211.716 E24.46242
G1 X212.202 Y212.619 E24.49857
G1 X211.331 Y213.161 E24.51904
G1 X210.282 Y213.856 E24.54415
G1 X208.484 Y214.506 E24.5823
G1 X207.22 Y214.812 E24.60826
G1 X204.07 Y214.726 E24.67114
G1 X202.9 Y214.513 E24.69488
G1 X201.878 Y214.222 E24.71608
G1 X199.935 Y213.166 E24.76021
G1 X199.332 Y212.896 E24.7734
G1 X198.234 Y212.561 E24.79631
G1 X196.807 Y211.783 E24.82874
G1 X196.587 Y211.6 E24.83445
G1 X129.286 Y211.6 E26.17752
G1 X127.679 Y211.205 E26.21054
G1 X125.958 Y210.312 E26.24923
G1 X124.73 Y208.997 E26.28514
G1 X123.706 Y207.281 E26.32502
G1 X123.46 Y205.784 E26.35529
G1 X123.4 Y144.286 E27.58255
G1 X123.795 Y142.679 E27.61557
G1 X124.688 Y140.958 E27.65427
G1 X126.003 Y139.73 E27.69017
G0 F6000 X126.245 Y140.051
G1 F1200 X127.857 Y139.089 E27.72763
G1 X129.281 Y138.855 E27.75643
G1 X220.668 Y138.8 E29.58016
G1 X222.178 Y139.171 E29.61119
G1 X223.797 Y140.011 E29.64759
G1 X224.949 Y141.245 E29.68128
G1 X225.911 Y142.857 E29.71874
G1 X226.145 Y144.281 E29.74754
G1 X226.2 Y205.668 E30.97258
G1 X225.829 Y207.178 E31.00361
G1 X224.989 Y208.797 E31.04001
G1 X223.755 Y209.949 E31.0737
G1 X222.142 Y210.911 E31.11118
G1 X220.657 Y211.15 E31.1412
G1 X213.768 Y211.194 E31.27868
G1 X213.573 Y211.369 E31.2839
G1 X211.991 Y212.279 E31.32033
G1 X211.12 Y212.821 E31.3408
G1 X210.103 Y213.495 E31.36515
G1 X208.39 Y214.117 E31.40151
G1 X207.177 Y214.411 E31.42642
G1 X204.141 Y214.332 E31.48703
G1 X203.01 Y214.128 E31.50996
G1 X202.027 Y213.848 E31.53036
G1 X200.106 Y212.804 E31.57399
G1 X199.473 Y212.52 E31.58784
G1 X198.389 Y212.19 E31.61045
G1 X196.999 Y211.432 E31.64205
G1 X196.739 Y211.2 E31.649
G1 X129.332 Y211.2 E32.99418
G1 X127.822 Y210.829 E33.02521
G1 X126.203 Y209.989 E33.06161
G1 X125.051 Y208.755 E33.0953
G1 X124.089 Y207.143 E33.13276
G1 X123.855 Y205.719 E33.16156
G1 X123.8 Y144.332 E34.3866
G1 X124.171 Y142.822 E34.41763
G1 X125.011 Y141.203 E34.45403
G1 X126.245 Y140.051 E34.48772
G0 F6000 X126.487 Y140.372
G1 F1200 X127.995 Y139.472 E34.52276
G1 X129.346 Y139.25 E34.55009
G1 X220.621 Y139.2 E36.37158
G1 X222.036 Y139.548 E36.40066
G1 X223.552 Y140.334 E36.43474
G1 X224.628 Y141.487 E36.46621
G1 X225.528 Y142.995 E36.50125
G1 X225.75 Y144.346 E36.52858
G1 X225.8 Y205.621 E37.75139
G1 X225.452 Y207.036 E37.78046
G1 X224.666 Y208.552 E37.81454
G1 X223.513 Y209.628 E37.84601
G1 X222.005 Y210.528 E37.88106
G1 X220.654 Y210.75 E37.90838
G1 X213.602 Y210.795 E38.04912
G1 X213.374 Y211.022 E38.05554
G1 X211.78 Y211.939 E38.09223
G1 X210.909 Y212.481 E38.11271
G1 X209.924 Y213.134 E38.13629
G1 X208.296 Y213.728 E38.17087
G1 X207.134 Y214.01 E38.19474
G1 X204.211 Y213.938 E38.25309
G1 X203.12 Y213.743 E38.2752
G1 X202.176 Y213.474 E38.29479
G1 X200.277 Y212.442 E38.33792
G1 X199.614 Y212.144 E38.35243
G1 X198.542 Y211.818 E38.37479
G1 X197.19 Y211.081 E38.40552
G1 X196.9 Y210.8 E38.41358
G1 X129.379 Y210.8 E39.76103
G1 X127.964 Y210.452 E39.79011
G1 X126.448 Y209.666 E39.82419
G1 X125.372 Y208.513 E39.85566
G1 X124.472 Y207.005 E39.89071
G1 X124.25 Y205.654 E39.91803
G1 X124.2 Y144.379 E41.14084
G1 X124.548 Y142.964 E41.16992
G1 X125.334 Y141.448 E41.204
G1 X126.487 Y140.372 E41.23547
G0 F6000 X126.729 Y140.693
G1 F1200 X128.133 Y139.855 E41.2681
G1 X129.411 Y139.645 E41.29394
G1 X220.575 Y139.6 E43.11322
G1 X221.893 Y139.924 E43.1403
G1 X223.307 Y140.657 E43.17209
G1 X224.307 Y141.729 E43.20134
G1 X225.145 Y143.133 E43.23397
G1 X225.355 Y144.411 E43.25982
G1 X225.4 Y205.575 E44.48041
G1 X225.076 Y206.893 E44.5075
G1 X224.343 Y208.307 E44.53928
G1 X223.271 Y209.307 E44.56854
G1 X221.867 Y210.145 E44.60117
G1 X220.589 Y210.355 E44.62701
G1 X213.436 Y210.396 E44.76976
G1 X213.13 Y210.7 E44.77837
G1 X211.58 Y211.592 E44.81406
G1 X210.698 Y212.141 E44.83479
G1 X209.746 Y212.773 E44.85759
G1 X208.202 Y213.339 E44.89041
G1 X207.091 Y213.609 E44.91323
G1 X204.281 Y213.544 E44.96932
G1 X203.229 Y213.358 E44.99064
G1 X202.326 Y213.101 E45.00938
G1 X200.448 Y212.08 E45.05203
G1 X199.755 Y211.768 E45.0672
G1 X198.695 Y211.446 E45.08931
G1 X197.431 Y210.757 E45.11804
G1 X197.063 Y210.4 E45.12827
G1 X129.425 Y210.4 E46.47806
G1 X128.107 Y210.076 E46.50514
G1 X126.693 Y209.343 E46.53693
G1 X125.693 Y208.271 E46.56618
G1 X124.855 Y206.867 E46.59881
G1 X124.645 Y205.589 E46.62466
G1 X124.6 Y144.425 E47.84525
G1 X124.924 Y143.107 E47.87234
G1 X125.657 Y141.693 E47.90412
G1 X126.729 Y140.693 E47.93338
G0 F6000 X126.974 Y141.012
G1 F1200 X128.271 Y140.238 E47.96352
G1 X129.476 Y140.04 E47.98789
G1 X220.529 Y140 E49.80495
G1 X221.75 Y140.3 E49.83004
G1 X223.06 Y140.979 E49.85949
G1 X223.988 Y141.974 E49.88664
G1 X224.762 Y143.271 E49.91678
G1 X224.96 Y144.476 E49.94115
G1 X225 Y205.529 E51.15953
G1 X224.7 Y206.75 E51.18462
G1 X224.021 Y208.06 E51.21406
G1 X223.026 Y208.988 E51.24122
G1 X221.729 Y209.762 E51.27136
G1 X220.524 Y209.96 E51.29573
G1 X213.27 Y209.997 E51.44049
G1 X212.886 Y210.378 E51.45129
G1 X211.38 Y211.245 E51.48596
G1 X210.487 Y211.801 E51.50696
G1 X209.564 Y212.414 E51.52907
G1 X208.107 Y212.95 E51.56005
G1 X207.046 Y213.208 E51.58184
G1 X204.35 Y213.15 E51.63565
G1 X203.339 Y212.973 E51.65614
G1 X202.475 Y212.727 E51.67406
G1 X200.619 Y211.718 E51.71622
G1 X199.896 Y211.392 E51.73205
G1 X198.85 Y211.075 E51.75386
G1 X197.671 Y210.432 E51.78066
G1 X197.226 Y210 E51.79304
G1 X129.471 Y210 E53.14516
G1 X128.25 Y209.7 E53.17025
G1 X126.94 Y209.021 E53.1997
G1 X126.012 Y208.026 E53.22685
G1 X125.238 Y206.729 E53.25699
G1 X125.04 Y205.524 E53.28136
G1 X125 Y144.471 E54.49974
G1 X125.3 Y143.25 E54.52483
G1 X125.979 Y141.94 E54.55428
G1 X126.974 Y141.012 E54.58143
G0 F6000 X127.216 Y141.334
G1 F1200 X128.411 Y140.621 E54.6092
G1 X129.541 Y140.435 E54.63205
G1 X220.483 Y140.4 E56.4469
G1 X221.607 Y140.676 E56.47
G1 X222.813 Y141.301 E56.4971
G1 X223.666 Y142.216 E56.52207
G1 X224.379 Y143.411 E56.54984
G1 X224.565 Y144.541 E56.57269
G1 X224.6 Y205.483 E57.78885
G1 X224.324 Y206.607 E57.81195
G1 X223.699 Y207.813 E57.83906
G1 X222.784 Y208.666 E57.86402
G1 X221.589 Y209.379 E57.89179
G1 X220.459 Y209.565 E57.91464
G1 X213.106 Y209.598 E58.06138
G1 X212.644 Y210.055 E58.07435
G1 X211.18 Y210.898 E58.10806
G1 X210.275 Y211.462 E58.12934
G1 X209.383 Y212.054 E58.15071
G1 X208.012 Y212.561 E58.17988
G1 X207.001 Y212.807 E58.20064
G1 X204.418 Y212.756 E58.2522
G1 X203.449 Y212.588 E58.27183
G1 X202.624 Y212.353 E58.28895
G1 X200.79 Y211.356 E58.3306
G1 X200.13 Y211.059 E58.34505
G1 X199.881 Y210.969 E58.35033
G1 X199.003 Y210.703 E58.36864
G1 X197.91 Y210.107 E58.39348
G1 X197.387 Y209.6 E58.40802
G1 X129.517 Y209.6 E59.76244
G1 X128.393 Y209.324 E59.78553
G1 X127.187 Y208.699 E59.81264
G1 X126.334 Y207.784 E59.83761
G1 X125.621 Y206.589 E59.86537
G1 X125.435 Y205.459 E59.88823
G1 X125.4 Y144.517 E61.10439
G1 X125.676 Y143.393 E61.12749
G1 X126.301 Y142.187 E61.1546
G1 X127.216 Y141.334 E61.17956
G0 F6000 X127.458 Y141.656
G1 F1200 X128.551 Y141.004 E61.20496
G1 X129.606 Y140.83 E61.2263
G1 X220.436 Y140.8 E63.03891
G1 X221.465 Y141.053 E63.06005
G1 X222.566 Y141.623 E63.08479
G1 X223.344 Y142.458 E63.10757
G1 X223.996 Y143.551 E63.13297
G1 X224.17 Y144.606 E63.15431
G1 X224.2 Y205.436 E64.36823
G1 X223.947 Y206.465 E64.38938
G1 X223.377 Y207.566 E64.41412
G1 X222.542 Y208.344 E64.4369
G1 X221.449 Y208.996 E64.4623
G1 X220.394 Y209.17 E64.48363
G1 X212.941 Y209.199 E64.63237
G1 X212.4 Y209.733 E64.64754
G1 X210.98 Y210.551 E64.68024
G1 X210.063 Y211.123 E64.70181
G1 X209.202 Y211.695 E64.72244
G1 X207.917 Y212.172 E64.74979
G1 X206.955 Y212.406 E64.76955
G1 X204.486 Y212.362 E64.81883
G1 X203.559 Y212.203 E64.8376
G1 X202.773 Y211.979 E64.85391
G1 X200.961 Y210.994 E64.89506
G1 X200.284 Y210.689 E64.90988
G1 X200.001 Y210.587 E64.91589
G1 X199.156 Y210.331 E64.93351
G1 X198.151 Y209.783 E64.95635
G1 X197.55 Y209.2 E64.97306
G1 X129.564 Y209.2 E66.32979
G1 X128.535 Y208.947 E66.35094
G1 X127.434 Y208.377 E66.37568
G1 X126.656 Y207.542 E66.39846
G1 X126.004 Y206.449 E66.42385
G1 X125.83 Y205.394 E66.44519
G1 X125.8 Y144.564 E67.65912
G1 X126.053 Y143.535 E67.68027
G1 X126.623 Y142.434 E67.70501
G1 X127.458 Y141.656 E67.72778
G0 F6000 X127.7 Y141.978
G1 F1200 X128.691 Y141.387 E67.75081
G1 X129.671 Y141.225 E67.77063
G1 X220.39 Y141.2 E69.58103
G1 X221.322 Y141.429 E69.60018
G1 X222.319 Y141.945 E69.62258
G1 X223.022 Y142.7 E69.64317
G1 X223.613 Y143.691 E69.6662
G1 X223.775 Y144.671 E69.68602
G1 X223.8 Y205.39 E70.89773
G1 X223.571 Y206.322 E70.91689
G1 X223.055 Y207.319 E70.93929
G1 X222.3 Y208.022 E70.95988
G1 X221.309 Y208.613 E70.9829
G1 X220.329 Y208.775 E71.00272
G1 X212.776 Y208.8 E71.15345
G1 X212.156 Y209.411 E71.17082
G1 X210.78 Y210.204 E71.20252
G1 X209.851 Y210.784 E71.22437
G1 X209.022 Y211.335 E71.24424
G1 X207.822 Y211.783 E71.2698
G1 X206.909 Y212.005 E71.28855
G1 X204.553 Y211.968 E71.33557
G1 X203.668 Y211.818 E71.35349
G1 X202.923 Y211.606 E71.36894
G1 X201.132 Y210.632 E71.40963
G1 X200.442 Y210.321 E71.42473
G1 X200.117 Y210.204 E71.43162
G1 X199.309 Y209.959 E71.44847
G1 X198.392 Y209.459 E71.46932
G1 X197.713 Y208.8 E71.4882
G1 X129.61 Y208.8 E72.84727
G1 X128.678 Y208.571 E72.86642
G1 X127.681 Y208.055 E72.88882
G1 X126.978 Y207.3 E72.90941
G1 X126.387 Y206.309 E72.93244
G1 X126.225 Y205.329 E72.95226
G1 X126.2 Y144.61 E74.16397
G1 X126.429 Y143.678 E74.18313
G1 X126.945 Y142.681 E74.20553
G1 X127.7 Y141.978 E74.22612
G0 F6000 X127.939 Y142.302
G1 F1200 X128.831 Y141.77 E74.24684
G1 X129.736 Y141.62 E74.26515
G1 X220.344 Y141.6 E76.07333
G1 X221.179 Y141.805 E76.09049
G1 X222.074 Y142.268 E76.1106
G1 X222.698 Y142.939 E76.12888
G1 X223.23 Y143.831 E76.14961
G1 X223.38 Y144.736 E76.16792
G1 X223.4 Y205.344 E77.37741
G1 X223.195 Y206.179 E77.39457
G1 X222.732 Y207.074 E77.41468
G1 X222.061 Y207.698 E77.43297
G1 X221.169 Y208.23 E77.45369
G1 X220.264 Y208.38 E77.472
G1 X212.611 Y208.4 E77.62472
G1 X211.912 Y209.089 E77.64431
G1 X210.58 Y209.857 E77.67499
G1 X209.639 Y210.445 E77.69714
G1 X208.839 Y210.977 E77.71631
G1 X207.728 Y211.394 E77.73999
G1 X206.864 Y211.604 E77.75774
G1 X204.619 Y211.573 E77.80254
G1 X203.778 Y211.433 E77.81956
G1 X203.072 Y211.232 E77.8342
G1 X201.303 Y210.27 E77.87439
G1 X200.6 Y209.953 E77.88978
G1 X200.233 Y209.821 E77.89756
G1 X199.462 Y209.587 E77.91364
G1 X198.633 Y209.135 E77.93248
G1 X198.048 Y208.567 E77.94876
G1 X197.926 Y208.4 E77.95288
G1 X129.656 Y208.4 E79.31528
G1 X128.821 Y208.195 E79.33244
G1 X127.926 Y207.732 E79.35255
G1 X127.302 Y207.061 E79.37084
G1 X126.77 Y206.169 E79.39156
G1 X126.62 Y205.264 E79.40987
G1 X126.6 Y144.656 E80.61937
G1 X126.805 Y143.821 E80.63653
G1 X127.268 Y142.926 E80.65664
G1 X127.939 Y142.302 E80.67492
G0 F6000 X128.178 Y142.626
G1 F1200 X128.971 Y142.153 E80.69335
G1 X129.802 Y142.015 E80.71016
G1 X220.298 Y142 E82.5161
G1 X221.036 Y142.181 E82.53127
G1 X221.829 Y142.591 E82.54908
G1 X222.374 Y143.178 E82.56507
