;FLAVOR:Marlin
;TIME:55993
;Filament used: 24.6212m
;Layer height: 0.15
;MINX:6.14
;MINY:6.113
;MINZ:0.3
;MAXX:213.865
;MAXY:213.891
;MAXZ:10.05
;Generated with Cura_SteamEngine 5.2.2
M140 S60
M105
M190 S60
M104 S200
M105
M109 S200
M82 ;absolute extrusion mode
G28 ;Home
G1 Z15.0 F6000 ;Move the platform down 15mm
;Prime the extruder
G92 E0
G1 F200 E3
G92 E0
G92 E0
G92 E0
G1 F1500 E-6.5
;LAYER_COUNT:66
;LAYER:0
M107
G0 F3600 X34.082 Y39.094 Z0.3
;TYPE:SKIRT
G1 F1500 E0
G1 F1800 X40.841 Y32.506 E0.23545
G1 X41.553 Y31.841 E0.25975
G1 X49.155 Y25.821 E0.50164
G1 X49.668 Y25.427 E0.51777
G1 X50.177 Y25.074 E0.53323
G1 X58.083 Y20.043 E0.76699
G1 X58.687 Y19.672 E0.78467
G1 X59.616 Y19.164 E0.81108
G1 X64.801 Y16.472 E0.95682
G1 X65.555 Y16.096 E0.97783
G1 X66.096 Y15.841 E0.99275
G1 X67.756 Y15.085 E1.03825
G1 X68.256 Y14.869 E1.05184
G1 X69.508 Y14.369 E1.08547
G1 X77.627 Y11.308 E1.30191
G1 X78.591 Y10.968 E1.32741
G1 X87.91 Y8.512 E1.56781
G1 X88.613 Y8.338 E1.58588
G1 X89.201 Y8.223 E1.60083
G1 X98.424 Y6.785 E1.83367
G1 X99.189 Y6.677 E1.85295
G1 X99.743 Y6.626 E1.86682
G1 X109.053 Y6.143 E2.09938
G1 X109.867 Y6.113 E2.11969
G1 X110.434 Y6.119 E2.13384
G1 X119.795 Y6.6 E2.36766
G1 X120.674 Y6.657 E2.38963
G1 X121.351 Y6.749 E2.40667
G1 X130.413 Y8.161 E2.63545
G1 X131.431 Y8.339 E2.66123
G1 X140.787 Y10.802 E2.90257
G1 X141.59 Y11.026 E2.92337
G1 X142.231 Y11.254 E2.94034
G1 X150.787 Y14.48 E3.16844
G1 X151.465 Y14.746 E3.1866
G1 X152.02 Y14.997 E3.2018
G1 X160.369 Y19.168 E3.43461
G1 X161.054 Y19.522 E3.45384
G1 X161.544 Y19.807 E3.46798
G1 X169.453 Y24.836 E3.70178
G1 X170.073 Y25.242 E3.72027
G1 X170.563 Y25.6 E3.73541
G1 X177.953 Y31.447 E3.97047
G1 X178.475 Y31.873 E3.98728
G1 X178.922 Y32.276 E4.00229
G1 X185.627 Y38.807 E4.23578
G1 X186.318 Y39.502 E4.26023
G1 X192.562 Y46.982 E4.50328
G1 X192.898 Y47.401 E4.51668
G1 X193.732 Y48.505 E4.55119
G1 X194.79 Y49.966 E4.59619
G1 X195.29 Y50.681 E4.61796
G1 X195.582 Y51.119 E4.63109
G1 X198.666 Y55.879 E4.77257
G1 X199.125 Y56.623 E4.79438
G1 X199.525 Y57.35 E4.81508
G1 X203.683 Y65.159 E5.03576
G1 X204.028 Y65.828 E5.05454
G1 X204.276 Y66.376 E5.06955
G1 X207.824 Y75.094 E5.30434
G1 X208.123 Y75.861 E5.32487
G1 X208.32 Y76.488 E5.34127
G1 X210.879 Y85.28 E5.56969
G1 X211.165 Y86.347 E5.59724
G1 X212.895 Y95.836 E5.83785
G1 X213.057 Y96.846 E5.86336
G1 X213.8 Y106.421 E6.10293
G1 X213.865 Y107.537 E6.13082
G1 X213.617 Y117.186 E6.37159
G1 X213.589 Y117.876 E6.38882
G1 X213.536 Y118.468 E6.40364
G1 X212.337 Y127.737 E6.63679
G1 X212.21 Y128.618 E6.65899
G1 X212.06 Y129.317 E6.67682
G1 X209.97 Y138.168 E6.90369
G1 X209.754 Y139.029 E6.92583
G1 X209.532 Y139.71 E6.9437
G1 X206.535 Y148.323 E7.17118
G1 X206.168 Y149.313 E7.19752
G1 X202.089 Y158.032 E7.43764
G1 X201.636 Y158.961 E7.46342
G1 X196.669 Y167.234 E7.70413
G1 X196.082 Y168.17 E7.73169
G1 X190.316 Y175.853 E7.97132
G1 X189.71 Y176.641 E7.99611
G1 X183.097 Y183.787 E8.23899
G1 X182.611 Y184.296 E8.25654
G1 X182.162 Y184.724 E8.27202
G1 X175.122 Y190.913 E8.50584
G1 X174.577 Y191.378 E8.52372
G1 X174.148 Y191.711 E8.53726
G1 X166.452 Y197.185 E8.77285
G1 X165.59 Y197.771 E8.79885
G1 X157.171 Y202.537 E9.04018
G1 X156.376 Y202.973 E9.0628
G1 X147.46 Y206.873 E9.30555
G1 X146.451 Y207.289 E9.33278
G1 X137.271 Y210.221 E9.57317
G1 X136.58 Y210.43 E9.59118
G1 X136.018 Y210.571 E9.60563
G1 X126.813 Y212.496 E9.84022
G1 X126.12 Y212.63 E9.85783
G1 X125.432 Y212.725 E9.87515
G1 X116.218 Y213.677 E10.10622
G1 X115.327 Y213.753 E10.12853
G1 X114.78 Y213.778 E10.14219
G1 X110.714 Y213.883 E10.24365
G1 X109.786 Y213.891 E10.2668
G1 X105.342 Y213.78 E10.37769
G1 X104.371 Y213.735 E10.40194
G1 X94.85 Y212.754 E10.64069
G1 X94.135 Y212.669 E10.65866
G1 X93.588 Y212.578 E10.67249
G1 X84.376 Y210.654 E10.90724
G1 X83.348 Y210.417 E10.93356
G1 X74.154 Y207.483 E11.1743
G1 X73.49 Y207.262 E11.19175
G1 X72.348 Y206.8 E11.22249
G1 X66.233 Y204.202 E11.38822
G1 X65.359 Y203.813 E11.41208
G1 X64.143 Y203.228 E11.44575
G1 X63.663 Y202.985 E11.45917
G1 X62.643 Y202.432 E11.48811
G1 X54.971 Y198.09 E11.70801
G1 X54.366 Y197.735 E11.72551
G1 X53.846 Y197.396 E11.74099
G1 X46.218 Y191.973 E11.97446
G1 X45.367 Y191.341 E12.0009
G1 X38.122 Y184.975 E12.24149
G1 X37.413 Y184.333 E12.26535
G1 X30.805 Y177.2 E12.5079
G1 X30.091 Y176.394 E12.53476
G1 X24.288 Y168.664 E12.77587
G1 X23.686 Y167.824 E12.80165
G1 X18.729 Y159.572 E13.04178
G1 X18.245 Y158.739 E13.06581
G1 X14.122 Y149.936 E13.3083
G1 X13.816 Y149.258 E13.32685
G1 X13.608 Y148.73 E13.34101
G1 X10.536 Y139.903 E13.57415
G1 X10.25 Y139.041 E13.59681
G1 X10.069 Y138.337 E13.61494
G1 X7.982 Y129.49 E13.84169
G1 X7.823 Y128.771 E13.86006
G1 X7.721 Y128.176 E13.87512
G1 X6.515 Y118.873 E14.10912
G1 X6.433 Y118.158 E14.12708
G1 X6.394 Y117.565 E14.1419
G1 X6.151 Y108.152 E14.37679
G1 X6.14 Y107.232 E14.39974
G1 X6.887 Y97.54 E14.64222
G1 X6.954 Y96.812 E14.66046
G1 X7.048 Y96.148 E14.67719
G1 X8.726 Y86.944 E14.91057
G1 X8.883 Y86.146 E14.93085
G1 X9.052 Y85.518 E14.94708
G1 X11.615 Y76.715 E15.17579
G1 X11.834 Y76.002 E15.19439
G1 X12.041 Y75.429 E15.20959
G1 X15.575 Y66.737 E15.44365
G1 X15.988 Y65.778 E15.4697
G1 X20.512 Y57.28 E15.70985
G1 X20.975 Y56.453 E15.73349
G1 X21.381 Y55.805 E15.75257
G1 X24.384 Y51.172 E15.89029
G1 X24.825 Y50.512 E15.91009
G1 X25.217 Y49.956 E15.92706
G1 X26.801 Y47.787 E15.99406
G1 X27.67 Y46.703 E16.02872
G1 X33.179 Y40.099 E16.24325
G1 X33.667 Y39.531 E16.26193
G1 X34.082 Y39.094 E16.27696
G0 F3600 X34.036 Y39.418
G1 F1800 X40.978 Y32.651 E16.51879
G1 X41.44 Y32.213 E16.53467
G1 X41.878 Y31.838 E16.54905
G1 X49.277 Y25.98 E16.78447
G1 X50.064 Y25.383 E16.80911
G1 X58.187 Y20.213 E17.0493
G1 X58.791 Y19.842 E17.06698
G1 X59.708 Y19.341 E17.09305
G1 X64.84 Y16.676 E17.2373
G1 X65.64 Y16.277 E17.2596
G1 X66.178 Y16.023 E17.27444
G1 X68.091 Y15.152 E17.32687
G1 X69.579 Y14.556 E17.36686
G1 X77.695 Y11.496 E17.58322
G1 X78.646 Y11.16 E17.60838
G1 X87.958 Y8.706 E17.8486
G1 X88.661 Y8.532 E17.86667
G1 X89.232 Y8.42 E17.88118
G1 X98.452 Y6.983 E18.11395
G1 X99.525 Y6.838 E18.14096
G1 X109.118 Y6.341 E18.38058
G1 X109.874 Y6.313 E18.39945
G1 X110.424 Y6.319 E18.41317
G1 X119.782 Y6.8 E18.64692
G1 X120.664 Y6.857 E18.66896
G1 X121.32 Y6.947 E18.68548
G1 X130.38 Y8.358 E18.91421
G1 X131.045 Y8.471 E18.93104
G1 X131.624 Y8.597 E18.94582
G1 X140.733 Y10.995 E19.18078
G1 X141.542 Y11.221 E19.20174
G1 X142.16 Y11.441 E19.2181
G1 X150.714 Y14.667 E19.44615
G1 X151.706 Y15.064 E19.4728
G1 X160.277 Y19.346 E19.71181
G1 X160.962 Y19.7 E19.73104
G1 X161.436 Y19.976 E19.74472
G1 X169.343 Y25.004 E19.97846
G1 X170.236 Y25.596 E20.00519
G1 X177.826 Y31.602 E20.24663
G1 X178.601 Y32.242 E20.2717
G1 X185.485 Y38.948 E20.51144
G1 X185.997 Y39.463 E20.52955
G1 X186.405 Y39.915 E20.54474
G1 X192.407 Y47.108 E20.77843
G1 X192.739 Y47.522 E20.79167
G1 X193.57 Y48.622 E20.82606
G1 X194.627 Y50.081 E20.871
G1 X195.075 Y50.72 E20.89047
G1 X195.414 Y51.228 E20.9057
G1 X198.496 Y55.985 E21.04709
G1 X198.95 Y56.719 E21.06862
G1 X199.349 Y57.444 E21.08927
G1 X203.505 Y65.251 E21.30989
G1 X203.85 Y65.92 E21.32867
G1 X204.091 Y66.451 E21.34321
G1 X207.638 Y75.167 E21.57795
G1 X207.93 Y75.916 E21.598
G1 X208.128 Y76.544 E21.61443
G1 X210.687 Y85.336 E21.84284
G1 X210.968 Y86.38 E21.86981
G1 X212.698 Y95.869 E22.11042
G1 X212.811 Y96.548 E22.12759
G1 X212.877 Y97.111 E22.14173
G1 X213.6 Y106.433 E22.37497
G1 X213.664 Y107.536 E22.40253
G1 X213.417 Y117.178 E22.64313
G1 X213.369 Y118.193 E22.66848
G1 X212.131 Y127.762 E22.90916
G1 X212.012 Y128.594 E22.93013
G1 X211.865 Y129.271 E22.94741
G1 X209.776 Y138.12 E23.17422
G1 X209.566 Y138.957 E23.19574
G1 X209.343 Y139.645 E23.21379
G1 X206.365 Y148.206 E23.43989
G1 X206.019 Y149.155 E23.46509
G1 X201.91 Y157.944 E23.70711
G1 X201.466 Y158.855 E23.73239
G1 X196.499 Y167.129 E23.97312
G1 X196.102 Y167.771 E23.99195
G1 X195.755 Y168.272 E24.00715
G1 X190.157 Y175.731 E24.23979
G1 X189.499 Y176.574 E24.26647
G1 X182.952 Y183.649 E24.50692
G1 X182.466 Y184.158 E24.52448
G1 X182.03 Y184.574 E24.53951
G1 X174.993 Y190.761 E24.77325
G1 X174.448 Y191.226 E24.79112
G1 X174.032 Y191.548 E24.80424
G1 X166.338 Y197.02 E25.03976
G1 X165.748 Y197.426 E25.05762
G1 X165.295 Y197.708 E25.07093
G1 X157.075 Y202.361 E25.30656
G1 X156.199 Y202.834 E25.33139
G1 X147.435 Y206.666 E25.56999
G1 X146.37 Y207.106 E25.59874
G1 X137.213 Y210.03 E25.83852
G1 X136.522 Y210.239 E25.85653
G1 X135.977 Y210.376 E25.87055
G1 X126.775 Y212.3 E26.10506
G1 X125.967 Y212.456 E26.12559
G1 X125.328 Y212.535 E26.14165
G1 X116.201 Y213.477 E26.37053
G1 X115.318 Y213.553 E26.39264
G1 X114.775 Y213.578 E26.4062
G1 X110.711 Y213.683 E26.50761
G1 X109.791 Y213.691 E26.53056
G1 X105.429 Y213.583 E26.6394
G1 X104.385 Y213.536 E26.66547
G1 X94.873 Y212.555 E26.90401
G1 X93.85 Y212.428 E26.92972
G1 X84.42 Y210.459 E27.17003
G1 X83.403 Y210.225 E27.19606
G1 X74.262 Y207.308 E27.43541
G1 X73.566 Y207.076 E27.45371
G1 X72.426 Y206.616 E27.48438
G1 X66.314 Y204.019 E27.65003
G1 X65.549 Y203.68 E27.67091
G1 X64.234 Y203.049 E27.70729
G1 X63.754 Y202.806 E27.72071
G1 X62.742 Y202.258 E27.74942
G1 X55.072 Y197.917 E27.96927
G1 X54.173 Y197.383 E27.99535
G1 X46.337 Y191.812 E28.23519
G1 X45.49 Y191.183 E28.2615
G1 X38.257 Y184.827 E28.5017
G1 X37.718 Y184.339 E28.51983
G1 X37.336 Y183.957 E28.53331
G1 X30.954 Y177.067 E28.76758
G1 X30.248 Y176.27 E28.79414
G1 X24.45 Y168.546 E29.03506
G1 X23.851 Y167.711 E29.0607
G1 X18.902 Y159.472 E29.30045
G1 X18.536 Y158.843 E29.3186
G1 X18.277 Y158.341 E29.33269
G1 X14.305 Y149.854 E29.56644
G1 X13.874 Y148.885 E29.5929
G1 X10.726 Y139.84 E29.8318
G1 X10.439 Y138.974 E29.85456
G1 X10.282 Y138.366 E29.87022
G1 X8.177 Y129.447 E30.09882
G1 X7.953 Y128.404 E30.12543
G1 X6.714 Y118.851 E30.36573
G1 X6.632 Y118.136 E30.38368
G1 X6.594 Y117.56 E30.39808
G1 X6.351 Y108.15 E30.63289
G1 X6.343 Y107.47 E30.64985
G1 X6.366 Y106.886 E30.66443
G1 X7.087 Y97.558 E30.89781
G1 X7.193 Y96.467 E30.92516
G1 X8.922 Y86.983 E31.16564
G1 X9.078 Y86.192 E31.18575
G1 X9.244 Y85.574 E31.20171
G1 X11.806 Y76.774 E31.43034
G1 X12.129 Y75.743 E31.45729
G1 X15.759 Y66.815 E31.69771
G1 X16.034 Y66.166 E31.71529
G1 X16.284 Y65.649 E31.72962
G1 X20.687 Y57.377 E31.96337
G1 X21.145 Y56.559 E31.98676
G1 X21.549 Y55.914 E32.00574
G1 X24.551 Y51.283 E32.14341
G1 X24.992 Y50.623 E32.16321
G1 X25.379 Y50.073 E32.17999
G1 X26.957 Y47.912 E32.24674
G1 X27.777 Y46.888 E32.27946
G1 X33.331 Y40.23 E32.49575
G1 X34.036 Y39.418 E32.52257
G0 F3600 X34.117 Y39.621
G1 F1800 X41.116 Y32.796 E32.76643
G1 X41.578 Y32.358 E32.78231
G1 X42.002 Y31.995 E32.79623
G1 X49.399 Y26.138 E33.03159
G1 X50.177 Y25.548 E33.05595
G1 X58.292 Y20.384 E33.29589
G1 X58.896 Y20.013 E33.31357
G1 X59.8 Y19.519 E33.33927
G1 X64.932 Y16.854 E33.48352
G1 X65.726 Y16.457 E33.50566
G1 X66.261 Y16.205 E33.52041
G1 X67.916 Y15.451 E33.56578
G1 X68.404 Y15.24 E33.57904
G1 X69.649 Y14.743 E33.61248
G1 X77.763 Y11.684 E33.82879
G1 X78.699 Y11.353 E33.85356
G1 X88.006 Y8.901 E34.09365
G1 X89.019 Y8.656 E34.11964
G1 X98.48 Y7.181 E34.3585
G1 X99.245 Y7.073 E34.37777
G1 X99.764 Y7.026 E34.39077
G1 X109.125 Y6.54 E34.6246
G1 X109.881 Y6.512 E34.64347
G1 X110.414 Y6.519 E34.65677
G1 X119.769 Y6.999 E34.89043
G1 X120.642 Y7.056 E34.91226
G1 X121.29 Y7.145 E34.92857
G1 X130.346 Y8.555 E35.1572
G1 X131.341 Y8.729 E35.1824
G1 X140.68 Y11.188 E35.4233
G1 X141.473 Y11.409 E35.44383
G1 X142.09 Y11.628 E35.46017
G1 X150.641 Y14.853 E35.68814
G1 X151.319 Y15.119 E35.7063
G1 X151.841 Y15.355 E35.7206
G1 X160.185 Y19.524 E35.95327
G1 X161.136 Y20.022 E35.98005
G1 X169.233 Y25.171 E36.21941
G1 X169.853 Y25.577 E36.2379
G1 X170.315 Y25.914 E36.25216
G1 X177.7 Y31.757 E36.48707
G1 X178.401 Y32.329 E36.50964
G1 X185.343 Y39.089 E36.75135
G1 X186.083 Y39.842 E36.77768
G1 X192.251 Y47.233 E37.01782
G1 X192.579 Y47.642 E37.0309
G1 X193.365 Y48.681 E37.0634
G1 X194.463 Y50.196 E37.11007
G1 X194.911 Y50.835 E37.12954
G1 X195.246 Y51.337 E37.14459
G1 X198.327 Y56.092 E37.28593
G1 X198.676 Y56.649 E37.30232
G1 X199.172 Y57.538 E37.32772
G1 X203.328 Y65.343 E37.5483
G1 X203.673 Y66.012 E37.56707
G1 X203.906 Y66.527 E37.58117
G1 X207.452 Y75.239 E37.81581
G1 X207.7 Y75.876 E37.83286
G1 X207.936 Y76.6 E37.85186
G1 X210.51 Y85.445 E38.08165
G1 X210.687 Y86.091 E38.09836
G1 X210.822 Y86.697 E38.11384
G1 X212.501 Y95.901 E38.34723
G1 X212.614 Y96.58 E38.3644
G1 X212.677 Y97.126 E38.37811
G1 X213.401 Y106.446 E38.6113
G1 X213.45 Y107.214 E38.63049
G1 X213.458 Y107.782 E38.64466
G1 X213.217 Y117.17 E38.87893
G1 X213.17 Y118.175 E38.90402
G1 X211.934 Y127.734 E39.14446
G1 X211.819 Y128.537 E39.16469
G1 X211.67 Y129.225 E39.18225
G1 X209.582 Y138.071 E39.40898
G1 X209.373 Y138.906 E39.43045
G1 X209.154 Y139.579 E39.44811
G1 X206.159 Y148.186 E39.67544
G1 X205.803 Y149.149 E39.70105
G1 X201.73 Y157.856 E39.94083
G1 X201.286 Y158.767 E39.96611
G1 X196.329 Y167.024 E40.20635
G1 X195.808 Y167.866 E40.23105
G1 X189.999 Y175.609 E40.47252
G1 X189.555 Y176.186 E40.49068
G1 X189.181 Y176.623 E40.50503
G1 X182.807 Y183.511 E40.73913
G1 X182.088 Y184.257 E40.76497
G1 X174.863 Y190.609 E41.00495
G1 X174.091 Y191.26 E41.03014
G1 X166.225 Y196.855 E41.27093
G1 X165.382 Y197.428 E41.29636
G1 X156.979 Y202.186 E41.53724
G1 X156.402 Y202.502 E41.55365
G1 X155.881 Y202.754 E41.56809
G1 X147.305 Y206.504 E41.80158
G1 X146.315 Y206.913 E41.8283
G1 X137.155 Y209.838 E42.06816
G1 X136.161 Y210.133 E42.09403
G1 X126.737 Y212.103 E42.33419
G1 X126.044 Y212.237 E42.3518
G1 X125.382 Y212.328 E42.36847
G1 X116.183 Y213.278 E42.59916
G1 X115.308 Y213.353 E42.62106
G1 X114.77 Y213.378 E42.6345
G1 X110.709 Y213.483 E42.73583
G1 X109.796 Y213.491 E42.75861
G1 X105.434 Y213.383 E42.86745
G1 X104.292 Y213.326 E42.89598
G1 X94.897 Y212.357 E43.13158
G1 X93.889 Y212.232 E43.15692
G1 X84.464 Y210.264 E43.39709
G1 X83.774 Y210.11 E43.41473
G1 X83.213 Y209.954 E43.42926
G1 X74.28 Y207.103 E43.66316
G1 X73.527 Y206.845 E43.68302
G1 X72.505 Y206.431 E43.71053
G1 X66.395 Y203.836 E43.87612
G1 X65.63 Y203.497 E43.89699
G1 X64.324 Y202.871 E43.93312
G1 X63.756 Y202.582 E43.94901
G1 X62.84 Y202.084 E43.97502
G1 X55.174 Y197.745 E44.19476
G1 X54.286 Y197.218 E44.22052
G1 X46.455 Y191.651 E44.46019
G1 X45.861 Y191.215 E44.47857
G1 X45.451 Y190.882 E44.49175
G1 X38.391 Y184.679 E44.72618
G1 X37.852 Y184.191 E44.74432
G1 X37.482 Y183.821 E44.75737
G1 X31.103 Y176.933 E44.99156
G1 X30.456 Y176.212 E45.01572
G1 X24.612 Y168.429 E45.25851
G1 X24.025 Y167.612 E45.2836
G1 X19.075 Y159.371 E45.52341
G1 X18.559 Y158.472 E45.54927
G1 X14.487 Y149.772 E45.78888
G1 X14.059 Y148.812 E45.8151
G1 X10.916 Y139.777 E46.05373
G1 X10.632 Y138.92 E46.07625
G1 X10.476 Y138.316 E46.09181
G1 X8.373 Y129.404 E46.32023
G1 X8.214 Y128.685 E46.3386
G1 X8.118 Y128.124 E46.3528
G1 X6.913 Y118.828 E46.58663
G1 X6.8 Y117.799 E46.61245
G1 X6.551 Y108.147 E46.8533
G1 X6.543 Y107.467 E46.87026
G1 X6.565 Y106.902 E46.88437
G1 X7.286 Y97.576 E47.1177
G1 X7.391 Y96.501 E47.14464
G1 X9.118 Y87.021 E47.38501
G1 X9.272 Y86.24 E47.40487
G1 X9.436 Y85.63 E47.42063
G1 X11.997 Y76.832 E47.6492
G1 X12.216 Y76.119 E47.66781
G1 X12.412 Y75.58 E47.68212
G1 X15.943 Y66.893 E47.91603
G1 X16.218 Y66.244 E47.93362
G1 X16.46 Y65.743 E47.94749
G1 X20.862 Y57.473 E48.1812
G1 X21.314 Y56.665 E48.20429
G1 X21.717 Y56.022 E48.22322
G1 X24.717 Y51.394 E48.3608
G1 X25.208 Y50.661 E48.38281
G1 X25.54 Y50.191 E48.39716
G1 X27.015 Y48.165 E48.45968
G1 X27.977 Y46.959 E48.49816
G1 X33.482 Y40.36 E48.71253
G1 X34.117 Y39.621 E48.73683
G0 F3600 X34.122 Y39.922
G1 F1800 X34.5 Y39.524 E48.75053
G1 X41.254 Y32.941 E48.98579
G1 X41.716 Y32.503 E49.00168
G1 X42.126 Y32.152 E49.01514
G1 X49.521 Y26.297 E49.25043
G1 X50.287 Y25.715 E49.27442
G1 X58.397 Y20.554 E49.51422
G1 X59.16 Y20.091 E49.53648
G1 X59.892 Y19.696 E49.55723
G1 X65.069 Y17.008 E49.70274
G1 X65.811 Y16.638 E49.72342
G1 X66.344 Y16.387 E49.73812
G1 X67.996 Y15.635 E49.7834
G1 X68.478 Y15.426 E49.7965
G1 X69.72 Y14.93 E49.82987
G1 X77.83 Y11.872 E50.04607
G1 X78.46 Y11.645 E50.06278
G1 X79.001 Y11.48 E50.07689
