;FLAVOR:Marlin
;TIME:67526
;Filament used: 30.3358m
;Layer height: 0.15
;MINX:6.14
;MINY:6.113
;MINZ:0.3
;MAXX:213.865
;MAXY:213.891
;MAXZ:10.05
;Generated with Cura_SteamEngine 5.2.2
M140 S60
M105
M190 S60
M104 S200
M105
M109 S200
M82 ;absolute extrusion mode
G28 ;Home
G1 Z15.0 F6000 ;Move the platform down 15mm
;Prime the extruder
G92 E0
G1 F200 E3
G92 E0
G92 E0
G92 E0
G1 F1500 E-6.5
;LAYER_COUNT:66
;LAYER:0
M107
G0 F3600 X33.893 Y39.278 Z0.3
;TYPE:SKIRT
G1 F1500 E0
G1 F1800 X40.841 Y32.506 E0.24202
G1 X41.553 Y31.841 E0.26633
G1 X49.155 Y25.821 E0.50822
G1 X49.668 Y25.427 E0.52435
G1 X50.177 Y25.074 E0.53981
G1 X58.083 Y20.043 E0.77357
G1 X59.006 Y19.482 E0.80051
G1 X67.613 Y15.178 E1.04056
G1 X68.268 Y14.862 E1.0587
G1 X68.799 Y14.638 E1.07308
G1 X77.625 Y11.309 E1.30838
G1 X78.591 Y10.968 E1.33394
G1 X87.91 Y8.512 E1.57434
G1 X88.613 Y8.338 E1.59241
G1 X89.201 Y8.223 E1.60735
G1 X98.424 Y6.785 E1.8402
G1 X99.189 Y6.677 E1.85947
G1 X99.743 Y6.626 E1.87335
G1 X109.053 Y6.143 E2.1059
G1 X109.867 Y6.113 E2.12622
G1 X110.434 Y6.119 E2.14036
G1 X119.795 Y6.6 E2.37418
G1 X120.674 Y6.657 E2.39616
G1 X121.351 Y6.749 E2.4132
G1 X130.413 Y8.161 E2.64198
G1 X131.431 Y8.339 E2.66776
G1 X140.787 Y10.802 E2.9091
G1 X141.59 Y11.026 E2.92989
G1 X142.231 Y11.254 E2.94686
G1 X150.787 Y14.48 E3.17496
G1 X151.465 Y14.746 E3.19313
G1 X152.02 Y14.997 E3.20832
G1 X160.369 Y19.168 E3.44113
G1 X161.054 Y19.522 E3.46037
G1 X161.544 Y19.807 E3.47451
G1 X169.453 Y24.836 E3.70831
G1 X170.073 Y25.242 E3.72679
G1 X170.563 Y25.6 E3.74193
G1 X177.953 Y31.447 E3.977
G1 X178.475 Y31.873 E3.9938
G1 X178.922 Y32.276 E4.00882
G1 X185.627 Y38.807 E4.2423
G1 X186.317 Y39.501 E4.26672
G1 X192.559 Y46.977 E4.50966
G1 X193.002 Y47.524 E4.52722
G1 X193.379 Y48.041 E4.54318
G1 X198.584 Y55.777 E4.77577
G1 X199.063 Y56.509 E4.79759
G1 X199.37 Y57.054 E4.8132
G1 X203.686 Y65.163 E5.04235
G1 X204.029 Y65.83 E5.06105
G1 X204.276 Y66.376 E5.076
G1 X207.824 Y75.094 E5.31079
G1 X208.123 Y75.861 E5.33133
G1 X208.32 Y76.488 E5.34772
G1 X210.879 Y85.28 E5.57614
G1 X211.165 Y86.347 E5.6037
G1 X212.895 Y95.836 E5.8443
G1 X213.057 Y96.846 E5.86982
G1 X213.8 Y106.421 E6.10939
G1 X213.865 Y107.537 E6.13727
G1 X213.617 Y117.186 E6.37805
G1 X213.589 Y117.876 E6.39528
G1 X213.536 Y118.468 E6.4101
G1 X212.337 Y127.737 E6.64324
G1 X212.21 Y128.618 E6.66545
G1 X212.06 Y129.317 E6.68328
G1 X209.97 Y138.168 E6.91014
G1 X209.754 Y139.029 E6.93229
G1 X209.532 Y139.71 E6.95015
G1 X206.535 Y148.323 E7.17764
G1 X206.168 Y149.313 E7.20398
G1 X202.089 Y158.032 E7.4441
G1 X201.636 Y158.961 E7.46988
G1 X196.669 Y167.234 E7.71059
G1 X196.082 Y168.17 E7.73815
G1 X190.316 Y175.853 E7.97777
G1 X189.71 Y176.641 E8.00257
G1 X183.097 Y183.787 E8.24545
G1 X182.611 Y184.296 E8.263
G1 X182.162 Y184.724 E8.27848
G1 X175.122 Y190.913 E8.5123
G1 X174.577 Y191.378 E8.53017
G1 X174.148 Y191.711 E8.54372
G1 X166.452 Y197.185 E8.77931
G1 X165.59 Y197.771 E8.80531
G1 X157.171 Y202.537 E9.04664
G1 X156.376 Y202.973 E9.06926
G1 X147.46 Y206.873 E9.31201
G1 X146.451 Y207.289 E9.33924
G1 X137.271 Y210.221 E9.57963
G1 X136.58 Y210.43 E9.59764
G1 X136.018 Y210.571 E9.61209
G1 X126.813 Y212.496 E9.84668
G1 X126.12 Y212.63 E9.86429
G1 X125.432 Y212.725 E9.88161
G1 X116.218 Y213.677 E10.11268
G1 X115.327 Y213.753 E10.13498
G1 X114.78 Y213.778 E10.14864
G1 X110.714 Y213.883 E10.2501
G1 X109.786 Y213.891 E10.27325
G1 X105.342 Y213.78 E10.38415
G1 X104.371 Y213.735 E10.40839
G1 X94.85 Y212.754 E10.64715
G1 X94.135 Y212.669 E10.66511
G1 X93.588 Y212.578 E10.67895
G1 X84.376 Y210.654 E10.9137
G1 X83.348 Y210.417 E10.94002
G1 X74.147 Y207.481 E11.18094
G1 X73.497 Y207.263 E11.19804
G1 X72.935 Y207.044 E11.21309
G1 X64.33 Y203.285 E11.44732
G1 X63.454 Y202.886 E11.47134
G1 X54.973 Y198.091 E11.71437
G1 X54.062 Y197.549 E11.74081
G1 X46.218 Y191.973 E11.98088
G1 X45.367 Y191.341 E12.00732
G1 X38.122 Y184.975 E12.24791
G1 X37.413 Y184.333 E12.27177
G1 X30.805 Y177.2 E12.51432
G1 X30.091 Y176.394 E12.54118
G1 X24.288 Y168.664 E12.78229
G1 X23.686 Y167.824 E12.80807
G1 X18.729 Y159.572 E13.0482
G1 X18.245 Y158.739 E13.07223
G1 X14.122 Y149.936 E13.31472
G1 X13.816 Y149.258 E13.33327
G1 X13.608 Y148.73 E13.34743
G1 X10.536 Y139.903 E13.58057
G1 X10.25 Y139.041 E13.60323
G1 X10.069 Y138.337 E13.62136
G1 X7.982 Y129.49 E13.84811
G1 X7.823 Y128.771 E13.86648
G1 X7.721 Y128.176 E13.88154
G1 X6.515 Y118.873 E14.11554
G1 X6.433 Y118.158 E14.1335
G1 X6.394 Y117.565 E14.14832
G1 X6.151 Y108.152 E14.38321
G1 X6.14 Y107.232 E14.40616
G1 X6.887 Y97.54 E14.64864
G1 X6.954 Y96.812 E14.66688
G1 X7.048 Y96.148 E14.68361
G1 X8.726 Y86.944 E14.91699
G1 X8.883 Y86.146 E14.93727
G1 X9.052 Y85.518 E14.9535
G1 X11.615 Y76.715 E15.18221
G1 X11.834 Y76.002 E15.20081
G1 X12.041 Y75.429 E15.21601
G1 X15.575 Y66.737 E15.45007
G1 X15.988 Y65.778 E15.47612
G1 X20.512 Y57.28 E15.71627
G1 X21.036 Y56.343 E15.74305
G1 X26.413 Y48.348 E15.98339
G1 X26.828 Y47.75 E16.00155
G1 X27.176 Y47.298 E16.01578
G1 X33.178 Y40.1 E16.24957
G1 X33.893 Y39.278 E16.27674
G0 F3600 X34.036 Y39.418
G1 F1800 X40.978 Y32.651 E16.51857
G1 X41.44 Y32.213 E16.53445
G1 X41.878 Y31.838 E16.54884
G1 X49.277 Y25.98 E16.78425
G1 X50.064 Y25.383 E16.80889
G1 X58.187 Y20.213 E17.04908
G1 X59.098 Y19.66 E17.07566
G1 X67.7 Y15.359 E17.31557
G1 X68.645 Y14.91 E17.34167
G1 X77.693 Y11.497 E17.58289
G1 X78.642 Y11.161 E17.60801
G1 X87.958 Y8.706 E17.84833
G1 X88.661 Y8.532 E17.8664
G1 X89.232 Y8.42 E17.88091
G1 X98.452 Y6.983 E18.11368
G1 X99.525 Y6.838 E18.14069
G1 X109.118 Y6.341 E18.38031
G1 X109.874 Y6.313 E18.39918
G1 X110.424 Y6.319 E18.4129
G1 X119.782 Y6.8 E18.64665
G1 X120.664 Y6.857 E18.66869
G1 X121.32 Y6.947 E18.68521
G1 X130.38 Y8.358 E18.91394
G1 X131.045 Y8.471 E18.93076
G1 X131.624 Y8.597 E18.94555
G1 X140.733 Y10.995 E19.18051
G1 X141.542 Y11.221 E19.20147
G1 X142.16 Y11.441 E19.21783
G1 X150.714 Y14.667 E19.44588
G1 X151.706 Y15.064 E19.47253
G1 X160.277 Y19.346 E19.71154
G1 X160.962 Y19.7 E19.73077
G1 X161.436 Y19.976 E19.74445
G1 X169.343 Y25.004 E19.97819
G1 X170.236 Y25.596 E20.00492
G1 X177.826 Y31.602 E20.24636
G1 X178.601 Y32.242 E20.27143
G1 X185.485 Y38.948 E20.51116
G1 X185.997 Y39.463 E20.52928
G1 X186.405 Y39.915 E20.54447
G1 X192.403 Y47.103 E20.778
G1 X192.846 Y47.65 E20.79556
G1 X193.213 Y48.152 E20.81107
G1 X198.417 Y55.886 E21.0436
G1 X198.825 Y56.51 E21.0622
G1 X199.193 Y57.148 E21.08058
G1 X203.508 Y65.255 E21.30967
G1 X203.996 Y66.217 E21.33657
G1 X207.638 Y75.167 E21.57761
G1 X207.93 Y75.916 E21.59766
G1 X208.128 Y76.544 E21.61409
G1 X210.687 Y85.336 E21.84251
G1 X210.968 Y86.38 E21.86948
G1 X212.698 Y95.869 E22.11008
G1 X212.811 Y96.548 E22.12725
G1 X212.877 Y97.111 E22.14139
G1 X213.6 Y106.433 E22.37463
G1 X213.664 Y107.536 E22.40219
G1 X213.417 Y117.178 E22.64279
G1 X213.369 Y118.193 E22.66814
G1 X212.131 Y127.762 E22.90883
G1 X212.012 Y128.594 E22.92979
G1 X211.865 Y129.271 E22.94707
G1 X209.776 Y138.12 E23.17388
G1 X209.566 Y138.957 E23.19541
G1 X209.343 Y139.645 E23.21345
G1 X206.365 Y148.206 E23.43956
G1 X206.019 Y149.155 E23.46475
G1 X201.91 Y157.944 E23.70677
G1 X201.466 Y158.855 E23.73205
G1 X196.499 Y167.129 E23.97278
G1 X196.102 Y167.771 E23.99161
G1 X195.755 Y168.272 E24.00681
G1 X190.157 Y175.731 E24.23945
G1 X189.499 Y176.574 E24.26613
G1 X182.952 Y183.649 E24.50659
G1 X182.466 Y184.158 E24.52414
G1 X182.03 Y184.574 E24.53917
G1 X174.993 Y190.761 E24.77291
G1 X174.448 Y191.226 E24.79078
G1 X174.032 Y191.548 E24.8039
G1 X166.338 Y197.02 E25.03942
G1 X165.748 Y197.426 E25.05729
G1 X165.295 Y197.708 E25.0706
G1 X157.075 Y202.361 E25.30622
G1 X156.199 Y202.834 E25.33105
G1 X147.435 Y206.666 E25.56966
G1 X146.37 Y207.106 E25.5984
G1 X137.213 Y210.03 E25.83819
G1 X136.522 Y210.239 E25.85619
G1 X135.977 Y210.376 E25.87021
G1 X126.775 Y212.3 E26.10472
G1 X125.967 Y212.456 E26.12525
G1 X125.328 Y212.535 E26.14131
G1 X116.201 Y213.477 E26.37019
G1 X115.318 Y213.553 E26.3923
G1 X114.775 Y213.578 E26.40586
G1 X110.711 Y213.683 E26.50727
G1 X109.791 Y213.691 E26.53022
G1 X105.429 Y213.583 E26.63907
G1 X104.385 Y213.536 E26.66513
G1 X94.873 Y212.555 E26.90367
G1 X93.85 Y212.428 E26.92939
G1 X84.42 Y210.459 E27.16969
G1 X83.403 Y210.225 E27.19572
G1 X74.21 Y207.291 E27.43644
G1 X73.56 Y207.073 E27.45354
G1 X73.015 Y206.861 E27.46813
G1 X64.413 Y203.103 E27.70229
G1 X63.76 Y202.806 E27.72019
G1 X63.247 Y202.542 E27.73458
G1 X55.074 Y197.918 E27.96882
G1 X54.175 Y197.384 E27.9949
G1 X46.337 Y191.812 E28.23479
G1 X45.49 Y191.183 E28.26111
G1 X38.257 Y184.827 E28.50131
G1 X37.718 Y184.339 E28.51944
G1 X37.336 Y183.957 E28.53292
G1 X30.954 Y177.067 E28.76719
G1 X30.248 Y176.27 E28.79375
G1 X24.45 Y168.546 E29.03467
G1 X23.851 Y167.711 E29.06031
G1 X18.902 Y159.472 E29.30006
G1 X18.536 Y158.843 E29.31821
G1 X18.277 Y158.341 E29.3323
G1 X14.305 Y149.854 E29.56605
G1 X13.874 Y148.885 E29.5925
G1 X10.726 Y139.84 E29.83141
G1 X10.439 Y138.974 E29.85417
G1 X10.282 Y138.366 E29.86983
G1 X8.177 Y129.447 E30.09843
G1 X7.953 Y128.404 E30.12504
G1 X6.714 Y118.851 E30.36533
G1 X6.632 Y118.136 E30.38329
G1 X6.594 Y117.56 E30.39769
G1 X6.351 Y108.15 E30.6325
G1 X6.343 Y107.47 E30.64946
G1 X6.366 Y106.886 E30.66404
G1 X7.087 Y97.558 E30.89742
G1 X7.193 Y96.467 E30.92477
G1 X8.922 Y86.983 E31.16525
G1 X9.078 Y86.192 E31.18536
G1 X9.244 Y85.574 E31.20132
G1 X11.806 Y76.774 E31.42995
G1 X12.129 Y75.743 E31.4569
G1 X15.759 Y66.815 E31.69732
G1 X16.034 Y66.166 E31.7149
G1 X16.284 Y65.649 E31.72922
G1 X20.687 Y57.377 E31.96298
G1 X21.203 Y56.454 E31.98936
G1 X26.577 Y48.462 E32.2296
G1 X26.992 Y47.864 E32.24776
G1 X27.329 Y47.426 E32.26154
G1 X33.33 Y40.23 E32.49527
G1 X34.036 Y39.418 E32.52212
G0 F3600 X34.121 Y39.617
G1 F1800 X41.116 Y32.796 E32.76583
G1 X41.578 Y32.358 E32.78171
G1 X42.002 Y31.995 E32.79564
G1 X49.399 Y26.138 E33.031
G1 X50.177 Y25.548 E33.05535
G1 X58.292 Y20.384 E33.29529
G1 X59.193 Y19.836 E33.3216
G1 X67.787 Y15.539 E33.56128
G1 X68.442 Y15.223 E33.57942
G1 X68.94 Y15.012 E33.59291
G1 X77.713 Y11.702 E33.82682
G1 X78.699 Y11.353 E33.85291
G1 X88.006 Y8.901 E34.09299
G1 X89.019 Y8.656 E34.11899
G1 X98.48 Y7.181 E34.35785
G1 X99.245 Y7.073 E34.37712
G1 X99.764 Y7.026 E34.39012
G1 X109.125 Y6.54 E34.62394
G1 X109.881 Y6.512 E34.64282
G1 X110.414 Y6.519 E34.65611
G1 X119.769 Y6.999 E34.88978
G1 X120.642 Y7.056 E34.9116
G1 X121.29 Y7.145 E34.92792
G1 X130.346 Y8.555 E35.15655
G1 X131.341 Y8.729 E35.18174
G1 X140.68 Y11.188 E35.42264
G1 X141.473 Y11.409 E35.44318
G1 X142.09 Y11.628 E35.45951
G1 X150.641 Y14.853 E35.68748
G1 X151.319 Y15.119 E35.70565
G1 X151.841 Y15.355 E35.71994
G1 X160.185 Y19.524 E35.95262
G1 X161.136 Y20.022 E35.9794
G1 X169.233 Y25.171 E36.21876
G1 X169.853 Y25.577 E36.23724
G1 X170.315 Y25.914 E36.25151
G1 X177.7 Y31.757 E36.48642
G1 X178.401 Y32.329 E36.50899
G1 X185.343 Y39.089 E36.75069
G1 X186.083 Y39.842 E36.77703
G1 X192.248 Y47.229 E37.01704
G1 X192.691 Y47.776 E37.0346
G1 X193.047 Y48.264 E37.04967
G1 X198.224 Y55.957 E37.28098
G1 X198.657 Y56.62 E37.30073
G1 X198.974 Y57.165 E37.31646
G1 X203.331 Y65.346 E37.54767
G1 X203.674 Y66.013 E37.56638
G1 X203.906 Y66.527 E37.58045
G1 X207.452 Y75.239 E37.81508
G1 X207.7 Y75.876 E37.83213
G1 X207.936 Y76.6 E37.85113
G1 X210.51 Y85.445 E38.08092
G1 X210.687 Y86.091 E38.09763
G1 X210.822 Y86.697 E38.11312
G1 X212.501 Y95.901 E38.3465
G1 X212.614 Y96.58 E38.36367
G1 X212.677 Y97.126 E38.37738
G1 X213.401 Y106.446 E38.61057
G1 X213.45 Y107.214 E38.62977
G1 X213.458 Y107.782 E38.64394
G1 X213.217 Y117.17 E38.8782
G1 X213.17 Y118.175 E38.9033
G1 X211.934 Y127.734 E39.14373
G1 X211.819 Y128.537 E39.16397
G1 X211.67 Y129.225 E39.18153
G1 X209.582 Y138.071 E39.40826
G1 X209.373 Y138.906 E39.42973
G1 X209.154 Y139.579 E39.44738
G1 X206.159 Y148.186 E39.67471
G1 X205.803 Y149.149 E39.70032
G1 X201.73 Y157.856 E39.94011
G1 X201.286 Y158.767 E39.96539
G1 X196.329 Y167.024 E40.20563
G1 X195.808 Y167.866 E40.23033
G1 X189.999 Y175.609 E40.47179
G1 X189.555 Y176.186 E40.48995
G1 X189.181 Y176.623 E40.5043
G1 X182.807 Y183.511 E40.7384
G1 X182.088 Y184.257 E40.76425
G1 X174.863 Y190.609 E41.00423
G1 X174.091 Y191.26 E41.02942
G1 X166.225 Y196.855 E41.27021
G1 X165.382 Y197.428 E41.29563
G1 X156.979 Y202.186 E41.53652
G1 X156.402 Y202.502 E41.55293
G1 X155.881 Y202.754 E41.56737
G1 X147.305 Y206.504 E41.80085
G1 X146.315 Y206.913 E41.82757
G1 X137.155 Y209.838 E42.06744
G1 X136.161 Y210.133 E42.0933
G1 X126.737 Y212.103 E42.33346
G1 X126.044 Y212.237 E42.35107
G1 X125.382 Y212.328 E42.36774
G1 X116.183 Y213.278 E42.59843
G1 X115.308 Y213.353 E42.62034
G1 X114.77 Y213.378 E42.63377
G1 X110.709 Y213.483 E42.73511
G1 X109.796 Y213.491 E42.75788
G1 X105.434 Y213.383 E42.86673
G1 X104.292 Y213.326 E42.89525
G1 X94.897 Y212.357 E43.13085
G1 X93.889 Y212.232 E43.15619
G1 X84.464 Y210.264 E43.39637
G1 X83.774 Y210.11 E43.41401
G1 X83.213 Y209.954 E43.42853
G1 X74.274 Y207.101 E43.6626
G1 X73.324 Y206.777 E43.68763
G1 X64.496 Y202.921 E43.92794
G1 X63.56 Y202.489 E43.95366
G1 X55.175 Y197.746 E44.19396
G1 X54.571 Y197.392 E44.21143
G1 X54.078 Y197.07 E44.22612
G1 X46.455 Y191.651 E44.45942
G1 X45.861 Y191.215 E44.47781
G1 X45.451 Y190.882 E44.49098
G1 X38.391 Y184.679 E44.72541
G1 X37.852 Y184.191 E44.74355
G1 X37.482 Y183.821 E44.7566
G1 X31.103 Y176.933 E44.99079
G1 X30.456 Y176.212 E45.01496
G1 X24.612 Y168.429 E45.25774
G1 X24.025 Y167.612 E45.28284
G1 X19.075 Y159.371 E45.52264
G1 X18.559 Y158.472 E45.5485
G1 X14.487 Y149.772 E45.78812
G1 X14.059 Y148.812 E45.81434
G1 X10.916 Y139.777 E46.05296
G1 X10.632 Y138.92 E46.07548
G1 X10.476 Y138.316 E46.09105
G1 X8.373 Y129.404 E46.31946
G1 X8.214 Y128.685 E46.33783
G1 X8.118 Y128.124 E46.35203
G1 X6.913 Y118.828 E46.58586
G1 X6.8 Y117.799 E46.61168
G1 X6.551 Y108.147 E46.85253
G1 X6.543 Y107.467 E46.86949
G1 X6.565 Y106.902 E46.8836
G1 X7.286 Y97.576 E47.11693
G1 X7.391 Y96.501 E47.14388
G1 X9.118 Y87.021 E47.38425
G1 X9.272 Y86.24 E47.4041
G1 X9.436 Y85.63 E47.41986
G1 X11.997 Y76.832 E47.64844
G1 X12.216 Y76.119 E47.66704
G1 X12.412 Y75.58 E47.68135
G1 X15.943 Y66.893 E47.91526
G1 X16.218 Y66.244 E47.93285
G1 X16.46 Y65.743 E47.94673
G1 X20.862 Y57.473 E48.18043
G1 X21.217 Y56.83 E48.19875
G1 X21.512 Y56.353 E48.21274
G1 X26.742 Y48.577 E48.4465
G1 X27.286 Y47.793 E48.47031
G1 X33.482 Y40.361 E48.71168
G1 X34.121 Y39.617 E48.73614
G0 F3600 X34.31 Y39.711
G1 F1800 X41.254 Y32.941 E48.97806
G1 X41.716 Y32.503 E48.99394
G1 X42.126 Y32.152 E49.0074
G1 X49.521 Y26.297 E49.24269
G1 X50.287 Y25.715 E49.26669
G1 X58.397 Y20.554 E49.50649
G1 X59.027 Y20.167 E49.52493
G1 X59.5 Y19.905 E49.53842
G1 X67.874 Y15.719 E49.77195
G1 X68.529 Y15.403 E49.79009
G1 X69.011 Y15.199 E49.80315
G1 X77.829 Y11.873 E50.03824
G1 X78.458 Y11.646 E50.05492
G1 X79.001 Y11.48 E50.06909
G1 X88.054 Y9.095 E50.30262
G1 X89.057 Y8.852 E50.32836
G1 X98.508 Y7.379 E50.56697
G1 X99.273 Y7.271 E50.58624
G1 X99.774 Y7.225 E50.59879
G1 X109.133 Y6.74 E50.83256
G1 X109.889 Y6.712 E50.85144
G1 X110.403 Y6.718 E50.86426
G1 X119.756 Y7.199 E51.09788
G1 X120.629 Y7.256 E51.1197
G1 X121.259 Y7.342 E51.13556
G1 X130.313 Y8.753 E51.36414
G1 X131.293 Y8.924 E51.38896
G1 X140.626 Y11.38 E51.6297
G1 X141.412 Y11.599 E51.65005
G1 X142.019 Y11.815 E51.66612
G1 X150.568 Y15.039 E51.89404
G1 X151.528 Y15.422 E51.91982
G1 X160.093 Y19.701 E52.15865
G1 X160.778 Y20.055 E52.17789
G1 X161.222 Y20.313 E52.1907
G1 X169.124 Y25.338 E52.4243
G1 X169.927 Y25.864 E52.44824
G1 X177.573 Y31.912 E52.69143
G1 X178.333 Y32.539 E52.716
G1 X185.201 Y39.23 E52.95519
G1 X185.713 Y39.745 E52.9733
G1 X186.098 Y40.172 E52.98765
G1 X192.092 Y47.355 E53.22102
G1 X192.733 Y48.155 E53.24659
G1 X198.082 Y56.105 E53.48561
G1 X198.552 Y56.824 E53.50704
G1 X198.84 Y57.336 E53.52169
G1 X203.153 Y65.438 E53.75065
G1 X203.496 Y66.105 E53.76936
G1 X203.721 Y66.602 E53.78297
G1 X207.247 Y75.265 E54.01628
G1 X207.584 Y76.148 E54.03986
G1 X207.744 Y76.656 E54.05315
G1 X210.317 Y85.498 E54.28286
G1 X210.559 Y86.383 E54.30575
G1 X212.303 Y95.934 E54.54794
G1 X212.453 Y96.833 E54.57067
G1 X213.201 Y106.459 E54.81152
